assets/charts/pharmacist/rgb/i1pro/letter/extended1944/extended1944.ti1
CTI1   

DESCRIPTOR "Argyll Calibration Target chart information 1"
ORIGINATOR "ChromIQ"
APPROX_WHITE_POINT "95.050000 100.000000 108.900000"
COLOR_REP "iRGB"
WHITE_COLOR_PATCHES "2"
BLACK_COLOR_PATCHES "2"
CREATED "Sat Jun 20 12:47:54 2026"

NUMBER_OF_FIELDS 7
BEGIN_DATA_FORMAT
SAMPLE_ID RGB_R RGB_G RGB_B XYZ_X XYZ_Y XYZ_Z
END_DATA_FORMAT

NUMBER_OF_SETS 1944
BEGIN_DATA
1 8.6957 6.3863 11.0051 1.6778 1.6294 2.2637
2 69.5692 58.7233 47.9881 33.2487 33.2145 23.9520
3 33.3333 88.8889 88.8889 45.4445 62.5928 82.3403
4 19.7083 30.0000 15.0000 5.2085 7.0036 3.8598
5 22.2222 11.1111 55.5556 7.8301 4.6130 26.6293
6 68.1392 55.5166 50.2397 31.5547 30.4520 25.4166
7 73.1093 82.0321 79.6412 54.3994 60.8940 65.8202
8 74.3515 49.6994 34.6168 31.1081 27.4472 13.8033
9 62.9080 67.5268 65.2174 36.8683 40.4609 42.6734
10 82.6087 82.6087 82.6087 62.0203 65.2502 71.0574
11 91.3043 88.9949 93.6137 76.7224 78.6292 92.7057
12 40.0954 28.8496 18.6340 9.3166 8.8094 4.8723
13 16.8147 14.4238 7.8919 2.7060 2.8527 2.0150
14 76.2224 71.6036 73.9130 48.7875 49.3786 55.2750
15 0.0000 0.0000 66.6667 8.1336 3.8733 38.9149
16 86.9565 89.2659 84.6471 70.3107 75.9637 76.1184
17 77.7778 77.7778 88.8889 57.8420 58.5383 80.9042
18 39.1304 41.4398 36.8210 13.1942 14.6063 13.5290
19 75.2934 77.6843 68.7614 50.1783 55.1989 49.2821
20 33.3333 44.4444 11.1111 10.7538 14.7625 4.3372
21 68.3087 50.4332 45.6172 29.1326 26.6264 21.0057
22 44.4444 100.0000 100.0000 61.0069 82.4501 107.3068
23 22.2222 55.5556 11.1111 12.3409 20.9906 5.4557
24 55.5556 55.5556 100.0000 39.3345 32.8664 98.8784
25 93.3428 97.9616 95.6522 85.8014 93.0264 99.0433
26 31.2500 62.5000 38.1944 18.6921 28.2129 16.6988
27 22.2222 55.5556 77.7778 22.2587 24.9577 57.6818
28 77.7778 88.8889 11.1111 51.4091 67.2236 12.3204
29 55.5556 22.2222 22.2222 14.0929 9.8178 5.8875
30 33.3333 66.6667 11.1111 19.1018 31.4585 7.1199
31 47.5000 47.5000 13.5375 15.8515 18.7187 5.2612
32 0.0000 33.3333 44.4444 7.1360 8.6198 17.7979
33 22.2222 77.7778 11.1111 22.8814 42.0714 8.9691
34 60.8696 60.8696 60.8696 31.8895 33.5503 36.5363
35 1.4500 63.8161 72.5000 22.5716 30.3241 50.9811
36 44.4444 66.6667 100.0000 39.8355 40.1073 100.2497
37 60.8696 63.1790 58.5602 32.4066 35.3505 34.3471
38 100.0000 55.5556 11.1111 51.5168 41.1865 7.2891
39 100.0000 100.0000 55.5556 81.9894 94.7758 40.1239
40 100.0000 22.2222 0.0000 43.2103 24.9119 3.4771
41 22.2222 22.2222 44.4444 7.0039 5.9037 17.2806
42 44.4444 44.4444 0.0000 13.6180 16.2635 3.3675
43 82.5000 21.4500 71.6467 37.1380 20.6682 47.1673
44 11.1111 0.0000 33.3333 3.0570 1.8984 9.6598
45 96.5359 98.8453 98.8453 90.5176 96.3473 105.9924
46 43.8453 87.0814 98.8453 50.8202 63.1096 101.6691
47 0.0000 77.7778 44.4444 23.9876 42.3231 23.4151
48 100.0000 77.7778 33.3333 63.4691 62.8320 18.2371
49 22.2222 77.7778 55.5556 27.4788 43.9104 33.1789
50 39.3750 78.7500 67.4297 34.1994 47.9210 47.0056
51 55.5556 77.7778 0.0000 32.0054 46.7994 8.2924
52 66.6667 44.4444 11.1111 23.4567 21.3111 4.9317
53 55.5556 100.0000 77.7778 57.4694 81.5206 66.7438
54 92.1081 85.5762 83.1853 71.4854 72.9307 73.0001
55 100.0000 44.4444 0.0000 47.6611 33.8133 4.9607
56 0.0000 100.0000 0.0000 36.3529 71.8048 12.8898
57 82.5000 26.7896 23.5125 30.2405 19.0722 7.2598
58 33.3333 0.0000 0.0000 4.6593 2.9120 1.2626
59 11.1111 0.0000 22.2222 2.1566 1.5383 4.9185
60 85.7417 66.1647 53.3969 48.1705 45.6079 30.3299
61 88.8889 11.1111 22.2222 33.3502 18.2411 6.4984
62 0.0000 0.0000 0.0000 0.9505 1.0000 1.0890
63 100.0000 66.6667 100.0000 73.8786 57.6572 101.8429
64 88.8889 66.6667 11.1111 46.6507 45.6605 8.4091
65 88.8889 11.1111 44.4444 35.5967 19.1397 18.3284
66 66.6667 77.7778 100.0000 55.2994 56.7437 102.6458
67 11.1111 88.8889 11.1111 28.7494 55.5421 11.2600
68 11.1111 77.7778 44.4444 24.4708 42.5722 23.4377
69 22.2222 100.0000 0.0000 38.0046 72.6563 12.9671
70 55.5556 44.4444 77.7778 27.9499 22.4817 56.9040
71 63.3600 72.0000 72.0000 41.0257 45.7432 52.2897
72 88.8889 77.7778 66.6667 59.4591 60.1225 47.0670
73 33.3333 22.2222 22.2222 6.8145 6.0656 5.5469
74 83.0697 63.1009 49.9843 44.2048 41.5634 26.6726
75 48.6299 42.0979 39.7070 16.7595 16.6604 15.5317
76 44.4444 77.7778 11.1111 28.0141 44.7174 9.2094
77 11.1111 44.4444 88.8889 20.9976 18.4874 75.1156
78 88.8889 88.8889 66.6667 66.4956 74.1957 49.4125
79 53.5543 55.9451 47.0223 24.1176 26.9166 22.4327
80 77.7778 100.0000 88.8889 73.1768 89.2078 86.0158
81 22.5429 16.0109 13.6201 3.7240 3.5521 2.9890
82 30.0000 8.5500 17.4875 4.6822 3.2866 3.7510
83 81.0044 66.7707 53.2898 44.9760 44.3874 30.1619
84 95.6522 93.3428 97.9616 85.1835 87.3976 102.7029
85 0.0000 100.0000 77.7778 46.4821 75.8565 66.2296
86 3.9969 1.1547 1.1547 1.1244 1.1348 1.1896
87 60.3396 43.5308 29.7443 21.0326 19.5588 10.3545
88 55.5556 11.1111 33.3333 13.9800 8.1514 10.2910
89 65.2026 43.9688 34.6559 24.0831 21.2569 13.0003
90 92.0125 83.0441 74.6535 67.2389 68.6185 59.0831
91 44.4500 44.4500 63.5000 20.0711 18.8474 37.3321
92 22.2222 88.8889 55.5556 34.5153 57.9835 35.5244
93 76.8805 83.4125 74.4896 56.1773 63.2670 58.3958
94 100.0000 33.3333 88.8889 58.6751 33.9518 76.1147
95 88.8889 77.7778 100.0000 70.1454 64.3971 103.3406
96 11.1111 66.6667 33.3333 17.2879 30.3604 14.4034
97 73.1896 95.0000 4.7500 52.7251 74.4566 12.8867
98 70.3690 61.4462 63.8370 37.8659 36.9185 40.2800
99 22.2222 77.7778 44.4444 25.6393 43.1746 23.4924
100 65.0887 46.2120 33.1070 24.5099 22.4538 12.3781
101 100.0000 66.6667 66.6667 63.1922 53.3826 45.5693
102 44.2820 35.3592 37.7501 13.4178 12.5781 13.6852
103 47.5000 31.4622 13.5375 11.9241 10.8637 3.9520
104 68.1848 65.7940 74.7168 41.2832 41.2404 55.2585
105 46.7806 34.4674 31.9761 13.4582 12.3914 10.4406
106 66.5978 68.9886 60.0658 38.3855 42.4331 37.0209
107 55.5556 77.7778 33.3333 33.6287 47.4488 16.8406
108 77.7778 22.2222 88.8889 39.2066 21.2675 74.6924
109 22.2222 66.6667 33.3333 18.4565 30.9628 14.4581
110 87.7603 81.2283 78.8375 63.8815 65.0748 64.8673
111 33.3333 55.5556 55.5556 18.9955 23.8900 29.7617
112 53.9319 35.1289 21.5702 15.5168 13.7515 6.3613
113 33.3333 11.1111 55.5556 9.8872 5.6735 26.7256
114 22.2222 22.2222 66.6667 11.2176 7.5892 39.4696
115 22.2222 22.2222 55.5556 8.8434 6.6395 26.9671
116 0.0000 66.6667 11.1111 15.3930 29.5465 6.9463
117 18.1951 9.2722 11.6631 2.6286 2.3080 2.4519
118 77.7778 100.0000 11.1111 59.7073 83.8200 15.0865
119 100.0000 22.2222 88.8889 56.8913 30.3843 75.5201
120 68.7614 75.2934 77.6843 47.2916 51.4243 61.3281
121 22.2222 88.8889 44.4444 32.6759 57.2477 25.8379
122 22.2222 77.7778 88.8889 36.3508 47.4592 79.8985
123 67.2558 69.5652 71.8746 41.8179 44.3067 51.7974
124 77.7778 66.6667 88.8889 52.0053 46.8649 78.9587
125 88.8889 22.2222 0.0000 33.6405 19.9784 3.0293
126 54.2123 56.5217 58.8311 26.7111 28.3365 33.5815
127 23.1195 25.5104 16.5875 5.0268 5.8354 4.0039
128 11.1111 100.0000 44.4444 39.8055 73.2417 28.5493
129 88.8889 0.0000 0.0000 32.2083 17.1140 2.5518
130 47.5000 36.4266 26.1250 13.6313 13.1608 7.9658
131 77.4571 83.9891 86.3799 60.5537 65.6489 77.6441
132 29.8582 27.4673 20.9354 6.7279 7.1264 5.3477
133 34.7826 32.4732 37.0920 10.0742 9.9936 12.9645
134 100.0000 2.0000 5.5389 41.9122 22.1887 3.4356
135 22.2222 33.3333 0.0000 5.8182 8.2835 2.2383
136 50.7935 48.4027 57.3255 22.2071 21.8506 30.9882
137 66.6667 33.3333 55.5556 25.3872 17.8162 28.2525
138 47.5000 26.3328 26.1250 11.7617 9.4216 7.3426
139 44.4444 88.8889 0.0000 34.8392 58.7060 10.4412
140 11.1111 88.8889 66.6667 35.7210 58.3308 47.9723
141 22.2222 66.6667 11.1111 17.0447 30.3980 7.0236
142 22.2222 33.3333 22.2222 6.5412 8.5727 6.0452
143 55.5556 0.0000 100.0000 29.8072 13.8119 95.7027
144 63.8370 61.4462 70.3690 35.8438 35.6943 48.3998
145 22.2222 44.4444 44.4444 11.4546 14.8052 18.7642
146 82.5000 23.5125 48.0906 32.4829 19.2207 21.3759
147 100.0000 11.1111 11.1111 42.4085 22.9699 4.2530
148 22.2222 44.4444 100.0000 26.3547 20.7652 97.2268
149 44.4444 11.1111 33.3333 9.7773 5.9848 10.0943
150 44.4444 22.2222 22.2222 9.8902 7.6512 5.6908
151 88.8889 0.0000 33.3333 33.8316 17.7633 11.1000
152 0.0000 22.2222 0.0000 2.3827 3.8645 1.5664
153 33.3333 77.7778 44.4444 27.6965 44.2351 23.5887
154 0.9000 35.5675 45.0000 7.7064 9.5906 18.3740
155 66.6667 88.8889 22.2222 45.1894 63.9582 14.6987
156 36.8210 39.1304 41.4398 12.5592 13.3557 16.2729
157 15.9400 7.8000 30.0000 3.3964 2.4745 8.1044
158 100.0000 88.8889 88.8889 82.5633 81.7282 84.0774
159 11.1111 44.4444 100.0000 25.1861 20.1628 97.1721
160 88.8889 55.5556 66.6667 48.9187 39.0417 43.5535
161 31.2500 62.5000 52.0833 20.7162 29.0226 27.3574
162 26.7099 10.6601 10.6300 3.9074 3.0838 2.3683
163 90.8308 79.3609 68.9771 62.5169 63.0110 50.4213
164 86.9565 84.6471 89.2659 68.7792 70.4032 83.3073
165 64.4136 73.3365 70.9456 42.0017 47.3283 51.0993
166 88.8889 66.6667 77.7778 56.5685 49.6276 60.6353
167 32.6250 42.8153 72.5000 18.5883 17.1576 48.6496
168 66.6667 55.5556 77.7778 37.0188 32.5668 58.3726
169 22.2222 44.4444 66.6667 15.6683 16.4907 40.9532
170 33.4022 39.9342 31.0114 10.7627 12.8552 10.1982
171 27.5894 1.6500 82.5000 15.0844 7.0177 62.1114
172 11.1111 11.1111 77.7778 11.9819 6.1387 54.5911
173 11.1111 55.5556 0.0000 10.9609 20.3036 4.2874
174 77.7778 33.3333 22.2222 28.0323 19.6518 7.0510
175 10.7341 13.0435 15.3529 2.3184 2.4730 3.2144
176 36.8210 41.4398 39.1304 12.8455 14.3952 14.9291
177 33.3333 33.3333 77.7778 18.0046 13.3957 55.6744
178 80.3525 61.7760 48.5286 41.4591 39.3198 25.1459
179 33.3333 44.4444 100.0000 28.4118 21.8257 97.3231
180 0.0000 33.3333 0.0000 4.1665 7.4320 2.1610
181 41.0017 23.7500 47.5000 11.7196 8.5744 19.9315
182 24.0485 21.7391 19.4297 4.8089 4.9626 4.5873
183 88.8889 100.0000 77.7778 77.7399 91.9705 67.6924
184 10.0760 3.5440 12.4669 1.7169 1.5098 2.4851
185 38.5538 36.1630 29.6310 11.0543 11.7133 9.3141
186 53.7014 95.0000 47.5000 46.0865 70.6464 30.1013
187 44.4500 63.5000 53.9750 25.0304 31.8608 29.4444
188 66.6667 66.6667 44.4444 34.5627 39.1103 22.2376
189 77.7778 22.2222 11.1111 25.7371 15.8797 3.7631
190 88.8889 0.0000 22.2222 32.9312 17.4031 6.3587
191 55.5556 66.6667 77.7778 36.2979 39.1778 59.6866
192 66.6667 0.0000 100.0000 35.2318 16.6084 95.9566
193 2.3125 46.2500 14.0902 7.7441 13.9761 4.8824
194 44.4444 55.5556 100.0000 35.1317 30.6998 98.6818
195 50.1650 63.5000 50.1650 26.3820 32.6342 26.0454
196 77.7778 66.6667 55.5556 43.1333 43.3161 32.2391
197 44.4444 44.4444 77.7778 23.7472 20.3151 56.7073
198 55.5556 11.1111 66.6667 19.5398 10.3753 39.5688
199 93.1944 50.0000 100.0000 61.1873 41.2377 99.3425
200 8.1191 0.0000 5.7282 1.3331 1.1877 1.5381
201 27.3050 30.0000 0.6000 6.0257 7.4644 2.1128
202 55.5556 33.3333 44.4444 18.1232 14.2839 18.3121
203 0.0000 100.0000 55.5556 41.1618 73.7284 38.2132
204 43.4783 41.1689 45.7877 15.5881 15.6014 19.7236
205 8.6957 8.6957 8.6957 1.7143 1.8035 1.9640
206 34.2060 25.2832 31.8152 8.1792 7.2898 9.6539
207 8.1191 5.7282 0.0000 1.4142 1.4820 1.1576
208 44.4444 0.0000 77.7778 17.8642 8.5492 54.7463
209 66.6667 66.6667 22.2222 32.3162 38.2117 10.4076
210 66.6667 100.0000 11.1111 52.9762 80.3500 14.7715
211 63.5950 80.5000 63.5950 43.8847 54.5667 43.0834
212 77.7778 77.7778 77.7778 54.2903 57.1176 62.2011
213 11.1111 44.4444 55.5556 12.1256 14.9386 28.3960
214 11.1111 100.0000 77.7778 46.9653 76.1056 66.2522
215 11.1111 66.6667 100.0000 33.5342 36.8588 99.9548
216 0.0000 11.1111 100.0000 19.2390 8.9857 95.3282
217 12.4669 10.0760 3.5440 1.9418 2.0383 1.4941
218 22.2222 100.0000 100.0000 55.8741 79.8041 107.0666
219 66.6667 66.6667 33.3333 33.2166 38.5719 15.1489
220 63.8453 0.1453 26.6870 16.9028 9.1101 7.2360
221 3.1304 20.4447 24.4250 3.1396 3.8417 6.0745
222 92.3794 73.1842 86.4364 65.4108 58.7444 76.1546
223 46.4457 44.0549 52.9777 18.5152 18.1246 26.1951
224 33.3333 11.1111 88.8889 18.7593 9.2223 73.4452
225 72.0000 56.8800 72.0000 38.9798 34.5107 50.2294
226 22.2222 44.4444 88.8889 22.1661 19.0898 75.1702
227 66.6667 22.2222 22.2222 19.5174 12.6142 6.1413
228 83.6600 89.0000 78.3200 65.6815 73.5310 65.6022
229 72.8146 65.2685 58.5269 39.8882 40.6071 34.9321
230 70.8505 55.6840 42.3844 31.9985 30.9103 19.2935
231 0.0000 11.1111 77.7778 11.4987 5.8896 54.5684
232 100.0000 11.1111 33.3333 43.8204 23.5347 11.6875
233 30.4348 28.1254 32.7442 7.8704 7.7657 10.2321
234 77.7778 22.2222 33.3333 27.1489 16.4444 11.1976
235 72.3964 46.1260 34.7453 28.8034 24.6099 13.4480
236 38.3267 47.2495 44.8586 15.6449 18.1823 19.5067
237 81.2824 63.9370 48.7082 43.0878 41.5634 25.6434
238 42.9017 40.5108 33.9788 13.7633 14.5825 11.8872
239 83.4125 74.4896 76.8805 56.1187 55.3449 60.4000
240 88.8889 33.3333 100.0000 53.2938 30.6938 97.7233
241 47.5000 0.9500 37.0909 10.8263 5.8958 12.1333
242 28.1254 32.7442 30.4348 8.0233 9.0926 9.3413
243 98.0000 97.6906 100.0000 91.3855 95.3921 108.2037
244 0.0000 22.2222 66.6667 9.5659 6.7377 39.3923
245 11.1111 0.0000 11.1111 1.6452 1.3337 2.2252
246 69.5652 71.8746 67.2558 43.1352 46.8720 46.1116
247 88.8889 22.2222 22.2222 34.3634 20.2676 6.8361
248 65.0000 18.5250 37.8896 19.6016 11.8783 13.3097
249 35.5369 27.3692 22.6866 8.0924 7.7945 5.9673
250 77.7778 11.1111 33.3333 26.1357 14.4179 10.8599
251 86.9565 86.9565 86.9565 69.5043 73.1239 79.6320
252 30.2856 13.8063 58.7500 10.0348 5.9475 30.0525
253 70.6998 47.1352 32.7135 27.8846 24.6099 12.4127
254 77.7778 33.3333 77.7778 37.4386 23.4143 56.5839
255 82.5000 41.2500 56.5469 37.3873 26.6585 30.3201
256 66.6667 77.7778 77.7778 47.5592 53.6476 61.8861
257 22.2222 77.7778 66.6667 29.8530 44.8601 45.6814
258 69.5652 67.2558 71.8746 41.9911 42.7183 51.4817
259 28.5858 0.6000 8.7408 3.8253 2.4895 1.9910
260 100.0000 44.4444 33.3333 49.2844 34.4626 13.5088
261 55.5556 0.0000 88.8889 25.6187 12.1365 73.6461
262 11.1111 88.8889 88.8889 42.2189 60.9299 82.1893
263 98.0000 100.0000 100.0000 93.2170 99.0551 108.8142
264 66.6667 55.5556 66.6667 34.0727 31.3883 42.8587
265 30.2762 21.4529 18.6201 5.8531 5.4549 4.4036
266 77.7778 55.5556 88.8889 47.3016 37.4575 77.3908
267 86.9296 72.3098 62.3025 53.9074 52.8954 40.7297
268 55.5556 100.0000 0.0000 47.3401 77.4689 13.4040
269 0.0000 88.8889 33.3333 29.6780 55.8578 18.6719
270 88.4024 73.9722 61.0100 55.6650 55.1509 39.6091
271 0.0000 0.0000 2.0000 0.9782 1.0111 1.2347
272 11.1111 77.7778 66.6667 28.6845 44.2577 45.6267
273 11.1111 55.5556 22.2222 11.6838 20.5927 8.0942
274 87.5331 89.9240 96.4560 75.4271 78.7952 98.4668
275 66.6667 22.2222 0.0000 18.7945 12.3251 2.3345
276 88.8889 33.3333 0.0000 35.4243 23.5460 3.6238
277 3.9375 78.7500 50.3836 25.5980 43.8886 28.4499
278 19.4297 21.7391 24.0485 4.4463 4.7431 6.0434
279 33.3333 0.0000 100.0000 22.5288 10.0598 95.3621
280 66.6667 66.6667 0.0000 31.5933 37.9225 6.6007
281 49.8645 54.4833 52.1739 22.9631 25.4176 26.6259
282 62.0243 39.3125 27.6583 20.5877 17.7272 9.1061
283 77.7778 88.8889 44.4444 54.1671 68.3268 26.8437
284 39.7070 42.0979 48.6299 15.1351 15.6769 22.0544
285 55.5556 66.6667 44.4444 29.1382 36.3139 21.9838
286 63.4254 38.4114 29.6608 21.2467 17.7272 9.9514
287 45.5000 0.9500 18.2123 8.6071 4.9284 4.0480
288 97.9616 93.3428 95.6522 86.3389 88.0971 98.0635
289 61.4462 63.8370 70.3690 35.6837 37.1619 48.6915
290 44.4444 88.8889 44.4444 37.8087 59.8938 26.0781
291 95.6992 83.2143 74.6850 70.5034 70.4599 59.3122
292 69.1824 48.1105 40.7351 28.2095 25.1189 17.2404
293 0.0000 77.7778 33.3333 22.6415 41.7846 16.3264
294 77.7778 66.6667 66.6667 45.5075 44.2658 44.7416
295 32.4732 37.0920 34.7826 10.2521 11.5496 11.9255
296 29.3238 46.2500 23.1250 10.9929 15.5970 7.4693
297 33.3333 55.5556 11.1111 14.3981 22.0511 5.5519
298 13.0435 15.3529 10.7341 2.5030 2.8507 2.4134
299 55.5556 88.8889 100.0000 56.9115 68.0204 104.7374
300 97.7685 86.5451 78.9521 75.7285 76.2188 66.5725
301 55.5556 22.2222 55.5556 18.1789 11.4522 27.4040
302 38.8125 86.2500 64.7055 38.0861 56.9560 45.1732
303 11.1111 66.6667 88.8889 29.3456 35.1834 77.8982
304 9.2722 11.6631 18.1951 2.2643 2.2927 3.8690
305 87.1224 86.3297 94.5479 71.9293 73.4405 93.7927
306 83.4847 60.9415 48.5238 43.3394 39.7625 25.1282
307 66.6667 44.4444 77.7778 33.3745 25.2782 57.1578
308 11.1111 0.0000 100.0000 19.3032 8.3969 95.2111
309 66.6667 55.5556 11.1111 27.1010 28.5997 6.1464
310 26.4375 36.1761 58.7500 12.5157 11.9905 31.0881
311 0.0000 55.5556 88.8889 24.1587 25.5269 76.3077
312 88.8889 55.5556 88.8889 55.4165 41.6408 77.7705
313 92.5128 79.3063 67.4622 63.5039 63.5148 48.5123
314 33.3333 22.2222 33.3333 7.7149 6.4258 10.2881
315 23.7776 28.3964 26.0870 6.1428 7.0073 7.1578
316 39.1304 36.8210 41.4398 12.6416 12.6001 16.1227
317 0.0000 66.6667 33.3333 16.8048 30.1113 14.3808
318 98.8453 98.8453 93.6937 90.6057 96.6228 95.6033
319 47.5000 27.6516 0.9500 10.9874 9.4387 2.2577
320 31.7596 22.3970 20.5123 6.3833 5.8875 4.9983
321 66.6667 100.0000 88.8889 66.4456 85.7378 85.7008
322 74.4896 76.8805 83.4125 53.3660 55.6775 71.0052
323 44.4444 77.7778 22.2222 28.5256 44.9220 11.9026
324 96.2288 96.4983 97.8787 88.0294 92.3894 103.3446
325 24.3557 21.9648 15.4328 4.6928 4.9657 3.5880
326 55.5556 22.2222 100.0000 31.2395 16.6764 96.1801
327 88.1897 68.4343 60.0761 52.4456 49.2761 37.6121
328 70.1418 72.5327 79.0646 46.9991 49.0088 63.0105
329 20.5844 20.5844 20.5844 4.2397 4.4605 4.8575
330 86.8567 72.7761 59.5355 53.5089 53.1235 37.7100
331 66.6667 11.1111 44.4444 20.7507 11.4863 17.6336
332 66.6667 88.8889 77.7778 54.5957 67.7207 64.2316
333 83.2015 76.3699 92.4286 62.0850 59.3852 87.4683
334 88.8889 55.5556 44.4444 44.7050 37.3562 21.3645
335 81.2283 87.7603 78.8375 63.2362 70.9940 66.0438
336 77.7778 22.2222 0.0000 25.5256 15.7951 2.6495
337 88.8889 100.0000 44.4444 70.5801 89.1066 29.9895
338 60.0658 68.9886 66.5978 36.5088 41.2969 44.5566
339 42.6745 51.5973 49.2065 18.9786 21.9085 23.5409
340 66.6667 0.0000 11.1111 17.5738 9.5452 2.9707
341 77.4571 86.3799 83.9891 61.3253 68.4502 74.0224
342 22.2222 55.5556 100.0000 29.9990 28.0538 98.4415
343 33.3333 33.3333 88.8889 21.5563 14.8164 74.3775
344 37.0920 34.7826 32.4732 10.6300 11.0252 10.5770
345 30.0839 23.5519 23.4704 6.3638 6.0770 5.9952
346 44.8586 47.2495 38.3267 16.7482 18.8503 15.0762
347 55.5556 11.1111 88.8889 26.0377 12.9745 73.7858
348 32.3616 25.0513 20.7675 6.8841 6.6701 5.2000
349 55.5556 22.2222 33.3333 14.9933 10.1779 10.6288
350 17.0375 72.5000 44.7688 22.1209 37.0236 22.7343
351 71.8746 67.2558 69.5652 42.7563 43.1815 48.4092
352 100.0000 55.5556 0.0000 51.3053 41.1019 6.1754
353 66.7787 52.3619 44.3015 28.7473 27.4212 20.1812
354 30.0000 7.8000 26.0533 5.1727 3.4275 6.5047
355 81.5113 70.3776 60.2144 48.4502 48.6515 37.8537
356 88.8889 33.3333 66.6667 42.6074 26.4193 41.4498
357 13.6201 22.5429 16.0109 3.4933 4.4511 3.6824
358 10.0760 12.4669 3.5440 1.9193 2.2446 1.5351
359 11.1111 100.0000 33.3333 38.4594 72.7032 21.4606
360 47.5000 23.7500 44.3663 13.3615 9.4746 17.5764
361 0.0000 44.4444 77.7778 16.9627 16.8176 56.3898
362 26.8907 17.9679 20.3588 4.9221 4.4022 4.7427
363 33.3333 55.5556 77.7778 24.3158 26.0182 57.7781
364 88.8889 22.2222 88.8889 47.3215 25.4508 75.0722
365 44.4444 88.8889 66.6667 42.0224 61.5792 48.2672
366 33.3333 22.2222 66.6667 13.2747 8.6497 39.5659
367 0.0000 0.0000 44.4444 3.9199 2.1878 16.7259
368 84.8942 73.2804 62.6731 52.9570 53.1604 41.2577
369 100.0000 100.0000 44.4444 80.1499 94.0400 30.4374
370 25.2383 12.3500 47.5000 6.9890 4.4565 19.3860
371 93.5028 80.9351 75.3514 67.3793 66.7284 59.7292
372 33.3333 44.4444 33.3333 12.1656 15.3272 11.7717
373 66.6667 33.3333 100.0000 38.4478 23.0404 97.0286
374 88.8889 22.2222 44.4444 36.6100 21.1662 18.6662
375 16.3194 62.5000 3.1250 14.2616 26.1728 5.4728
376 18.7717 12.2397 21.1625 3.3000 2.8634 4.7756
377 20.3588 17.9679 26.8907 4.3587 4.0611 7.0053
378 8.2500 30.0000 13.0833 4.1271 6.4546 3.4254
379 52.1739 49.8645 54.4833 22.6754 22.8502 28.3177
380 66.6667 33.3333 66.6667 27.7614 18.7659 40.7550
381 72.0000 72.0000 50.4000 41.2035 46.3700 28.1207
382 63.8203 78.7500 39.3750 38.7827 50.8695 20.7591
383 66.6667 88.8889 88.8889 58.1475 69.1414 82.9348
384 77.8465 56.7452 46.5368 37.3950 34.2227 22.7560
385 11.1111 88.8889 55.5556 33.3468 57.3811 35.4697
386 80.1101 55.5519 40.7152 37.6703 33.7860 18.4013
387 22.2222 11.1111 0.0000 3.0212 2.6894 1.3060
388 100.0000 91.8809 94.2718 86.6191 86.7233 95.0372
389 55.5556 0.0000 33.3333 13.5610 7.3134 10.1514
390 65.0000 51.1875 35.7500 26.3162 25.6948 14.3536
391 77.7778 55.5556 100.0000 51.4901 39.1329 99.4473
392 93.6137 88.9949 91.3043 77.8096 79.2874 88.3401
393 11.1111 33.3333 0.0000 4.6497 7.6811 2.1836
394 11.1111 66.6667 0.0000 15.6647 29.7110 5.8553
395 0.0000 11.1111 11.1111 1.5809 1.9225 2.3423
396 77.7778 22.2222 44.4444 28.4951 16.9829 18.2864
397 82.3755 95.0017 90.6228 73.0808 83.3090 88.0844
398 16.8147 7.8919 14.4238 2.5087 2.1364 2.9412
399 0.0000 77.7778 88.8889 34.6991 46.6077 79.8212
400 82.5000 54.6448 23.5125 37.3649 33.3211 9.6347
401 0.0000 44.4444 88.8889 20.5144 18.2383 75.0929
402 81.4775 62.7464 54.8112 43.7532 41.0015 31.0285
403 80.2993 82.6087 84.9181 61.1269 64.7038 74.8933
404 23.7776 26.0870 28.3964 5.9638 6.3573 7.9982
405 77.7778 66.6667 100.0000 56.1939 48.5404 101.0152
406 26.4375 56.2817 58.7500 18.5069 23.9729 33.0852
407 44.4444 22.2222 55.5556 13.9761 9.2856 27.2073
408 30.0000 0.6000 22.0783 4.6711 2.8600 4.9940
409 66.6667 100.0000 100.0000 70.6342 87.4132 107.7574
410 44.4444 100.0000 77.7778 53.2666 79.3540 66.5471
411 80.2143 59.8039 43.3298 39.7612 37.3037 20.7942
412 33.3333 22.2222 44.4444 9.0610 6.9642 17.3769
413 29.6310 36.1630 38.5538 9.8712 10.9970 14.0648
414 50.1355 45.5167 47.8261 19.4063 19.3028 21.8633
415 48.3394 29.3801 22.7424 12.3162 10.4616 6.2783
416 33.3333 77.7778 22.2222 25.4499 43.3365 11.7587
417 30.0000 18.8117 0.6000 4.9941 4.6351 1.6210
418 80.5000 80.5000 56.3500 52.5894 59.2287 35.6065
419 13.0435 10.7341 15.3529 2.3412 2.2634 3.1727
420 95.0756 92.6847 86.1527 79.8955 84.4539 79.8562
421 33.3333 100.0000 88.8889 53.7427 79.1892 85.1063
422 11.1111 11.1111 44.4444 4.8221 3.2748 16.8882
423 49.2065 51.5973 42.6745 20.2271 22.6643 18.5277
424 33.3333 55.5556 44.4444 17.1560 23.1542 20.0752
425 33.3333 22.2222 11.1111 6.3031 5.8610 2.8536
426 55.5556 77.7778 44.4444 34.9748 47.9872 23.9293
427 11.7802 7.0528 13.1670 1.9754 1.8136 2.6587
428 88.8889 66.6667 55.5556 51.2482 47.4995 32.6189
429 100.0000 33.3333 100.0000 62.8636 35.6272 98.1712
430 21.6562 78.7500 59.7187 28.7908 45.3329 37.7079
431 11.1111 88.8889 0.0000 28.5379 55.4575 10.1464
432 14.4238 7.8919 16.8147 2.3773 2.0568 3.4688
433 25.7360 21.5135 16.8132 4.9253 4.9975 3.9017
434 50.4000 72.0000 61.2000 32.6739 41.7355 38.4441
435 11.1111 55.5556 55.5556 15.7698 22.2271 29.6108
436 77.7778 77.7778 11.1111 44.3725 53.1505 9.9749
437 88.8889 11.1111 100.0000 50.4967 25.0997 96.7910
438 80.2993 84.9181 82.6087 61.8559 67.3505 71.4715
439 80.7984 82.5000 45.3750 52.1713 61.0531 26.2500
440 33.3333 77.7778 77.7778 34.8562 47.0990 61.2916
441 79.6412 73.1093 82.0321 54.2445 53.0934 68.1705
442 44.4444 0.0000 11.1111 7.9465 4.5821 2.5201
443 55.5556 88.8889 66.6667 46.2251 63.7458 48.4638
444 82.5000 1.6500 39.0431 29.6703 15.6121 14.2215
445 55.5556 55.5556 77.7778 31.5942 29.7703 58.1187
446 0.5766 9.4994 2.9675 1.3377 1.6817 1.4153
447 56.8800 72.0000 56.8800 34.4685 42.7626 33.9212
448 88.8889 0.0000 44.4444 35.1777 18.3018 18.1887
449 77.7778 44.4444 77.7778 40.1056 28.7482 57.4728
450 100.0000 0.0000 33.3333 43.4014 22.6967 11.5479
451 77.7778 0.0000 33.3333 25.7167 13.5799 10.7202
452 11.1111 0.0000 77.7778 11.5629 5.3008 54.4514
453 6.6572 2.0384 4.3478 1.2951 1.2536 1.4358
454 96.3691 89.5477 83.9656 78.0775 80.2837 75.3838
