assets/charts/pharmacist/rgb/i1pro/letter/extended1944/extended1944.ti2
CTI2   

DESCRIPTOR "Argyll Calibration Target chart information 2"
ORIGINATOR "Argyll printtarg"
CREATED "Sat Jun 20 12:47:54 2026"
TARGET_INSTRUMENT "GretagMacbeth i1 Pro"
APPROX_WHITE_POINT "95.050000 100.000000 108.900000"
COLOR_REP "iRGB"
PAPER_SIZE "220.0x320.0"
RANDOM_START "426"
STEPS_IN_PASS "27"
PASSES_IN_STRIPS2 "24,24,24"
STRIP_INDEX_PATTERN "A-Z, A-Z"
PATCH_INDEX_PATTERN "0-9,@-9,@-9;1-999"
INDEX_ORDER "STRIP_THEN_PATCH"

NUMBER_OF_FIELDS 8
BEGIN_DATA_FORMAT
SAMPLE_ID SAMPLE_LOC RGB_R RGB_G RGB_B XYZ_X XYZ_Y XYZ_Z 
END_DATA_FORMAT

NUMBER_OF_SETS 1944
BEGIN_DATA
1 "A1" 8.696117 6.385901 11.00481 1.677800 1.629400 2.263700 
2 "A2" 69.56893 58.72282 47.98810 33.24870 33.21450 23.95200 
3 "A3" 33.33333 88.88838 88.88838 45.44450 62.59280 82.34030 
4 "A4" 19.70855 29.99924 14.99962 5.208500 7.003600 3.859800 
5 "A5" 22.22171 11.11162 55.55505 7.830100 4.613000 26.62930 
6 "A6" 68.13916 55.51690 50.24033 31.55470 30.45200 25.41660 
7 "A7" 73.10903 82.03250 79.64141 54.39940 60.89400 65.82020 
8 "A8" 74.35111 49.70016 34.61662 31.10810 27.44720 13.80330 
9 "A9" 62.90837 67.52728 65.21706 36.86830 40.46090 42.67340 
10 "A10" 82.60929 82.60929 82.60929 62.02030 65.25020 71.05740 
11 "A11" 91.30388 88.99519 93.61410 76.72240 78.62920 92.70570 
12 "A12" 40.09613 28.85023 18.63432 9.316600 8.809400 4.872300 
13 "A13" 16.81544 14.42435 7.891966 2.706000 2.852700 2.015000 
14 "A14" 76.22187 71.60296 73.91318 48.78750 49.37860 55.27500 
15 "A15" 0.00000 0.00000 66.66667 8.133600 3.873300 38.91490 
16 "A16" 86.95659 89.26528 84.64637 70.31070 75.96370 76.11840 
17 "A17" 77.77829 77.77829 88.88838 57.84200 58.53830 80.90420 
18 "A18" 39.13024 41.44045 36.82155 13.19420 14.60630 13.52900 
19 "A19" 75.29412 77.68368 68.76173 50.17830 55.19890 49.28210 
20 "A20" 33.33333 44.44495 11.11162 10.75380 14.76250 4.337200 
21 "A21" 68.30854 50.43259 45.61685 29.13260 26.62640 21.00570 
22 "A22" 44.44495 100.0000 100.0000 61.00690 82.45010 107.3068 
23 "A23" 22.22171 55.55505 11.11162 12.34090 20.99060 5.455700 
24 "A24" 55.55505 55.55505 100.0000 39.33450 32.86640 98.87840 
25 "A25" 93.34249 97.96139 95.65270 85.80140 93.02640 99.04330 
26 "A26" 31.25048 62.49943 38.19486 18.69210 28.21290 16.69880 
27 "A27" 22.22171 55.55505 77.77829 22.25870 24.95770 57.68180 
28 "B1" 77.77829 88.88838 11.11162 51.40910 67.22360 12.32040 
29 "B2" 55.55505 22.22171 22.22171 14.09290 9.817800 5.887500 
30 "B3" 33.33333 66.66667 11.11162 19.10180 31.45850 7.119900 
31 "B4" 47.49981 47.49981 13.53780 15.85150 18.71870 5.261200 
32 "B5" 0.00000 33.33333 44.44495 7.136000 8.619800 17.79790 
33 "B6" 22.22171 77.77829 11.11162 22.88140 42.07140 8.969100 
34 "B7" 60.86976 60.86976 60.86976 31.88950 33.55030 36.53630 
35 "B8" 1.449607 63.81628 72.50019 22.57160 30.32410 50.98110 
36 "B9" 44.44495 66.66667 100.0000 39.83550 40.10730 100.2497 
37 "B10" 60.86976 63.17845 58.55955 32.40660 35.35050 34.34710 
38 "B11" 100.0000 55.55505 11.11162 51.51680 41.18650 7.289100 
39 "B12" 100.0000 100.0000 55.55505 81.98940 94.77580 40.12390 
40 "B13" 100.0000 22.22171 0.00000 43.21030 24.91190 3.477100 
41 "B14" 22.22171 22.22171 44.44495 7.003900 5.903700 17.28060 
42 "B15" 44.44495 44.44495 0.00000 13.61800 16.26350 3.367500 
43 "B16" 82.49943 21.44961 71.64721 37.13800 20.66820 47.16730 
44 "B17" 11.11162 0.00000 33.33333 3.057000 1.898400 9.659800 
45 "B18" 96.53620 98.84489 98.84489 90.51760 96.34730 105.9924 
46 "B19" 43.84527 87.08171 98.84489 50.82020 63.10960 101.6691 
47 "B20" 0.00000 77.77829 44.44495 23.98760 42.32310 23.41510 
48 "B21" 100.0000 77.77829 33.33333 63.46910 62.83200 18.23710 
49 "B22" 22.22171 77.77829 55.55505 27.47880 43.91040 33.17890 
50 "B23" 39.37438 78.75029 67.42962 34.19940 47.92100 47.00560 
51 "B24" 55.55505 77.77829 0.00000 32.00540 46.79940 8.292400 
52 "B25" 66.66667 44.44495 11.11162 23.45670 21.31110 4.931700 
53 "B26" 55.55505 100.0000 77.77829 57.46940 81.52060 66.74380 
54 "B27" 92.10803 85.57565 83.18456 71.48540 72.93070 73.00010 
55 "C1" 100.0000 44.44495 0.00000 47.66110 33.81330 4.960700 
56 "C2" 0.00000 100.0000 0.00000 36.35290 71.80480 12.88980 
57 "C3" 82.49943 26.79026 23.51263 30.24050 19.07220 7.259800 
58 "C4" 33.33333 0.00000 0.00000 4.659300 2.912000 1.262600 
59 "C5" 11.11162 0.00000 22.22171 2.156600 1.538300 4.918500 
60 "C6" 85.74197 66.16464 53.39742 48.17050 45.60790 30.32990 
61 "C7" 88.88838 11.11162 22.22171 33.35020 18.24110 6.498400 
62 "C8" 0.00000 0.00000 0.00000 0.950500 1.000000 1.089000 
63 "C9" 100.0000 66.66667 100.0000 73.87860 57.65720 101.8429 
64 "C10" 88.88838 66.66667 11.11162 46.65070 45.66050 8.409100 
65 "C11" 88.88838 11.11162 44.44495 35.59670 19.13970 18.32840 
66 "C12" 66.66667 77.77829 100.0000 55.29940 56.74370 102.6458 
67 "C13" 11.11162 88.88838 11.11162 28.74940 55.54210 11.26000 
68 "C14" 11.11162 77.77829 44.44495 24.47080 42.57220 23.43770 
69 "C15" 22.22171 100.0000 0.00000 38.00460 72.65630 12.96710 
70 "C16" 55.55505 44.44495 77.77829 27.94990 22.48170 56.90400 
71 "C17" 63.36004 71.99969 71.99969 41.02570 45.74320 52.28970 
72 "C18" 88.88838 77.77829 66.66667 59.45910 60.12250 47.06700 
73 "C19" 33.33333 22.22171 22.22171 6.814500 6.065600 5.546900 
74 "C20" 83.07012 63.10063 49.98398 44.20480 41.56340 26.67260 
75 "C21" 48.63050 42.09812 39.70703 16.75950 16.66040 15.53170 
76 "C22" 44.44495 77.77829 11.11162 28.01410 44.71740 9.209400 
77 "C23" 11.11162 44.44495 88.88838 20.99760 18.48740 75.11560 
78 "C24" 88.88838 88.88838 66.66667 66.49560 74.19570 49.41250 
79 "C25" 53.55459 55.94568 47.02220 24.11760 26.91660 22.43270 
80 "C26" 77.77829 100.0000 88.88838 73.17680 89.20780 86.01580 
81 "C27" 22.54215 16.01129 13.62020 3.724000 3.552100 2.989000 
82 "D1" 29.99924 8.549630 17.48684 4.682200 3.286600 3.751000 
83 "D2" 81.00404 66.77043 53.28908 44.97600 44.38740 30.16190 
84 "D3" 95.65270 93.34249 97.96139 85.18350 87.39760 102.7029 
85 "D4" 0.00000 100.0000 77.77829 46.48210 75.85650 66.22960 
86 "D5" 3.996338 1.155108 1.155108 1.124400 1.134800 1.189600 
87 "D6" 60.34028 43.53094 29.74441 21.03260 19.55880 10.35450 
88 "D7" 55.55505 11.11162 33.33333 13.98000 8.151400 10.29100 
89 "D8" 65.20333 43.96887 34.65629 24.08310 21.25690 13.00030 
90 "D9" 92.01190 83.04417 74.65324 67.23890 68.61850 59.08310 
91 "D10" 44.44953 44.44953 63.50042 20.07110 18.84740 37.33210 
92 "D11" 22.22171 88.88838 55.55505 34.51530 57.98350 35.52440 
93 "D12" 76.88106 83.41192 74.48997 56.17730 63.26700 58.39580 
94 "D13" 100.0000 33.33333 88.88838 58.67510 33.95180 76.11470 
95 "D14" 88.88838 77.77829 100.0000 70.14540 64.39710 103.3406 
96 "D15" 11.11162 66.66667 33.33333 17.28790 30.36040 14.40340 
97 "D16" 73.18990 94.99962 4.750134 52.72510 74.45660 12.88670 
98 "D17" 70.36851 61.44656 63.83764 37.86590 36.91850 40.28000 
99 "D18" 22.22171 77.77829 44.44495 25.63930 43.17460 23.49240 
100 "D19" 65.08888 46.21195 33.10750 24.50990 22.45380 12.37810 
101 "D20" 100.0000 66.66667 66.66667 63.19220 53.38260 45.56930 
102 "D21" 44.28168 35.35973 37.75082 13.41780 12.57810 13.68520 
103 "D22" 47.49981 31.46258 13.53780 11.92410 10.86370 3.952000 
104 "D23" 68.18494 65.79385 74.71733 41.28320 41.24040 55.25850 
105 "D24" 46.78111 34.46708 31.97681 13.45820 12.39140 10.44060 
106 "D25" 66.59800 68.98909 60.06561 38.38550 42.43310 37.02090 
107 "D26" 55.55505 77.77829 33.33333 33.62870 47.44880 16.84060 
108 "D27" 77.77829 22.22171 88.88838 39.20660 21.26750 74.69240 
109 "E1" 22.22171 66.66667 33.33333 18.45650 30.96280 14.45810 
110 "E2" 87.76074 81.22835 78.83726 63.88150 65.07480 64.86730 
111 "E3" 33.33333 55.55505 55.55505 18.99550 23.89000 29.76170 
112 "E4" 53.93149 35.12932 21.57015 15.51680 13.75150 6.361300 
113 "E5" 33.33333 11.11162 55.55505 9.887200 5.673500 26.72560 
114 "E6" 22.22171 22.22171 66.66667 11.21760 7.589200 39.46960 
115 "E7" 22.22171 22.22171 55.55505 8.843400 6.639500 26.96710 
116 "E8" 0.00000 66.66667 11.11162 15.39300 29.54650 6.946300 
117 "E9" 18.19486 9.272908 11.66247 2.628600 2.308000 2.451900 
118 "E10" 77.77829 100.0000 11.11162 59.70730 83.82000 15.08650 
119 "E11" 100.0000 22.22171 88.88838 56.89130 30.38430 75.52010 
120 "E12" 68.76173 75.29412 77.68368 47.29160 51.42430 61.32810 
121 "E13" 22.22171 88.88838 44.44495 32.67590 57.24770 25.83790 
122 "E14" 22.22171 77.77829 88.88838 36.35080 47.45920 79.89850 
123 "E15" 67.25566 69.56588 71.87457 41.81790 44.30670 51.79740 
124 "E16" 77.77829 66.66667 88.88838 52.00530 46.86490 78.95870 
125 "E17" 88.88838 22.22171 0.00000 33.64050 19.97840 3.029300 
126 "E18" 54.21225 56.52094 58.83116 26.71110 28.33650 33.58150 
127 "E19" 23.11894 25.51003 16.58808 5.026800 5.835400 4.003900 
128 "E20" 11.11162 100.0000 44.44495 39.80550 73.24170 28.54930 
129 "E21" 88.88838 0.00000 0.00000 32.20830 17.11400 2.551800 
130 "E22" 47.49981 36.42634 26.12497 13.63130 13.16080 7.965800 
131 "E23" 77.45785 83.98871 86.37980 60.55370 65.64890 77.64410 
132 "E24" 29.85885 27.46777 20.93538 6.727900 7.126400 5.347700 
133 "E25" 34.78294 32.47272 37.09163 10.07420 9.993600 12.96450 
134 "E26" 100.0000 2.000458 5.539025 41.91220 22.18870 3.435600 
135 "E27" 22.22171 33.33333 0.00000 5.818200 8.283500 2.238300 
136 "F1" 50.79423 48.40314 57.32509 22.20710 21.85060 30.98820 
137 "F2" 66.66667 33.33333 55.55505 25.38720 17.81620 28.25250 
138 "F3" 47.49981 26.33249 26.12497 11.76170 9.421600 7.342600 
139 "F4" 44.44495 88.88838 0.00000 34.83920 58.70600 10.44120 
140 "F5" 11.11162 88.88838 66.66667 35.72100 58.33080 47.97230 
141 "F6" 22.22171 66.66667 11.11162 17.04470 30.39800 7.023600 
142 "F7" 22.22171 33.33333 22.22171 6.541200 8.572700 6.045200 
143 "F8" 55.55505 0.00000 100.0000 29.80720 13.81190 95.70270 
144 "F9" 63.83764 61.44656 70.36851 35.84380 35.69430 48.39980 
145 "F10" 22.22171 44.44495 44.44495 11.45460 14.80520 18.76420 
146 "F11" 82.49943 23.51263 48.09033 32.48290 19.22070 21.37590 
147 "F12" 100.0000 11.11162 11.11162 42.40850 22.96990 4.253000 
148 "F13" 22.22171 44.44495 100.0000 26.35470 20.76520 97.22680 
149 "F14" 44.44495 11.11162 33.33333 9.777300 5.984800 10.09430 
150 "F15" 44.44495 22.22171 22.22171 9.890200 7.651200 5.690800 
151 "F16" 88.88838 0.00000 33.33333 33.83160 17.76330 11.10000 
152 "F17" 0.00000 22.22171 0.00000 2.382700 3.864500 1.566400 
153 "F18" 33.33333 77.77829 44.44495 27.69650 44.23510 23.58870 
154 "F19" 0.900282 35.56725 45.00038 7.706400 9.590600 18.37400 
155 "F20" 66.66667 88.88838 22.22171 45.18940 63.95820 14.69870 
156 "F21" 36.82155 39.13024 41.44045 12.55920 13.35570 16.27290 
157 "F22" 15.93957 7.800412 29.99924 3.396400 2.474500 8.104400 
158 "F23" 100.0000 88.88838 88.88838 82.56330 81.72820 84.07740 
159 "F24" 11.11162 44.44495 100.0000 25.18610 20.16280 97.17210 
160 "F25" 88.88838 55.55505 66.66667 48.91870 39.04170 43.55350 
161 "F26" 31.25048 62.49943 52.08362 20.71620 29.02260 27.35740 
162 "F27" 26.70939 10.65995 10.62943 3.907400 3.083800 2.368300 
163 "G1" 90.83085 79.36065 68.97688 62.51690 63.01100 50.42130 
164 "G2" 86.95659 84.64637 89.26528 68.77920 70.40320 83.30730 
165 "G3" 64.41291 73.33639 70.94530 42.00170 47.32830 51.09930 
166 "G4" 88.88838 66.66667 77.77829 56.56850 49.62760 60.63530 
167 "G5" 32.62531 42.81529 72.50019 18.58830 17.15760 48.64960 
168 "G6" 66.66667 55.55505 77.77829 37.01880 32.56680 58.37260 
169 "G7" 22.22171 44.44495 66.66667 15.66830 16.49070 40.95320 
170 "G8" 33.40200 39.93439 31.01091 10.76270 12.85520 10.19820 
171 "G9" 27.58984 1.649500 82.49943 15.08440 7.017700 62.11140 
172 "G10" 11.11162 11.11162 77.77829 11.98190 6.138700 54.59110 
173 "G11" 11.11162 55.55505 0.00000 10.96090 20.30360 4.287400 
174 "G12" 77.77829 33.33333 22.22171 28.03230 19.65180 7.051000 
175 "G13" 10.73472 13.04341 15.35363 2.318400 2.473000 3.214400 
176 "G14" 36.82155 41.44045 39.13024 12.84550 14.39520 14.92910 
177 "G15" 33.33333 33.33333 77.77829 18.00460 13.39570 55.67440 
178 "G16" 80.35248 61.77615 48.52827 41.45910 39.31980 25.14590 
179 "G17" 33.33333 44.44495 100.0000 28.41180 21.82570 97.32310 
180 "G18" 0.00000 33.33333 0.00000 4.166500 7.432000 2.161000 
181 "G19" 41.00099 23.75067 47.49981 11.71960 8.574400 19.93150 
182 "G20" 24.04822 21.73953 19.42931 4.808900 4.962600 4.587300 
183 "G21" 88.88838 100.0000 77.77829 77.73990 91.97050 67.69240 
184 "G22" 10.07553 3.544671 12.46662 1.716900 1.509800 2.485100 
185 "G23" 38.55344 36.16236 29.63149 11.05430 11.71330 9.314100 
186 "G24" 53.70108 94.99962 47.49981 46.08650 70.64640 30.10130 
187 "G25" 44.44953 63.50042 53.97574 25.03040 31.86080 29.44440 
188 "G26" 66.66667 66.66667 44.44495 34.56270 39.11030 22.23760 
189 "G27" 77.77829 22.22171 11.11162 25.73710 15.87970 3.763100 
190 "H1" 88.88838 0.00000 22.22171 32.93120 17.40310 6.358700 
191 "H2" 55.55505 66.66667 77.77829 36.29790 39.17780 59.68660 
192 "H3" 66.66667 0.00000 100.0000 35.23180 16.60840 95.95660 
193 "H4" 2.311742 46.25010 14.09018 7.744100 13.97610 4.882400 
194 "H5" 44.44495 55.55505 100.0000 35.13170 30.69980 98.68180 
195 "H6" 50.16556 63.50042 50.16556 26.38200 32.63420 26.04540 
196 "H7" 77.77829 66.66667 55.55505 43.13330 43.31610 32.23910 
197 "H8" 44.44495 44.44495 77.77829 23.74720 20.31510 56.70730 
198 "H9" 55.55505 11.11162 66.66667 19.53980 10.37530 39.56880 
199 "H10" 93.19448 50.00076 100.0000 61.18730 41.23770 99.34250 
200 "H11" 8.119326 0.00000 5.728237 1.333100 1.187700 1.538100 
201 "H12" 27.30449 29.99924 0.599680 6.025700 7.464400 2.112800 
202 "H13" 55.55505 33.33333 44.44495 18.12320 14.28390 18.31210 
203 "H14" 0.00000 100.0000 55.55505 41.16180 73.72840 38.21320 
204 "H15" 43.47906 41.16884 45.78775 15.58810 15.60140 19.72360 
205 "H16" 8.696117 8.696117 8.696117 1.714300 1.803500 1.964000 
206 "H17" 34.20615 25.28267 31.81506 8.179200 7.289800 9.653900 
207 "H18" 8.119326 5.728237 0.00000 1.414200 1.482000 1.157600 
208 "H19" 44.44495 0.00000 77.77829 17.86420 8.549200 54.74630 
209 "H20" 66.66667 66.66667 22.22171 32.31620 38.21170 10.40760 
210 "H21" 66.66667 100.0000 11.11162 52.97620 80.35000 14.77150 
211 "H22" 63.59503 80.50050 63.59503 43.88470 54.56670 43.08340 
212 "H23" 77.77829 77.77829 77.77829 54.29030 57.11760 62.20110 
213 "H24" 11.11162 44.44495 55.55505 12.12560 14.93860 28.39600 
214 "H25" 11.11162 100.0000 77.77829 46.96530 76.10560 66.25220 
215 "H26" 11.11162 66.66667 100.0000 33.53420 36.85880 99.95480 
216 "H27" 0.00000 11.11162 100.0000 19.23900 8.985700 95.32820 
217 "I1" 12.46662 10.07553 3.544671 1.941800 2.038300 1.494100 
218 "I2" 22.22171 100.0000 100.0000 55.87410 79.80410 107.0666 
219 "I3" 66.66667 66.66667 33.33333 33.21660 38.57190 15.14890 
220 "I4" 63.84527 0.144961 26.68650 16.90280 9.110100 7.236000 
221 "I5" 3.131151 20.44404 24.42512 3.139600 3.841700 6.074500 
222 "I6" 92.37964 73.18379 86.43626 65.41080 58.74440 76.15460 
223 "I7" 46.44541 44.05432 52.97780 18.51520 18.12460 26.19510 
224 "I8" 33.33333 11.11162 88.88838 18.75930 9.222300 73.44520 
225 "I9" 71.99969 56.87953 71.99969 38.97980 34.51070 50.22940 
226 "I10" 22.22171 44.44495 88.88838 22.16610 19.08980 75.17020 
227 "I11" 66.66667 22.22171 22.22171 19.51740 12.61420 6.141300 
228 "I12" 83.66064 88.99977 78.31998 65.68150 73.53100 65.60220 
229 "I13" 72.81453 65.26894 58.52750 39.88820 40.60710 34.93210 
230 "I14" 70.85069 55.68475 42.38499 31.99850 30.91030 19.29350 
231 "I15" 0.00000 11.11162 77.77829 11.49870 5.889600 54.56840 
232 "I16" 100.0000 11.11162 33.33333 43.82040 23.53470 11.68750 
233 "I17" 30.43412 28.12543 32.74434 7.870400 7.765700 10.23210 
234 "I18" 77.77829 22.22171 33.33333 27.14890 16.44440 11.19760 
235 "I19" 72.39643 46.12650 34.74479 28.80340 24.60990 13.44800 
236 "I20" 38.32609 47.24956 44.85847 15.64490 18.18230 19.50670 
237 "I21" 81.28176 63.93683 48.70832 43.08780 41.56340 25.64340 
238 "I22" 42.90227 40.51118 33.97879 13.76330 14.58250 11.88720 
239 "I23" 83.41192 74.48997 76.88106 56.11870 55.34490 60.40000 
240 "I24" 88.88838 33.33333 100.0000 53.29380 30.69380 97.72330 
241 "I25" 47.49981 0.950637 37.09163 10.82630 5.895800 12.13330 
242 "I26" 28.12543 32.74434 30.43412 8.023300 9.092600 9.341300 
243 "I27" 97.99954 97.69131 100.0000 91.38550 95.39210 108.2037 
244 "J1" 0.00000 22.22171 66.66667 9.565900 6.737700 39.39230 
245 "J2" 11.11162 0.00000 11.11162 1.645200 1.333700 2.225200 
246 "J3" 69.56588 71.87457 67.25566 43.13520 46.87200 46.11160 
247 "J4" 88.88838 22.22171 22.22171 34.36340 20.26760 6.836100 
248 "J5" 65.00038 18.52445 37.88968 19.60160 11.87830 13.30970 
249 "J6" 35.53674 27.36858 22.68711 8.092400 7.794500 5.967300 
250 "J7" 77.77829 11.11162 33.33333 26.13570 14.41790 10.85990 
251 "J8" 86.95659 86.95659 86.95659 69.50430 73.12390 79.63200 
252 "J9" 30.28611 13.80636 58.75029 10.03480 5.947500 30.05250 
253 "J10" 70.69963 47.13512 32.71382 27.88460 24.60990 12.41270 
254 "J11" 77.77829 33.33333 77.77829 37.43860 23.41430 56.58390 
255 "J12" 82.49943 41.24971 56.54688 37.38730 26.65850 30.32010 
256 "J13" 66.66667 77.77829 77.77829 47.55920 53.64760 61.88610 
257 "J14" 22.22171 77.77829 66.66667 29.85300 44.86010 45.68140 
258 "J15" 69.56588 67.25566 71.87457 41.99110 42.71830 51.48170 
259 "J16" 28.58625 0.599680 8.740368 3.825300 2.489500 1.991000 
260 "J17" 100.0000 44.44495 33.33333 49.28440 34.46260 13.50880 
261 "J18" 55.55505 0.00000 88.88838 25.61870 12.13650 73.64610 
262 "J19" 11.11162 88.88838 88.88838 42.21890 60.92990 82.18930 
263 "J20" 97.99954 100.0000 100.0000 93.21700 99.05510 108.8142 
264 "J21" 66.66667 55.55505 66.66667 34.07270 31.38830 42.85870 
265 "J22" 30.27695 21.45266 18.62058 5.853100 5.454900 4.403600 
266 "J23" 77.77829 55.55505 88.88838 47.30160 37.45750 77.39080 
267 "J24" 86.92912 72.30945 62.30259 53.90740 52.89540 40.72970 
268 "J25" 55.55505 100.0000 0.00000 47.34010 77.46890 13.40400 
269 "J26" 0.00000 88.88838 33.33333 29.67800 55.85780 18.67190 
270 "J27" 88.40314 73.97269 61.01015 55.66500 55.15090 39.60910 
271 "K1" 0.00000 0.00000 2.000458 0.978200 1.011100 1.234700 
272 "K2" 11.11162 77.77829 66.66667 28.68450 44.25770 45.62670 
273 "K3" 11.11162 55.55505 22.22171 11.68380 20.59270 8.094200 
274 "K4" 87.53338 89.92447 96.45533 75.42710 78.79520 98.46680 
275 "K5" 66.66667 22.22171 0.00000 18.79450 12.32510 2.334500 
276 "K6" 88.88838 33.33333 0.00000 35.42430 23.54600 3.623800 
277 "K7" 3.936828 78.75029 50.38376 25.59800 43.88860 28.44990 
278 "K8" 19.42931 21.73953 24.04822 4.446300 4.743100 6.043400 
279 "K9" 33.33333 0.00000 100.0000 22.52880 10.05980 95.36210 
280 "K10" 66.66667 66.66667 0.00000 31.59330 37.92250 6.600700 
281 "K11" 49.86496 54.48386 52.17365 22.96310 25.41760 26.62590 
282 "K12" 62.02487 39.31182 27.65850 20.58770 17.72720 9.106100 
283 "K13" 77.77829 88.88838 44.44495 54.16710 68.32680 26.84370 
284 "K14" 39.70703 42.09812 48.63050 15.13510 15.67690 22.05440 
285 "K15" 55.55505 66.66667 44.44495 29.13820 36.31390 21.98380 
286 "K16" 63.42565 38.41154 29.66049 21.24670 17.72720 9.951400 
287 "K17" 45.49935 0.950637 18.21164 8.607100 4.928400 4.048000 
288 "K18" 97.96139 93.34249 95.65270 86.33890 88.09710 98.06350 
289 "K19" 61.44656 63.83764 70.36851 35.68370 37.16190 48.69150 
290 "K20" 44.44495 88.88838 44.44495 37.80870 59.89380 26.07810 
291 "K21" 95.69848 83.21355 74.68528 70.50340 70.45990 59.31220 
292 "K22" 69.18288 48.11017 40.73548 28.20950 25.11890 17.24040 
293 "K23" 0.00000 77.77829 33.33333 22.64150 41.78460 16.32640 
294 "K24" 77.77829 66.66667 66.66667 45.50750 44.26580 44.74160 
295 "K25" 32.47272 37.09163 34.78294 10.25210 11.54960 11.92550 
296 "K26" 29.32326 46.25010 23.12505 10.99290 15.59700 7.469300 
297 "K27" 33.33333 55.55505 11.11162 14.39810 22.05110 5.551900 
298 "L1" 13.04341 15.35363 10.73472 2.503000 2.850700 2.413400 
299 "L2" 55.55505 88.88838 100.0000 56.91150 68.02040 104.7374 
300 "L3" 97.76913 86.54459 78.95171 75.72850 76.21880 66.57250 
301 "L4" 55.55505 22.22171 55.55505 18.17890 11.45220 27.40400 
302 "L5" 38.81285 86.25010 64.70588 38.08610 56.95600 45.17320 
303 "L6" 11.11162 66.66667 88.88838 29.34560 35.18340 77.89820 
304 "L7" 9.272908 11.66247 18.19486 2.264300 2.292700 3.869000 
305 "L8" 87.12291 86.32944 94.54795 71.92930 73.44050 93.79270 
306 "L9" 83.48516 60.94148 48.52369 43.33940 39.76250 25.12820 
307 "L10" 66.66667 44.44495 77.77829 33.37450 25.27820 57.15780 
308 "L11" 11.11162 0.00000 100.0000 19.30320 8.396900 95.21110 
309 "L12" 66.66667 55.55505 11.11162 27.10100 28.59970 6.146400 
310 "L13" 26.43778 36.17609 58.75029 12.51570 11.99050 31.08810 
311 "L14" 0.00000 55.55505 88.88838 24.15870 25.52690 76.30770 
312 "L15" 88.88838 55.55505 88.88838 55.41650 41.64080 77.77050 
313 "L16" 92.51240 79.30571 67.46166 63.50390 63.51480 48.51230 
314 "L17" 33.33333 22.22171 33.33333 7.714900 6.425800 10.28810 
315 "L18" 23.77813 28.39704 26.08682 6.142800 7.007300 7.157800 
316 "L19" 39.13024 36.82155 41.44045 12.64160 12.60010 16.12270 
317 "L20" 0.00000 66.66667 33.33333 16.80480 30.11130 14.38080 
318 "L21" 98.84489 98.84489 93.69345 90.60570 96.62280 95.60330 
319 "L22" 47.49981 27.65087 0.950637 10.98740 9.438700 2.257700 
320 "L23" 31.76013 22.39719 20.51270 6.383300 5.887500 4.998300 
321 "L24" 66.66667 100.0000 88.88838 66.44560 85.73780 85.70080 
322 "L25" 74.48997 76.88106 83.41192 53.36600 55.67750 71.00520 
323 "L26" 44.44495 77.77829 22.22171 28.52560 44.92200 11.90260 
324 "L27" 96.22950 96.49805 97.87900 88.02940 92.38940 103.3446 
325 "M1" 24.35645 21.96536 15.43297 4.692800 4.965700 3.588000 
326 "M2" 55.55505 22.22171 100.0000 31.23950 16.67640 96.18010 
327 "M3" 88.18952 68.43366 60.07630 52.44560 49.27610 37.61210 
328 "M4" 70.14115 72.53223 79.06462 46.99910 49.00880 63.01050 
329 "M5" 20.58442 20.58442 20.58442 4.239700 4.460500 4.857500 
330 "M6" 86.85740 72.77638 59.53613 53.50890 53.12350 37.71000 
331 "M7" 66.66667 11.11162 44.44495 20.75070 11.48630 17.63360 
332 "M8" 66.66667 88.88838 77.77829 54.59570 67.72070 64.23160 
333 "M9" 83.20134 76.36988 92.42847 62.08500 59.38520 87.46830 
334 "M10" 88.88838 55.55505 44.44495 44.70500 37.35620 21.36450 
335 "M11" 81.22835 87.76074 78.83726 63.23620 70.99400 66.04380 
336 "M12" 77.77829 22.22171 0.00000 25.52560 15.79510 2.649500 
337 "M13" 88.88838 100.0000 44.44495 70.58010 89.10660 29.98950 
338 "M14" 60.06561 68.98909 66.59800 36.50880 41.29690 44.55660 
339 "M15" 42.67491 51.59686 49.20577 18.97860 21.90850 23.54090 
340 "M16" 66.66667 0.00000 11.11162 17.57380 9.545200 2.970700 
341 "M17" 77.45785 86.37980 83.98871 61.32530 68.45020 74.02240 
342 "M18" 22.22171 55.55505 100.0000 29.99900 28.05380 98.44150 
343 "M19" 33.33333 33.33333 88.88838 21.55630 14.81640 74.37750 
344 "M20" 37.09163 34.78294 32.47272 10.63000 11.02520 10.57700 
345 "M21" 30.08316 23.55230 23.46990 6.363800 6.077000 5.995200 
346 "M22" 44.85847 47.24956 38.32609 16.74820 18.85030 15.07620 
347 "M23" 55.55505 11.11162 88.88838 26.03770 12.97450 73.78580 
348 "M24" 32.36133 25.05074 20.76753 6.884100 6.670100 5.200000 
349 "M25" 55.55505 22.22171 33.33333 14.99330 10.17790 10.62880 
350 "M26" 17.03822 72.50019 44.76844 22.12090 37.02360 22.73430 
351 "M27" 71.87457 67.25566 69.56588 42.75630 43.18150 48.40920 
352 "N1" 100.0000 55.55505 0.00000 51.30530 41.10190 6.175400 
353 "N2" 66.77806 52.36133 44.30152 28.74730 27.42120 20.18120 
354 "N3" 29.99924 7.800412 26.05325 5.172700 3.427500 6.504700 
355 "N4" 81.51064 70.37766 60.21515 48.45020 48.65150 37.85370 
356 "N5" 88.88838 33.33333 66.66667 42.60740 26.41930 41.44980 
357 "N6" 13.62020 22.54215 16.01129 3.493300 4.451100 3.682400 
358 "N7" 10.07553 12.46662 3.544671 1.919300 2.244600 1.535100 
359 "N8" 11.11162 100.0000 33.33333 38.45940 72.70320 21.46060 
360 "N9" 47.49981 23.75067 44.36561 13.36150 9.474600 17.57640 
361 "N10" 0.00000 44.44495 77.77829 16.96270 16.81760 56.38980 
362 "N11" 26.89097 17.96750 20.35859 4.922100 4.402200 4.742700 
363 "N12" 33.33333 55.55505 77.77829 24.31580 26.01820 57.77810 
364 "N13" 88.88838 22.22171 88.88838 47.32150 25.45080 75.07220 
