assets/charts/pharmacist/rgb/colormunki/a4/tc300/tc300.ti2
CTI2   

DESCRIPTOR "Argyll Calibration Target chart information 2"
ORIGINATOR "Argyll printtarg"
CREATED "Sun May 31 09:27:24 2026"
TARGET_INSTRUMENT "X-Rite ColorMunki"
APPROX_WHITE_POINT "95.050000 100.000000 108.900000"
COLOR_REP "RGB"
PAPER_SIZE "297.0x210.0"
RANDOM_START "144"
STEPS_IN_PASS "12"
PASSES_IN_STRIPS2 "25"
STRIP_INDEX_PATTERN "A-Z, A-Z"
PATCH_INDEX_PATTERN "0-9,@-9,@-9;1-999"
INDEX_ORDER "STRIP_THEN_PATCH"

NUMBER_OF_FIELDS 8
BEGIN_DATA_FORMAT
SAMPLE_ID SAMPLE_LOC RGB_R RGB_G RGB_B XYZ_X XYZ_Y XYZ_Z 
END_DATA_FORMAT

NUMBER_OF_SETS 300
BEGIN_DATA
1 "Y6" 0.00000 0.00000 0.00000 0.950500 1.000000 1.089000 
2 "L5" 9.803922 0.00000 0.00000 1.347400 1.204600 1.107600 
3 "N3" 20.00000 0.00000 0.00000 2.302100 1.696800 1.152300 
4 "K12" 29.80392 0.00000 0.00000 3.901200 2.521100 1.227100 
5 "R4" 40.00000 0.00000 0.00000 6.375200 3.796500 1.342900 
6 "C1" 49.80392 0.00000 0.00000 9.615400 5.466900 1.494500 
7 "Q4" 60.00000 0.00000 0.00000 13.95600 7.704600 1.697600 
8 "Y5" 69.80392 0.00000 0.00000 19.12700 10.37030 1.939600 
9 "S1" 80.00000 0.00000 0.00000 25.60330 13.70900 2.242700 
10 "A6" 89.80392 0.00000 0.00000 32.94050 17.49140 2.586100 
11 "E10" 100.0000 0.00000 0.00000 41.77810 22.04740 2.999700 
12 "R3" 0.00000 9.803922 0.00000 1.294700 1.688300 1.203700 
13 "C6" 0.00000 20.00000 0.00000 2.122500 3.344000 1.479700 
14 "V1" 0.00000 29.80392 0.00000 3.509100 6.117200 1.941900 
15 "I11" 0.00000 40.00000 0.00000 5.654400 10.40770 2.657000 
16 "H1" 0.00000 49.80392 0.00000 8.464000 16.02700 3.593500 
17 "B5" 0.00000 60.00000 0.00000 12.22780 23.55460 4.848100 
18 "K3" 0.00000 69.80392 0.00000 16.71170 32.52240 6.342700 
19 "T3" 0.00000 80.00000 0.00000 22.32740 43.75390 8.214600 
20 "F4" 0.00000 89.80392 0.00000 28.68960 56.47820 10.33540 
21 "W7" 0.00000 100.0000 0.00000 36.35290 71.80480 12.88980 
22 "M1" 0.00000 0.00000 9.803922 1.124200 1.069500 2.003800 
23 "X12" 0.00000 0.00000 20.00000 1.542100 1.236600 4.204100 
24 "P1" 0.00000 0.00000 29.80392 2.242000 1.516600 7.889700 
25 "E12" 0.00000 0.00000 40.00000 3.324800 1.949700 13.59180 
26 "W9" 0.00000 0.00000 49.80392 4.743000 2.517000 21.05980 
27 "V2" 0.00000 0.00000 60.00000 6.642800 3.276900 31.06410 
28 "Q2" 0.00000 0.00000 69.80392 8.906000 4.182200 42.98220 
29 "O8" 0.00000 0.00000 80.00000 11.74060 5.316000 57.90890 
30 "D7" 0.00000 0.00000 89.80392 14.95190 6.600600 74.81950 
31 "F2" 0.00000 0.00000 100.0000 18.82000 8.147800 95.18850 
32 "Y7" 100.0000 100.0000 0.00000 77.18050 92.85220 14.80050 
33 "H5" 100.0000 0.00000 100.0000 59.64760 29.19520 97.09920 
34 "W10" 0.00000 100.0000 100.0000 54.22240 78.95260 106.9893 
35 "Q3" 100.0000 100.0000 100.0000 95.05000 100.0000 108.9000 
36 "R7" 100.0000 100.0000 74.90196 86.49040 96.57620 63.82590 
37 "G4" 100.0000 100.0000 49.80392 80.97300 94.36920 34.77130 
38 "P3" 100.0000 100.0000 24.70588 78.06870 93.20750 19.47790 
39 "N9" 100.0000 74.90196 100.0000 78.09210 66.08420 103.2474 
40 "H8" 100.0000 74.90196 74.90196 69.53250 62.66040 58.17330 
41 "R9" 100.0000 74.90196 49.80392 64.01510 60.45340 29.11870 
42 "U6" 100.0000 74.90196 24.70588 61.11080 59.29170 13.82520 
43 "H3" 100.0000 74.90196 0.00000 60.22260 58.93640 9.147900 
44 "A5" 100.0000 49.80392 100.0000 67.16110 44.22220 99.60370 
45 "J6" 100.0000 49.80392 74.90196 58.60150 40.79830 54.52960 
46 "C7" 100.0000 49.80392 49.80392 53.08400 38.59130 25.47500 
47 "H11" 100.0000 49.80392 24.70588 50.17980 37.42960 10.18160 
48 "L4" 100.0000 49.80392 0.00000 49.29160 37.07440 5.504200 
49 "V8" 100.0000 24.70588 100.0000 61.40730 32.71470 97.68580 
50 "P6" 100.0000 24.70588 74.90196 52.84780 29.29080 52.61170 
51 "W12" 100.0000 24.70588 49.80392 47.33030 27.08380 23.55710 
52 "L10" 100.0000 24.70588 24.70588 44.42610 25.92220 8.263600 
53 "T8" 100.0000 24.70588 0.00000 43.53780 25.56690 3.586300 
54 "D9" 100.0000 0.00000 74.90196 51.08800 25.77140 52.02510 
55 "N6" 100.0000 0.00000 49.80392 45.57060 23.56440 22.97050 
56 "P5" 100.0000 0.00000 24.70588 42.66630 22.40270 7.677100 
57 "N10" 74.90196 100.0000 100.0000 75.49340 89.91820 107.9848 
58 "Q6" 74.90196 100.0000 74.90196 66.93380 86.49440 62.91070 
59 "F10" 74.90196 100.0000 49.80392 61.41640 84.28740 33.85610 
60 "V11" 74.90196 100.0000 24.70588 58.51210 83.12570 18.56260 
61 "T1" 74.90196 100.0000 0.00000 57.62390 82.77040 13.88530 
62 "I8" 74.90196 74.90196 100.0000 58.53550 56.00240 102.3321 
63 "U3" 74.90196 74.90196 74.90196 49.97590 52.57860 57.25810 
64 "Y8" 74.90196 74.90196 49.80392 44.45850 50.37160 28.20340 
65 "E8" 74.90196 74.90196 24.70588 41.55420 49.20990 12.91000 
66 "J11" 74.90196 74.90196 0.00000 40.66600 48.85460 8.232600 
67 "E5" 74.90196 49.80392 100.0000 47.60450 34.14040 98.68850 
68 "Q7" 74.90196 49.80392 74.90196 39.04490 30.71650 53.61440 
69 "X2" 74.90196 49.80392 49.80392 33.52740 28.50950 24.55980 
70 "V6" 74.90196 49.80392 24.70588 30.62320 27.34790 9.266300 
71 "K1" 74.90196 49.80392 0.00000 29.73500 26.99260 4.589000 
72 "U9" 74.90196 24.70588 100.0000 41.85070 22.63290 96.77050 
73 "P11" 74.90196 24.70588 74.90196 33.29120 19.20900 51.69650 
74 "E1" 74.90196 24.70588 49.80392 27.77370 17.00200 22.64190 
75 "J1" 74.90196 24.70588 24.70588 24.86950 15.84040 7.348400 
76 "O2" 74.90196 24.70588 0.00000 23.98120 15.48510 2.671000 
77 "G10" 74.90196 0.00000 100.0000 40.09100 19.11340 96.18400 
78 "O4" 74.90196 0.00000 74.90196 31.53140 15.68960 51.10990 
79 "N11" 74.90196 0.00000 49.80392 26.01400 13.48260 22.05530 
80 "A11" 74.90196 0.00000 24.70588 23.10970 12.32090 6.761800 
81 "N4" 74.90196 0.00000 0.00000 22.22150 11.96560 2.084500 
82 "R8" 49.80392 100.0000 100.0000 62.88730 83.41950 107.3948 
83 "S10" 49.80392 100.0000 74.90196 54.32770 79.99570 62.32070 
84 "U11" 49.80392 100.0000 49.80392 48.81020 77.78870 33.26610 
85 "K11" 49.80392 100.0000 24.70588 45.90600 76.62700 17.97270 
86 "X9" 49.80392 100.0000 0.00000 45.01780 76.27170 13.29530 
87 "V7" 49.80392 74.90196 100.0000 45.92940 49.50370 101.7422 
88 "A7" 49.80392 74.90196 74.90196 37.36980 46.07990 56.66810 
89 "O3" 49.80392 74.90196 49.80392 31.85230 43.87290 27.61350 
90 "E6" 49.80392 74.90196 24.70588 28.94810 42.71120 12.32000 
91 "X11" 49.80392 74.90196 0.00000 28.05990 42.35590 7.642700 
92 "L8" 49.80392 49.80392 100.0000 34.99840 27.64170 98.09850 
93 "K6" 49.80392 49.80392 74.90196 26.43880 24.21780 53.02440 
94 "D4" 49.80392 49.80392 49.80392 20.92130 22.01080 23.96980 
95 "E4" 49.80392 49.80392 24.70588 18.01710 20.84920 8.676400 
96 "L2" 49.80392 49.80392 0.00000 17.12890 20.49390 3.999000 
97 "A1" 49.80392 24.70588 100.0000 29.24460 16.13420 96.18060 
98 "Y9" 49.80392 24.70588 74.90196 20.68500 12.71030 51.10650 
99 "O1" 49.80392 24.70588 49.80392 15.16760 10.50340 22.05190 
100 "K4" 49.80392 24.70588 24.70588 12.26330 9.341700 6.758400 
101 "C4" 49.80392 24.70588 0.00000 11.37510 8.986400 2.081100 
102 "M4" 49.80392 0.00000 100.0000 27.48490 12.61470 95.59400 
103 "S5" 49.80392 0.00000 74.90196 18.92530 9.190900 50.51990 
104 "U12" 49.80392 0.00000 49.80392 13.40780 6.983900 21.46530 
105 "I2" 49.80392 0.00000 24.70588 10.50360 5.822200 6.171900 
106 "P9" 24.70588 100.0000 100.0000 56.25180 79.99880 107.0843 
107 "F9" 24.70588 100.0000 74.90196 47.69220 76.57500 62.01020 
108 "V4" 24.70588 100.0000 49.80392 42.17480 74.36800 32.95560 
109 "C9" 24.70588 100.0000 24.70588 39.27050 73.20630 17.66210 
110 "J9" 24.70588 100.0000 0.00000 38.38230 72.85100 12.98480 
111 "Q5" 24.70588 74.90196 100.0000 39.29390 46.08300 101.4316 
112 "B6" 24.70588 74.90196 74.90196 30.73430 42.65920 56.35760 
113 "H9" 24.70588 74.90196 49.80392 25.21690 40.45220 27.30290 
114 "B1" 24.70588 74.90196 24.70588 22.31260 39.29050 12.00950 
115 "X3" 24.70588 74.90196 0.00000 21.42440 38.93520 7.332100 
116 "X5" 24.70588 49.80392 100.0000 28.36290 24.22100 97.78800 
117 "L3" 24.70588 49.80392 74.90196 19.80330 20.79710 52.71390 
118 "O7" 24.70588 49.80392 49.80392 14.28580 18.59010 23.65930 
119 "Y2" 24.70588 49.80392 24.70588 11.38160 17.42840 8.365800 
120 "D1" 24.70588 49.80392 0.00000 10.49340 17.07320 3.688500 
121 "F5" 24.70588 24.70588 100.0000 22.60910 12.71350 95.87010 
122 "D12" 24.70588 24.70588 74.90196 14.04960 9.289600 50.79600 
123 "C3" 24.70588 24.70588 49.80392 8.532100 7.082600 21.74140 
124 "T5" 24.70588 24.70588 24.70588 5.627900 5.921000 6.447900 
125 "P12" 24.70588 24.70588 0.00000 4.739600 5.565700 1.770600 
126 "K9" 24.70588 0.00000 100.0000 20.84940 9.194000 95.28350 
127 "W2" 24.70588 0.00000 74.90196 12.28980 5.770200 50.20940 
128 "R1" 24.70588 0.00000 49.80392 6.772400 3.563200 21.15480 
129 "Y1" 24.70588 0.00000 24.70588 3.868100 2.401500 5.861300 
130 "G1" 24.70588 0.00000 0.00000 2.979900 2.046200 1.184000 
131 "B3" 0.00000 100.0000 74.90196 45.66280 75.52880 61.91520 
132 "Q12" 0.00000 100.0000 49.80392 40.14540 73.32180 32.86060 
133 "M6" 0.00000 100.0000 24.70588 37.24110 72.16010 17.56720 
134 "E9" 0.00000 74.90196 100.0000 37.26450 45.03680 101.3367 
135 "L7" 0.00000 74.90196 74.90196 28.70490 41.61300 56.26260 
136 "R6" 0.00000 74.90196 49.80392 23.18750 39.40600 27.20800 
137 "M8" 0.00000 74.90196 24.70588 20.28320 38.24430 11.91450 
138 "F12" 0.00000 74.90196 0.00000 19.39500 37.88900 7.237200 
139 "E3" 0.00000 49.80392 100.0000 26.33350 23.17480 97.69300 
140 "T9" 0.00000 49.80392 74.90196 17.77390 19.75090 52.61890 
141 "N5" 0.00000 49.80392 49.80392 12.25640 17.54390 23.56430 
142 "S12" 0.00000 49.80392 24.70588 9.352200 16.38220 8.270900 
143 "J2" 0.00000 24.70588 100.0000 20.57970 11.66730 95.77510 
144 "B7" 0.00000 24.70588 74.90196 12.02020 8.243400 50.70100 
145 "C5" 0.00000 24.70588 49.80392 6.502700 6.036400 21.64640 
146 "X4" 0.00000 24.70588 24.70588 3.598500 4.874800 6.352900 
147 "N12" 0.00000 24.70588 0.00000 2.710200 4.519500 1.675600 
148 "G6" 0.00000 0.00000 74.90196 10.26040 4.724000 50.11440 
149 "H12" 0.00000 0.00000 24.70588 1.838700 1.355300 5.766400 
150 "X6" 91.76471 100.0000 100.0000 87.81480 96.27010 108.5614 
151 "A10" 82.74510 100.0000 100.0000 80.81770 92.66300 108.2339 
152 "T7" 61.96078 100.0000 100.0000 68.18190 86.14900 107.6426 
153 "I10" 100.0000 91.76471 100.0000 88.77620 87.45240 106.8087 
154 "S11" 100.0000 82.74510 100.0000 82.70890 75.31780 104.7863 
155 "S8" 100.0000 61.96078 100.0000 71.75220 53.40440 101.1341 
156 "J4" 100.0000 100.0000 91.76471 91.88330 98.73330 92.22420 
157 "Y4" 100.0000 100.0000 82.74510 88.82080 97.50830 76.09740 
158 "T10" 100.0000 100.0000 61.96078 83.29030 95.29610 46.97450 
159 "Y10" 7.843137 100.0000 100.0000 54.50800 79.09980 107.0027 
160 "J5" 16.86275 100.0000 100.0000 55.20870 79.46110 107.0355 
161 "E2" 37.64706 100.0000 100.0000 58.99800 81.41450 107.2128 
162 "J3" 0.00000 91.76471 100.0000 47.94860 66.40500 104.8980 
163 "V5" 0.00000 82.74510 100.0000 41.88130 54.27040 102.8756 
164 "A9" 0.00000 61.96078 100.0000 30.92460 32.35700 99.22340 
165 "I9" 0.00000 100.0000 91.76471 51.05570 77.68590 90.31350 
166 "I5" 0.00000 100.0000 82.74510 47.99320 76.46090 74.18670 
167 "I1" 0.00000 100.0000 61.96078 42.46270 74.24870 45.06380 
168 "B11" 91.76471 0.00000 100.0000 52.41240 25.46530 96.76060 
169 "P8" 82.74510 0.00000 100.0000 45.41530 21.85820 96.43310 
170 "M10" 61.96078 0.00000 100.0000 32.77950 15.34420 95.84180 
171 "O11" 100.0000 7.843137 100.0000 59.89530 29.69050 97.18180 
172 "D3" 100.0000 16.86275 100.0000 60.50280 30.90570 97.38430 
173 "W6" 100.0000 37.64706 100.0000 63.78860 37.47730 98.47950 
174 "S3" 100.0000 0.00000 91.76471 56.48090 27.92850 80.42340 
175 "H7" 100.0000 0.00000 82.74510 53.41840 26.70350 64.29660 
176 "J8" 100.0000 0.00000 61.96078 47.88790 24.49130 35.17370 
177 "L12" 7.843137 0.00000 100.0000 19.10560 8.295000 95.20190 
178 "X1" 16.86275 0.00000 100.0000 19.80630 8.656300 95.23470 
179 "M2" 37.64706 0.00000 100.0000 23.59560 10.60970 95.41200 
180 "X7" 0.00000 7.843137 100.0000 19.06770 8.643100 95.27110 
181 "D5" 0.00000 16.86275 100.0000 19.67520 9.858300 95.47360 
182 "L6" 0.00000 37.64706 100.0000 22.96100 16.42990 96.56880 
183 "A8" 0.00000 0.00000 91.76471 15.65330 6.881100 78.51270 
184 "N2" 0.00000 0.00000 82.74510 12.59080 5.656100 62.38590 
185 "I7" 0.00000 0.00000 61.96078 7.060300 3.443900 33.26300 
186 "G8" 91.76471 100.0000 0.00000 69.94530 89.12230 14.46190 
187 "W4" 82.74510 100.0000 0.00000 62.94820 85.51520 14.13440 
188 "B9" 61.96078 100.0000 0.00000 50.31240 79.00120 13.54310 
189 "C11" 100.0000 91.76471 0.00000 70.90670 80.30460 12.70920 
190 "U2" 100.0000 82.74510 0.00000 64.83940 68.17000 10.68680 
191 "R11" 100.0000 61.96078 0.00000 53.88270 46.25660 7.034600 
192 "U4" 100.0000 100.0000 7.843137 77.30550 92.90220 15.45880 
193 "K5" 100.0000 100.0000 16.86275 77.61220 93.02490 17.07370 
194 "K7" 100.0000 100.0000 37.64706 79.27070 93.68830 25.80740 
195 "A3" 7.843137 100.0000 0.00000 36.63850 71.95200 12.90320 
196 "O6" 16.86275 100.0000 0.00000 37.33920 72.31330 12.93600 
197 "T4" 37.64706 100.0000 0.00000 41.12850 74.26670 13.11330 
198 "T6" 0.00000 91.76471 0.00000 30.07910 59.25720 10.79850 
199 "Q10" 0.00000 82.74510 0.00000 24.01180 47.12260 8.776100 
200 "Y12" 0.00000 61.96078 0.00000 13.05510 25.20920 5.123900 
201 "G12" 0.00000 100.0000 7.843137 36.47790 71.85480 13.54810 
202 "U7" 0.00000 100.0000 16.86275 36.78460 71.97750 15.16300 
203 "O9" 0.00000 100.0000 37.64706 38.44310 72.64090 23.89670 
204 "S6" 91.76471 0.00000 0.00000 34.54290 18.31750 2.661100 
205 "G2" 82.74510 0.00000 0.00000 27.54580 14.71040 2.333600 
206 "N8" 61.96078 0.00000 0.00000 14.91000 8.196400 1.742300 
207 "Q8" 100.0000 7.843137 0.00000 42.02580 22.54270 3.082300 
208 "F7" 100.0000 16.86275 0.00000 42.63330 23.75790 3.284800 
209 "T11" 100.0000 37.64706 0.00000 45.91910 30.32950 4.380000 
210 "M12" 100.0000 0.00000 7.843137 41.90310 22.09740 3.658000 
211 "V10" 100.0000 0.00000 16.86275 42.20980 22.22010 5.272900 
212 "I4" 100.0000 0.00000 37.64706 43.86830 22.88350 14.00660 
213 "L9" 7.843137 0.00000 0.00000 1.236100 1.147200 1.102400 
214 "W8" 16.86275 0.00000 0.00000 1.936800 1.508500 1.135200 
215 "R2" 37.64706 0.00000 0.00000 5.726100 3.461900 1.312500 
216 "C12" 0.00000 7.843137 0.00000 1.198200 1.495300 1.171600 
217 "C2" 0.00000 16.86275 0.00000 1.805700 2.710500 1.374100 
218 "D10" 0.00000 37.64706 0.00000 5.091500 9.282100 2.469300 
219 "U5" 0.00000 0.00000 7.843137 1.075500 1.050000 1.747300 
220 "B12" 0.00000 0.00000 16.86275 1.382200 1.172700 3.362200 
221 "Y3" 0.00000 0.00000 37.64706 3.040700 1.836100 12.09590 
222 "S9" 0.00000 0.00000 0.00000 0.950500 1.000000 1.089000 
223 "H10" 100.0000 100.0000 100.0000 95.05000 100.0000 108.9000 
224 "U10" 0.00000 0.00000 0.00000 0.950500 1.000000 1.089000 
225 "Y11" 100.0000 100.0000 100.0000 95.05000 100.0000 108.9000 
226 "I12" 5.882353 0.00000 0.00000 1.145500 1.100500 1.098100 
227 "P2" 0.00000 5.882353 0.00000 1.119600 1.338200 1.145400 
228 "J7" 0.00000 0.00000 5.882353 1.035900 1.034100 1.538500 
229 "R5" 0.00000 5.882353 5.882353 1.205000 1.372400 1.594900 
230 "F1" 5.882353 0.00000 5.882353 1.230900 1.134700 1.547600 
231 "S2" 5.882353 5.882353 0.00000 1.314600 1.438800 1.154500 
232 "J12" 18.82353 11.76471 11.76471 2.848900 2.634200 2.520400 
233 "W1" 11.76471 18.82353 11.76471 2.758900 3.458800 2.684300 
234 "L11" 11.76471 11.76471 18.82353 2.468400 2.403800 4.048300 
235 "T12" 11.76471 18.82353 18.82353 3.055100 3.577300 4.243900 
236 "M9" 18.82353 11.76471 18.82353 3.145000 2.752600 4.080000 
237 "T2" 18.82353 18.82353 11.76471 3.435600 3.807700 2.716000 
238 "P7" 30.98039 24.70588 24.70588 6.790700 6.520400 6.502300 
239 "F11" 24.70588 30.98039 24.70588 6.636200 7.937500 6.784000 
240 "Q1" 24.70588 24.70588 30.98039 6.136800 6.124500 9.127900 
241 "G3" 24.70588 30.98039 30.98039 7.145100 8.141100 9.464000 
242 "G11" 30.98039 24.70588 30.98039 7.299600 6.724000 9.182400 
243 "A4" 30.98039 30.98039 24.70588 7.799000 8.537000 6.838400 
244 "Q11" 43.92157 36.86275 36.86275 13.52860 13.13570 13.25230 
245 "D8" 36.86275 43.92157 36.86275 13.25680 15.62840 13.74770 
246 "M7" 36.86275 36.86275 43.92157 12.37850 12.43940 17.87060 
247 "W3" 36.86275 43.92157 43.92157 14.15200 15.98650 18.46180 
248 "O10" 43.92157 36.86275 43.92157 14.42380 13.49380 17.96640 
249 "G7" 43.92157 43.92157 36.86275 15.30220 16.68280 13.84350 
250 "K10" 55.68627 49.80392 49.80392 23.30020 23.23720 24.08110 
251 "H6" 49.80392 55.68627 49.80392 22.98410 26.13640 24.65740 
252 "G9" 49.80392 49.80392 55.68627 21.96250 22.42730 29.45270 
253 "M11" 49.80392 55.68627 55.68627 24.02530 26.55290 30.14030 
254 "D6" 55.68627 49.80392 55.68627 24.34140 23.65370 29.56400 
255 "X8" 55.68627 55.68627 49.80392 25.36300 27.36280 24.76870 
256 "V3" 68.62745 61.96078 61.96078 36.66730 36.67590 38.11690 
257 "C10" 61.96078 68.62745 61.96078 36.19660 40.99370 38.97520 
258 "K8" 61.96078 61.96078 68.62745 34.67510 35.46980 46.11670 
259 "Q9" 61.96078 68.62745 68.62745 37.74720 41.61390 47.14070 
260 "M5" 68.62745 61.96078 68.62745 38.21800 37.29620 46.28250 
261 "U8" 68.62745 68.62745 61.96078 39.73940 42.82010 39.14100 
262 "B4" 80.78431 74.90196 74.90196 53.90400 54.60360 57.44190 
263 "S7" 74.90196 80.78431 74.90196 53.38200 59.39080 58.39340 
264 "D2" 74.90196 74.90196 80.78431 51.69520 53.26630 66.31150 
265 "S4" 74.90196 80.78431 80.78431 55.10130 60.07850 67.44680 
266 "E7" 80.78431 74.90196 80.78431 55.62320 55.29120 66.49530 
267 "N7" 80.78431 80.78431 74.90196 57.31010 61.41580 58.57730 
268 "W11" 93.72549 86.66667 86.66667 74.70970 75.53120 79.31000 
269 "C8" 86.66667 93.72549 86.66667 73.94960 82.50240 80.69560 
270 "K2" 86.66667 86.66667 93.72549 71.49320 73.58390 92.22580 
271 "R10" 86.66667 93.72549 93.72549 76.45310 83.50380 93.87910 
272 "B2" 93.72549 86.66667 93.72549 77.21320 76.53270 92.49350 
273 "P10" 93.72549 93.72549 86.66667 79.66960 85.45110 80.96330 
274 "D11" 11.76471 0.00000 0.00000 1.480600 1.273300 1.113800 
275 "U1" 0.00000 11.76471 0.00000 1.410100 1.919300 1.242200 
276 "L1" 0.00000 0.00000 11.76471 1.182500 1.092800 2.310700 
277 "I3" 0.00000 11.76471 11.76471 1.642100 2.012100 2.463900 
278 "A12" 11.76471 0.00000 11.76471 1.712600 1.366100 2.335500 
279 "O12" 11.76471 11.76471 0.00000 1.940200 2.192500 1.267000 
280 "O5" 36.86275 24.70588 24.70588 8.168400 7.230600 6.566800 
281 "E11" 24.70588 36.86275 24.70588 7.830800 10.32680 7.182200 
282 "V12" 24.70588 24.70588 36.86275 6.739800 6.365700 12.30330 
283 "J10" 24.70588 36.86275 36.86275 8.942800 10.77160 13.03770 
284 "N1" 36.86275 24.70588 36.86275 9.280300 7.675400 12.42220 
285 "P4" 24.70588 36.86275 36.86275 8.942800 10.77160 13.03770 
286 "R12" 6.274510 6.274510 6.274510 1.438100 1.513000 1.647600 
287 "H4" 12.54902 12.54902 12.54902 2.309700 2.429900 2.646200 
288 "B8" 18.82353 18.82353 18.82353 3.731800 3.926100 4.275600 
289 "I6" 25.09804 25.09804 25.09804 5.774900 6.075700 6.616400 
290 "F8" 31.37255 31.37255 31.37255 8.499100 8.941800 9.737600 
291 "F6" 37.64706 37.64706 37.64706 11.95740 12.58010 13.69970 
292 "M3" 43.92157 43.92157 43.92157 16.19740 17.04090 18.55750 
293 "B10" 50.19608 50.19608 50.19608 21.26290 22.37020 24.36110 
294 "F3" 56.47059 56.47059 56.47059 27.19430 28.61050 31.15690 
295 "W5" 62.74510 62.74510 62.74510 34.02950 35.80170 38.98810 
296 "V9" 69.01961 69.01961 69.01961 41.80410 43.98120 47.89550 
297 "X10" 75.29412 75.29412 75.29412 50.55180 53.18440 57.91780 
298 "H2" 81.56863 81.56863 81.56863 60.30440 63.44500 69.09160 
299 "G5" 87.84314 87.84314 87.84314 71.09270 74.79500 81.45180 
300 "A2" 94.11765 94.11765 94.11765 82.94570 87.26530 95.03200 
END_DATA
