assets/charts/pharmacist/rgb/colormunki/a4/tc300/tc300.ti1
CTI1   

DESCRIPTOR "Argyll Calibration Target chart information 1"
ORIGINATOR "ChromIQ"
APPROX_WHITE_POINT "95.050000 100.000000 108.900000"
COLOR_REP "RGB"
WHITE_COLOR_PATCHES "3"
BLACK_COLOR_PATCHES "3"
CREATED "Sun May 31 09:27:24 2026"

NUMBER_OF_FIELDS 7
BEGIN_DATA_FORMAT
SAMPLE_ID RGB_R RGB_G RGB_B XYZ_X XYZ_Y XYZ_Z
END_DATA_FORMAT

NUMBER_OF_SETS 300
BEGIN_DATA
1 0.0000 0.0000 0.0000 0.9505 1.0000 1.0890
2 9.8039 0.0000 0.0000 1.3474 1.2046 1.1076
3 20.0000 0.0000 0.0000 2.3021 1.6968 1.1523
4 29.8039 0.0000 0.0000 3.9012 2.5211 1.2271
5 40.0000 0.0000 0.0000 6.3752 3.7965 1.3429
6 49.8039 0.0000 0.0000 9.6154 5.4669 1.4945
7 60.0000 0.0000 0.0000 13.9560 7.7046 1.6976
8 69.8039 0.0000 0.0000 19.1270 10.3703 1.9396
9 80.0000 0.0000 0.0000 25.6033 13.7090 2.2427
10 89.8039 0.0000 0.0000 32.9405 17.4914 2.5861
11 100.0000 0.0000 0.0000 41.7781 22.0474 2.9997
12 0.0000 9.8039 0.0000 1.2947 1.6883 1.2037
13 0.0000 20.0000 0.0000 2.1225 3.3440 1.4797
14 0.0000 29.8039 0.0000 3.5091 6.1172 1.9419
15 0.0000 40.0000 0.0000 5.6544 10.4077 2.6570
16 0.0000 49.8039 0.0000 8.4640 16.0270 3.5935
17 0.0000 60.0000 0.0000 12.2278 23.5546 4.8481
18 0.0000 69.8039 0.0000 16.7117 32.5224 6.3427
19 0.0000 80.0000 0.0000 22.3274 43.7539 8.2146
20 0.0000 89.8039 0.0000 28.6896 56.4782 10.3354
21 0.0000 100.0000 0.0000 36.3529 71.8048 12.8898
22 0.0000 0.0000 9.8039 1.1242 1.0695 2.0038
23 0.0000 0.0000 20.0000 1.5421 1.2366 4.2041
24 0.0000 0.0000 29.8039 2.2420 1.5166 7.8897
25 0.0000 0.0000 40.0000 3.3248 1.9497 13.5918
26 0.0000 0.0000 49.8039 4.7430 2.5170 21.0598
27 0.0000 0.0000 60.0000 6.6428 3.2769 31.0641
28 0.0000 0.0000 69.8039 8.9060 4.1822 42.9822
29 0.0000 0.0000 80.0000 11.7406 5.3160 57.9089
30 0.0000 0.0000 89.8039 14.9519 6.6006 74.8195
31 0.0000 0.0000 100.0000 18.8200 8.1478 95.1885
32 100.0000 100.0000 0.0000 77.1805 92.8522 14.8005
33 100.0000 0.0000 100.0000 59.6476 29.1952 97.0992
34 0.0000 100.0000 100.0000 54.2224 78.9526 106.9893
35 100.0000 100.0000 100.0000 95.0500 100.0000 108.9000
36 100.0000 100.0000 74.9020 86.4904 96.5762 63.8259
37 100.0000 100.0000 49.8039 80.9730 94.3692 34.7713
38 100.0000 100.0000 24.7059 78.0687 93.2075 19.4779
39 100.0000 74.9020 100.0000 78.0921 66.0842 103.2474
40 100.0000 74.9020 74.9020 69.5325 62.6604 58.1733
41 100.0000 74.9020 49.8039 64.0151 60.4534 29.1187
42 100.0000 74.9020 24.7059 61.1108 59.2917 13.8252
43 100.0000 74.9020 0.0000 60.2226 58.9364 9.1479
44 100.0000 49.8039 100.0000 67.1611 44.2222 99.6037
45 100.0000 49.8039 74.9020 58.6015 40.7983 54.5296
46 100.0000 49.8039 49.8039 53.0840 38.5913 25.4750
47 100.0000 49.8039 24.7059 50.1798 37.4296 10.1816
48 100.0000 49.8039 0.0000 49.2916 37.0744 5.5042
49 100.0000 24.7059 100.0000 61.4073 32.7147 97.6858
50 100.0000 24.7059 74.9020 52.8478 29.2908 52.6117
51 100.0000 24.7059 49.8039 47.3303 27.0838 23.5571
52 100.0000 24.7059 24.7059 44.4261 25.9222 8.2636
53 100.0000 24.7059 0.0000 43.5378 25.5669 3.5863
54 100.0000 0.0000 74.9020 51.0880 25.7714 52.0251
55 100.0000 0.0000 49.8039 45.5706 23.5644 22.9705
56 100.0000 0.0000 24.7059 42.6663 22.4027 7.6771
57 74.9020 100.0000 100.0000 75.4934 89.9182 107.9848
58 74.9020 100.0000 74.9020 66.9338 86.4944 62.9107
59 74.9020 100.0000 49.8039 61.4164 84.2874 33.8561
60 74.9020 100.0000 24.7059 58.5121 83.1257 18.5626
61 74.9020 100.0000 0.0000 57.6239 82.7704 13.8853
62 74.9020 74.9020 100.0000 58.5355 56.0024 102.3321
63 74.9020 74.9020 74.9020 49.9759 52.5786 57.2581
64 74.9020 74.9020 49.8039 44.4585 50.3716 28.2034
65 74.9020 74.9020 24.7059 41.5542 49.2099 12.9100
66 74.9020 74.9020 0.0000 40.6660 48.8546 8.2326
67 74.9020 49.8039 100.0000 47.6045 34.1404 98.6885
68 74.9020 49.8039 74.9020 39.0449 30.7165 53.6144
69 74.9020 49.8039 49.8039 33.5274 28.5095 24.5598
70 74.9020 49.8039 24.7059 30.6232 27.3479 9.2663
71 74.9020 49.8039 0.0000 29.7350 26.9926 4.5890
72 74.9020 24.7059 100.0000 41.8507 22.6329 96.7705
73 74.9020 24.7059 74.9020 33.2912 19.2090 51.6965
74 74.9020 24.7059 49.8039 27.7737 17.0020 22.6419
75 74.9020 24.7059 24.7059 24.8695 15.8404 7.3484
76 74.9020 24.7059 0.0000 23.9812 15.4851 2.6710
77 74.9020 0.0000 100.0000 40.0910 19.1134 96.1840
78 74.9020 0.0000 74.9020 31.5314 15.6896 51.1099
79 74.9020 0.0000 49.8039 26.0140 13.4826 22.0553
80 74.9020 0.0000 24.7059 23.1097 12.3209 6.7618
81 74.9020 0.0000 0.0000 22.2215 11.9656 2.0845
82 49.8039 100.0000 100.0000 62.8873 83.4195 107.3948
83 49.8039 100.0000 74.9020 54.3277 79.9957 62.3207
84 49.8039 100.0000 49.8039 48.8102 77.7887 33.2661
85 49.8039 100.0000 24.7059 45.9060 76.6270 17.9727
86 49.8039 100.0000 0.0000 45.0178 76.2717 13.2953
87 49.8039 74.9020 100.0000 45.9294 49.5037 101.7422
88 49.8039 74.9020 74.9020 37.3698 46.0799 56.6681
89 49.8039 74.9020 49.8039 31.8523 43.8729 27.6135
90 49.8039 74.9020 24.7059 28.9481 42.7112 12.3200
91 49.8039 74.9020 0.0000 28.0599 42.3559 7.6427
92 49.8039 49.8039 100.0000 34.9984 27.6417 98.0985
93 49.8039 49.8039 74.9020 26.4388 24.2178 53.0244
94 49.8039 49.8039 49.8039 20.9213 22.0108 23.9698
95 49.8039 49.8039 24.7059 18.0171 20.8492 8.6764
96 49.8039 49.8039 0.0000 17.1289 20.4939 3.9990
97 49.8039 24.7059 100.0000 29.2446 16.1342 96.1806
98 49.8039 24.7059 74.9020 20.6850 12.7103 51.1065
99 49.8039 24.7059 49.8039 15.1676 10.5034 22.0519
100 49.8039 24.7059 24.7059 12.2633 9.3417 6.7584
101 49.8039 24.7059 0.0000 11.3751 8.9864 2.0811
102 49.8039 0.0000 100.0000 27.4849 12.6147 95.5940
103 49.8039 0.0000 74.9020 18.9253 9.1909 50.5199
104 49.8039 0.0000 49.8039 13.4078 6.9839 21.4653
105 49.8039 0.0000 24.7059 10.5036 5.8222 6.1719
106 24.7059 100.0000 100.0000 56.2518 79.9988 107.0843
107 24.7059 100.0000 74.9020 47.6922 76.5750 62.0102
108 24.7059 100.0000 49.8039 42.1748 74.3680 32.9556
109 24.7059 100.0000 24.7059 39.2705 73.2063 17.6621
110 24.7059 100.0000 0.0000 38.3823 72.8510 12.9848
111 24.7059 74.9020 100.0000 39.2939 46.0830 101.4316
112 24.7059 74.9020 74.9020 30.7343 42.6592 56.3576
113 24.7059 74.9020 49.8039 25.2169 40.4522 27.3029
114 24.7059 74.9020 24.7059 22.3126 39.2905 12.0095
115 24.7059 74.9020 0.0000 21.4244 38.9352 7.3321
116 24.7059 49.8039 100.0000 28.3629 24.2210 97.7880
117 24.7059 49.8039 74.9020 19.8033 20.7971 52.7139
118 24.7059 49.8039 49.8039 14.2858 18.5901 23.6593
119 24.7059 49.8039 24.7059 11.3816 17.4284 8.3658
120 24.7059 49.8039 0.0000 10.4934 17.0732 3.6885
121 24.7059 24.7059 100.0000 22.6091 12.7135 95.8701
122 24.7059 24.7059 74.9020 14.0496 9.2896 50.7960
123 24.7059 24.7059 49.8039 8.5321 7.0826 21.7414
124 24.7059 24.7059 24.7059 5.6279 5.9210 6.4479
125 24.7059 24.7059 0.0000 4.7396 5.5657 1.7706
126 24.7059 0.0000 100.0000 20.8494 9.1940 95.2835
127 24.7059 0.0000 74.9020 12.2898 5.7702 50.2094
128 24.7059 0.0000 49.8039 6.7724 3.5632 21.1548
129 24.7059 0.0000 24.7059 3.8681 2.4015 5.8613
130 24.7059 0.0000 0.0000 2.9799 2.0462 1.1840
131 0.0000 100.0000 74.9020 45.6628 75.5288 61.9152
132 0.0000 100.0000 49.8039 40.1454 73.3218 32.8606
133 0.0000 100.0000 24.7059 37.2411 72.1601 17.5672
134 0.0000 74.9020 100.0000 37.2645 45.0368 101.3367
135 0.0000 74.9020 74.9020 28.7049 41.6130 56.2626
136 0.0000 74.9020 49.8039 23.1875 39.4060 27.2080
137 0.0000 74.9020 24.7059 20.2832 38.2443 11.9145
138 0.0000 74.9020 0.0000 19.3950 37.8890 7.2372
139 0.0000 49.8039 100.0000 26.3335 23.1748 97.6930
140 0.0000 49.8039 74.9020 17.7739 19.7509 52.6189
141 0.0000 49.8039 49.8039 12.2564 17.5439 23.5643
142 0.0000 49.8039 24.7059 9.3522 16.3822 8.2709
143 0.0000 24.7059 100.0000 20.5797 11.6673 95.7751
144 0.0000 24.7059 74.9020 12.0202 8.2434 50.7010
145 0.0000 24.7059 49.8039 6.5027 6.0364 21.6464
146 0.0000 24.7059 24.7059 3.5985 4.8748 6.3529
147 0.0000 24.7059 0.0000 2.7102 4.5195 1.6756
148 0.0000 0.0000 74.9020 10.2604 4.7240 50.1144
149 0.0000 0.0000 24.7059 1.8387 1.3553 5.7664
150 91.7647 100.0000 100.0000 87.8148 96.2701 108.5614
151 82.7451 100.0000 100.0000 80.8177 92.6630 108.2339
152 61.9608 100.0000 100.0000 68.1819 86.1490 107.6426
153 100.0000 91.7647 100.0000 88.7762 87.4524 106.8087
154 100.0000 82.7451 100.0000 82.7089 75.3178 104.7863
155 100.0000 61.9608 100.0000 71.7522 53.4044 101.1341
156 100.0000 100.0000 91.7647 91.8833 98.7333 92.2242
157 100.0000 100.0000 82.7451 88.8208 97.5083 76.0974
158 100.0000 100.0000 61.9608 83.2903 95.2961 46.9745
159 7.8431 100.0000 100.0000 54.5080 79.0998 107.0027
160 16.8627 100.0000 100.0000 55.2087 79.4611 107.0355
161 37.6471 100.0000 100.0000 58.9980 81.4145 107.2128
162 0.0000 91.7647 100.0000 47.9486 66.4050 104.8980
163 0.0000 82.7451 100.0000 41.8813 54.2704 102.8756
164 0.0000 61.9608 100.0000 30.9246 32.3570 99.2234
165 0.0000 100.0000 91.7647 51.0557 77.6859 90.3135
166 0.0000 100.0000 82.7451 47.9932 76.4609 74.1867
167 0.0000 100.0000 61.9608 42.4627 74.2487 45.0638
168 91.7647 0.0000 100.0000 52.4124 25.4653 96.7606
169 82.7451 0.0000 100.0000 45.4153 21.8582 96.4331
170 61.9608 0.0000 100.0000 32.7795 15.3442 95.8418
171 100.0000 7.8431 100.0000 59.8953 29.6905 97.1818
172 100.0000 16.8627 100.0000 60.5028 30.9057 97.3843
173 100.0000 37.6471 100.0000 63.7886 37.4773 98.4795
174 100.0000 0.0000 91.7647 56.4809 27.9285 80.4234
175 100.0000 0.0000 82.7451 53.4184 26.7035 64.2966
176 100.0000 0.0000 61.9608 47.8879 24.4913 35.1737
177 7.8431 0.0000 100.0000 19.1056 8.2950 95.2019
178 16.8627 0.0000 100.0000 19.8063 8.6563 95.2347
179 37.6471 0.0000 100.0000 23.5956 10.6097 95.4120
180 0.0000 7.8431 100.0000 19.0677 8.6431 95.2711
181 0.0000 16.8627 100.0000 19.6752 9.8583 95.4736
182 0.0000 37.6471 100.0000 22.9610 16.4299 96.5688
183 0.0000 0.0000 91.7647 15.6533 6.8811 78.5127
184 0.0000 0.0000 82.7451 12.5908 5.6561 62.3859
185 0.0000 0.0000 61.9608 7.0603 3.4439 33.2630
186 91.7647 100.0000 0.0000 69.9453 89.1223 14.4619
187 82.7451 100.0000 0.0000 62.9482 85.5152 14.1344
188 61.9608 100.0000 0.0000 50.3124 79.0012 13.5431
189 100.0000 91.7647 0.0000 70.9067 80.3046 12.7092
190 100.0000 82.7451 0.0000 64.8394 68.1700 10.6868
191 100.0000 61.9608 0.0000 53.8827 46.2566 7.0346
192 100.0000 100.0000 7.8431 77.3055 92.9022 15.4588
193 100.0000 100.0000 16.8627 77.6122 93.0249 17.0737
194 100.0000 100.0000 37.6471 79.2707 93.6883 25.8074
195 7.8431 100.0000 0.0000 36.6385 71.9520 12.9032
196 16.8627 100.0000 0.0000 37.3392 72.3133 12.9360
197 37.6471 100.0000 0.0000 41.1285 74.2667 13.1133
198 0.0000 91.7647 0.0000 30.0791 59.2572 10.7985
199 0.0000 82.7451 0.0000 24.0118 47.1226 8.7761
200 0.0000 61.9608 0.0000 13.0551 25.2092 5.1239
201 0.0000 100.0000 7.8431 36.4779 71.8548 13.5481
202 0.0000 100.0000 16.8627 36.7846 71.9775 15.1630
203 0.0000 100.0000 37.6471 38.4431 72.6409 23.8967
204 91.7647 0.0000 0.0000 34.5429 18.3175 2.6611
205 82.7451 0.0000 0.0000 27.5458 14.7104 2.3336
206 61.9608 0.0000 0.0000 14.9100 8.1964 1.7423
207 100.0000 7.8431 0.0000 42.0258 22.5427 3.0823
208 100.0000 16.8627 0.0000 42.6333 23.7579 3.2848
209 100.0000 37.6471 0.0000 45.9191 30.3295 4.3800
210 100.0000 0.0000 7.8431 41.9031 22.0974 3.6580
211 100.0000 0.0000 16.8627 42.2098 22.2201 5.2729
212 100.0000 0.0000 37.6471 43.8683 22.8835 14.0066
213 7.8431 0.0000 0.0000 1.2361 1.1472 1.1024
214 16.8627 0.0000 0.0000 1.9368 1.5085 1.1352
215 37.6471 0.0000 0.0000 5.7261 3.4619 1.3125
216 0.0000 7.8431 0.0000 1.1982 1.4953 1.1716
217 0.0000 16.8627 0.0000 1.8057 2.7105 1.3741
218 0.0000 37.6471 0.0000 5.0915 9.2821 2.4693
219 0.0000 0.0000 7.8431 1.0755 1.0500 1.7473
220 0.0000 0.0000 16.8627 1.3822 1.1727 3.3622
221 0.0000 0.0000 37.6471 3.0407 1.8361 12.0959
222 0.0000 0.0000 0.0000 0.9505 1.0000 1.0890
223 100.0000 100.0000 100.0000 95.0500 100.0000 108.9000
224 0.0000 0.0000 0.0000 0.9505 1.0000 1.0890
225 100.0000 100.0000 100.0000 95.0500 100.0000 108.9000
226 5.8824 0.0000 0.0000 1.1455 1.1005 1.0981
227 0.0000 5.8824 0.0000 1.1196 1.3382 1.1454
228 0.0000 0.0000 5.8824 1.0359 1.0341 1.5385
229 0.0000 5.8824 5.8824 1.2050 1.3724 1.5949
230 5.8824 0.0000 5.8824 1.2309 1.1347 1.5476
231 5.8824 5.8824 0.0000 1.3146 1.4388 1.1545
232 18.8235 11.7647 11.7647 2.8489 2.6342 2.5204
233 11.7647 18.8235 11.7647 2.7589 3.4588 2.6843
234 11.7647 11.7647 18.8235 2.4684 2.4038 4.0483
235 11.7647 18.8235 18.8235 3.0551 3.5773 4.2439
236 18.8235 11.7647 18.8235 3.1450 2.7526 4.0800
237 18.8235 18.8235 11.7647 3.4356 3.8077 2.7160
238 30.9804 24.7059 24.7059 6.7907 6.5204 6.5023
239 24.7059 30.9804 24.7059 6.6362 7.9375 6.7840
240 24.7059 24.7059 30.9804 6.1368 6.1245 9.1279
241 24.7059 30.9804 30.9804 7.1451 8.1411 9.4640
242 30.9804 24.7059 30.9804 7.2996 6.7240 9.1824
243 30.9804 30.9804 24.7059 7.7990 8.5370 6.8384
244 43.9216 36.8627 36.8627 13.5286 13.1357 13.2523
245 36.8627 43.9216 36.8627 13.2568 15.6284 13.7477
246 36.8627 36.8627 43.9216 12.3785 12.4394 17.8706
247 36.8627 43.9216 43.9216 14.1520 15.9865 18.4618
248 43.9216 36.8627 43.9216 14.4238 13.4938 17.9664
249 43.9216 43.9216 36.8627 15.3022 16.6828 13.8435
250 55.6863 49.8039 49.8039 23.3002 23.2372 24.0811
251 49.8039 55.6863 49.8039 22.9841 26.1364 24.6574
252 49.8039 49.8039 55.6863 21.9625 22.4273 29.4527
253 49.8039 55.6863 55.6863 24.0253 26.5529 30.1403
254 55.6863 49.8039 55.6863 24.3414 23.6537 29.5640
255 55.6863 55.6863 49.8039 25.3630 27.3628 24.7687
256 68.6275 61.9608 61.9608 36.6673 36.6759 38.1169
257 61.9608 68.6275 61.9608 36.1966 40.9937 38.9752
258 61.9608 61.9608 68.6275 34.6751 35.4698 46.1167
259 61.9608 68.6275 68.6275 37.7472 41.6139 47.1407
260 68.6275 61.9608 68.6275 38.2180 37.2962 46.2825
261 68.6275 68.6275 61.9608 39.7394 42.8201 39.1410
262 80.7843 74.9020 74.9020 53.9040 54.6036 57.4419
263 74.9020 80.7843 74.9020 53.3820 59.3908 58.3934
264 74.9020 74.9020 80.7843 51.6952 53.2663 66.3115
265 74.9020 80.7843 80.7843 55.1013 60.0785 67.4468
266 80.7843 74.9020 80.7843 55.6232 55.2912 66.4953
267 80.7843 80.7843 74.9020 57.3101 61.4158 58.5773
268 93.7255 86.6667 86.6667 74.7097 75.5312 79.3100
269 86.6667 93.7255 86.6667 73.9496 82.5024 80.6956
270 86.6667 86.6667 93.7255 71.4932 73.5839 92.2258
271 86.6667 93.7255 93.7255 76.4531 83.5038 93.8791
272 93.7255 86.6667 93.7255 77.2132 76.5327 92.4935
273 93.7255 93.7255 86.6667 79.6696 85.4511 80.9633
274 11.7647 0.0000 0.0000 1.4806 1.2733 1.1138
275 0.0000 11.7647 0.0000 1.4101 1.9193 1.2422
276 0.0000 0.0000 11.7647 1.1825 1.0928 2.3107
277 0.0000 11.7647 11.7647 1.6421 2.0121 2.4639
278 11.7647 0.0000 11.7647 1.7126 1.3661 2.3355
279 11.7647 11.7647 0.0000 1.9402 2.1925 1.2670
280 36.8627 24.7059 24.7059 8.1684 7.2306 6.5668
281 24.7059 36.8627 24.7059 7.8308 10.3268 7.1822
282 24.7059 24.7059 36.8627 6.7398 6.3657 12.3033
283 24.7059 36.8627 36.8627 8.9428 10.7716 13.0377
284 36.8627 24.7059 36.8627 9.2803 7.6754 12.4222
285 24.7059 36.8627 36.8627 8.9428 10.7716 13.0377
286 6.2745 6.2745 6.2745 1.4381 1.5130 1.6476
287 12.5490 12.5490 12.5490 2.3097 2.4299 2.6462
288 18.8235 18.8235 18.8235 3.7318 3.9261 4.2756
289 25.0980 25.0980 25.0980 5.7749 6.0757 6.6164
290 31.3725 31.3725 31.3725 8.4991 8.9418 9.7376
291 37.6471 37.6471 37.6471 11.9574 12.5801 13.6997
292 43.9216 43.9216 43.9216 16.1974 17.0409 18.5575
293 50.1961 50.1961 50.1961 21.2629 22.3702 24.3611
294 56.4706 56.4706 56.4706 27.1943 28.6105 31.1569
295 62.7451 62.7451 62.7451 34.0295 35.8017 38.9881
296 69.0196 69.0196 69.0196 41.8041 43.9812 47.8955
297 75.2941 75.2941 75.2941 50.5518 53.1844 57.9178
298 81.5686 81.5686 81.5686 60.3044 63.4450 69.0916
299 87.8431 87.8431 87.8431 71.0927 74.7950 81.4518
300 94.1176 94.1176 94.1176 82.9457 87.2653 95.0320
END_DATA
CTI1   

DESCRIPTOR "Argyll Calibration Target chart information 1"
ORIGINATOR "ChromIQ"
DENSITY_EXTREME_VALUES "8"
CREATED "Sun May 31 09:27:24 2026"

NUMBER_OF_FIELDS 7
BEGIN_DATA_FORMAT
INDEX RGB_R RGB_G RGB_B XYZ_X XYZ_Y XYZ_Z
END_DATA_FORMAT

NUMBER_OF_SETS 8
BEGIN_DATA
0 100.0000 100.0000 100.0000 95.0500 100.0000 108.9000
1 0.0000 100.0000 100.0000 54.2224 78.9526 106.9893
2 100.0000 0.0000 100.0000 59.6476 29.1952 97.0992
3 0.0000 0.0000 100.0000 18.8200 8.1478 95.1885
4 100.0000 100.0000 0.0000 77.1805 92.8522 14.8005
5 0.0000 100.0000 0.0000 36.3529 71.8048 12.8898
6 100.0000 0.0000 0.0000 41.7781 22.0474 2.9997
7 0.0000 0.0000 0.0000 0.9505 1.0000 1.0890
END_DATA
CTI1   

DESCRIPTOR "Argyll Calibration Target chart information 1"
ORIGINATOR "ChromIQ"
DEVICE_COMBINATION_VALUES "9"
CREATED "Sun May 31 09:27:24 2026"

NUMBER_OF_FIELDS 7
BEGIN_DATA_FORMAT
INDEX RGB_R RGB_G RGB_B XYZ_X XYZ_Y XYZ_Z
END_DATA_FORMAT

NUMBER_OF_SETS 9
BEGIN_DATA
0 100.0000 100.0000 100.0000 95.0500 100.0000 108.9000
1 0.0000 100.0000 100.0000 54.2224 78.9526 106.9893
2 100.0000 0.0000 100.0000 59.6476 29.1952 97.0992
3 0.0000 0.0000 100.0000 18.8200 8.1478 95.1885
4 100.0000 100.0000 0.0000 77.1805 92.8522 14.8005
5 0.0000 100.0000 0.0000 36.3529 71.8048 12.8898
6 100.0000 0.0000 0.0000 41.7781 22.0474 2.9997
7 0.0000 0.0000 0.0000 0.9505 1.0000 1.0890
8 50.0000 50.0000 50.0000 21.0917 22.1901 24.1650
END_DATA
