assets/charts/pharmacist/rgb/colormunki/a3plus/tc918eg/tc918eg.ti1
CTI1   

DESCRIPTOR "Argyll Calibration Target chart information 1"
ORIGINATOR "ChromIQ"
APPROX_WHITE_POINT "95.050000 100.000000 108.900000"
COLOR_REP "RGB"
WHITE_COLOR_PATCHES "3"
BLACK_COLOR_PATCHES "3"
CREATED "Tue Jun 09 10:25:16 2026"

NUMBER_OF_FIELDS 7
BEGIN_DATA_FORMAT
SAMPLE_ID RGB_R RGB_G RGB_B XYZ_X XYZ_Y XYZ_Z
END_DATA_FORMAT

NUMBER_OF_SETS 1160
BEGIN_DATA
1 0.0000 0.0000 0.0000 0.9505 1.0000 1.0890
2 0.0000 12.5490 0.0000 1.4618 2.0227 1.2594
3 0.0000 25.0980 0.0000 2.7656 4.6301 1.6940
4 0.0000 37.6471 0.0000 5.0915 9.2821 2.4693
5 0.0000 50.1961 0.0000 8.5925 16.2840 3.6363
6 0.0000 62.7451 0.0000 13.3956 25.8902 5.2374
7 0.0000 75.2941 0.0000 19.6116 38.3223 7.3094
8 0.0000 87.8431 0.0000 27.3396 53.7782 9.8854
9 0.0000 100.0000 0.0000 36.3529 71.8048 12.8898
10 0.0000 0.0000 12.5490 1.2086 1.1032 2.4482
11 0.0000 12.5490 12.5490 1.7200 2.1259 2.6186
12 0.0000 25.0980 12.5490 3.0237 4.7334 3.0532
13 0.0000 37.6471 12.5490 5.3496 9.3853 3.8285
14 0.0000 50.1961 12.5490 8.8506 16.3872 4.9955
15 0.0000 62.7451 12.5490 13.6537 25.9934 6.5965
16 0.0000 75.2941 12.5490 19.8697 38.4255 8.6685
17 0.0000 87.8431 12.5490 27.5977 53.8814 11.2445
18 0.0000 100.0000 12.5490 36.6110 71.9080 14.2490
19 0.0000 0.0000 25.0980 1.8667 1.3665 5.9134
20 0.0000 12.5490 25.0980 2.3780 2.3892 6.0839
21 0.0000 25.0980 25.0980 3.6817 4.9966 6.5185
22 0.0000 37.6471 25.0980 6.0077 9.6485 7.2938
23 0.0000 50.1961 25.0980 9.5086 16.6504 8.4608
24 0.0000 62.7451 25.0980 14.3118 26.2567 10.0618
25 0.0000 75.2941 25.0980 20.5278 38.6887 12.1338
26 0.0000 87.8431 25.0980 28.2558 54.1447 14.7098
27 0.0000 100.0000 25.0980 37.2691 72.1713 17.7142
28 12.5490 0.0000 0.0000 1.5402 1.3040 1.1166
29 12.5490 12.5490 0.0000 2.0516 2.3267 1.2870
30 12.5490 25.0980 0.0000 3.3553 4.9341 1.7216
31 12.5490 37.6471 0.0000 5.6812 9.5861 2.4969
32 12.5490 50.1961 0.0000 9.1822 16.5880 3.6639
33 12.5490 62.7451 0.0000 13.9853 26.1942 5.2650
34 12.5490 75.2941 0.0000 20.2013 38.6263 7.3370
35 12.5490 87.8431 0.0000 27.9293 54.0822 9.9130
36 12.5490 100.0000 0.0000 36.9426 72.1088 12.9174
37 12.5490 0.0000 12.5490 1.7983 1.4072 2.4758
38 12.5490 12.5490 12.5490 2.3097 2.4299 2.6462
39 12.5490 25.0980 12.5490 3.6134 5.0374 3.0808
40 12.5490 37.6471 12.5490 5.9394 9.6893 3.8561
41 12.5490 50.1961 12.5490 9.4403 16.6912 5.0231
42 12.5490 62.7451 12.5490 14.2434 26.2974 6.6241
43 12.5490 75.2941 12.5490 20.4595 38.7295 8.6961
44 12.5490 87.8431 12.5490 28.1874 54.1854 11.2721
45 12.5490 100.0000 12.5490 37.2007 72.2120 14.2766
46 12.5490 0.0000 25.0980 2.4564 1.6705 5.9410
47 12.5490 12.5490 25.0980 2.9677 2.6932 6.1115
48 12.5490 25.0980 25.0980 4.2714 5.3006 6.5460
49 12.5490 37.6471 25.0980 6.5974 9.9526 7.3214
50 12.5490 50.1961 25.0980 10.0983 16.9544 8.4884
51 12.5490 62.7451 25.0980 14.9015 26.5607 10.0894
52 12.5490 75.2941 25.0980 21.1175 38.9928 12.1614
53 12.5490 87.8431 25.0980 28.8455 54.4487 14.7374
54 12.5490 100.0000 25.0980 37.8588 72.4753 17.7418
55 25.0980 0.0000 0.0000 3.0437 2.0791 1.1870
56 25.0980 12.5490 0.0000 3.5551 3.1018 1.3574
57 25.0980 25.0980 0.0000 4.8588 5.7092 1.7920
58 25.0980 37.6471 0.0000 7.1848 10.3612 2.5673
59 25.0980 50.1961 0.0000 10.6857 17.3630 3.7343
60 25.0980 62.7451 0.0000 15.4888 26.9693 5.3353
61 25.0980 75.2941 0.0000 21.7048 39.4014 7.4073
62 25.0980 87.8431 0.0000 29.4328 54.8573 9.9833
63 25.0980 100.0000 0.0000 38.4461 72.8839 12.9878
64 25.0980 0.0000 12.5490 3.3018 2.1823 2.5461
65 25.0980 12.5490 12.5490 3.8132 3.2050 2.7166
66 25.0980 25.0980 12.5490 5.1169 5.8125 3.1511
67 25.0980 37.6471 12.5490 7.4429 10.4644 3.9265
68 25.0980 50.1961 12.5490 10.9438 17.4663 5.0934
69 25.0980 62.7451 12.5490 15.7469 27.0725 6.6945
70 25.0980 75.2941 12.5490 21.9630 39.5046 8.7665
71 25.0980 87.8431 12.5490 29.6909 54.9605 11.3425
72 25.0980 100.0000 12.5490 38.7042 72.9871 14.3469
73 25.0980 0.0000 25.0980 3.9599 2.4456 6.0114
74 25.0980 12.5490 25.0980 4.4712 3.4682 6.1818
75 25.0980 25.0980 25.0980 5.7749 6.0757 6.6164
76 25.0980 37.6471 25.0980 8.1009 10.7276 7.3917
77 25.0980 50.1961 25.0980 11.6018 17.7295 8.5587
78 25.0980 62.7451 25.0980 16.4050 27.3357 10.1598
79 25.0980 75.2941 25.0980 22.6210 39.7678 12.2318
80 25.0980 87.8431 25.0980 30.3490 55.2237 14.8078
81 25.0980 100.0000 25.0980 39.3623 73.2504 17.8122
82 37.6471 0.0000 0.0000 5.7261 3.4619 1.3125
83 37.6471 12.5490 0.0000 6.2375 4.4846 1.4829
84 37.6471 25.0980 0.0000 7.5412 7.0921 1.9175
85 37.6471 37.6471 0.0000 9.8672 11.7440 2.6928
86 37.6471 50.1961 0.0000 13.3681 18.7459 3.8598
87 37.6471 62.7451 0.0000 18.1712 28.3521 5.4609
88 37.6471 75.2941 0.0000 24.3873 40.7842 7.5329
89 37.6471 87.8431 0.0000 32.1152 56.2401 10.1089
90 37.6471 100.0000 0.0000 41.1285 74.2667 13.1133
91 37.6471 0.0000 12.5490 5.9842 3.5652 2.6717
92 37.6471 12.5490 12.5490 6.4956 4.5879 2.8421
93 37.6471 25.0980 12.5490 7.7993 7.1953 3.2767
94 37.6471 37.6471 12.5490 10.1253 11.8473 4.0520
95 37.6471 50.1961 12.5490 13.6262 18.8491 5.2190
96 37.6471 62.7451 12.5490 18.4293 28.4554 6.8200
97 37.6471 75.2941 12.5490 24.6454 40.8875 8.8920
98 37.6471 87.8431 12.5490 32.3733 56.3434 11.4680
99 37.6471 100.0000 12.5490 41.3866 74.3700 14.4725
100 37.6471 0.0000 25.0980 6.6423 3.8284 6.1369
101 37.6471 12.5490 25.0980 7.1536 4.8511 6.3074
102 37.6471 25.0980 25.0980 8.4574 7.4585 6.7419
103 37.6471 37.6471 25.0980 10.7833 12.1105 7.5173
104 37.6471 50.1961 25.0980 14.2843 19.1124 8.6843
105 37.6471 62.7451 25.0980 19.0874 28.7186 10.2853
106 37.6471 75.2941 25.0980 25.3034 41.1507 12.3573
107 37.6471 87.8431 25.0980 33.0314 56.6066 14.9333
108 37.6471 100.0000 25.0980 42.0447 74.6332 17.9377
109 50.1961 0.0000 0.0000 9.7636 5.5433 1.5014
110 50.1961 12.5490 0.0000 10.2749 6.5660 1.6719
111 50.1961 25.0980 0.0000 11.5786 9.1734 2.1065
112 50.1961 37.6471 0.0000 13.9046 13.8254 2.8818
113 50.1961 50.1961 0.0000 17.4055 20.8273 4.0488
114 50.1961 62.7451 0.0000 22.2087 30.4335 5.6498
115 50.1961 75.2941 0.0000 28.4247 42.8656 7.7218
116 50.1961 87.8431 0.0000 36.1527 58.3215 10.2978
117 50.1961 100.0000 0.0000 45.1660 76.3481 13.3022
118 50.1961 0.0000 12.5490 10.0217 5.6465 2.8606
119 50.1961 12.5490 12.5490 10.5330 6.6692 3.0311
120 50.1961 25.0980 12.5490 11.8367 9.2767 3.4656
121 50.1961 37.6471 12.5490 14.1627 13.9286 4.2410
122 50.1961 50.1961 12.5490 17.6637 20.9305 5.4079
123 50.1961 62.7451 12.5490 22.4668 30.5367 7.0090
124 50.1961 75.2941 12.5490 28.6828 42.9688 9.0810
125 50.1961 87.8431 12.5490 36.4108 58.4247 11.6570
126 50.1961 100.0000 12.5490 45.4241 76.4513 14.6614
127 50.1961 0.0000 25.0980 10.6797 5.9098 6.3259
128 50.1961 12.5490 25.0980 11.1911 6.9325 6.4963
129 50.1961 25.0980 25.0980 12.4948 9.5399 6.9309
130 50.1961 37.6471 25.0980 14.8208 14.1919 7.7062
131 50.1961 50.1961 25.0980 18.3217 21.1937 8.8732
132 50.1961 62.7451 25.0980 23.1248 30.8000 10.4742
133 50.1961 75.2941 25.0980 29.3409 43.2320 12.5463
134 50.1961 87.8431 25.0980 37.0688 58.6880 15.1222
135 50.1961 100.0000 25.0980 46.0821 76.7146 18.1267
136 62.7451 0.0000 0.0000 15.3027 8.3988 1.7607
137 62.7451 12.5490 0.0000 15.8141 9.4215 1.9311
138 62.7451 25.0980 0.0000 17.1178 12.0290 2.3657
139 62.7451 37.6471 0.0000 19.4438 16.6809 3.1410
140 62.7451 50.1961 0.0000 22.9447 23.6828 4.3080
141 62.7451 62.7451 0.0000 27.7478 33.2890 5.9090
142 62.7451 75.2941 0.0000 33.9639 45.7211 7.9811
143 62.7451 87.8431 0.0000 41.6918 61.1770 10.5570
144 62.7451 100.0000 0.0000 50.7051 79.2036 13.5615
145 62.7451 0.0000 12.5490 15.5608 8.5021 3.1198
146 62.7451 12.5490 12.5490 16.0722 9.5248 3.2903
147 62.7451 25.0980 12.5490 17.3759 12.1322 3.7249
148 62.7451 37.6471 12.5490 19.7019 16.7842 4.5002
149 62.7451 50.1961 12.5490 23.2028 23.7860 5.6672
150 62.7451 62.7451 12.5490 28.0059 33.3923 7.2682
151 62.7451 75.2941 12.5490 34.2220 45.8244 9.3402
152 62.7451 87.8431 12.5490 41.9499 61.2803 11.9162
153 62.7451 100.0000 12.5490 50.9632 79.3069 14.9206
154 62.7451 0.0000 25.0980 16.2189 8.7653 6.5851
155 62.7451 12.5490 25.0980 16.7302 9.7880 6.7556
156 62.7451 25.0980 25.0980 18.0340 12.3954 7.1901
157 62.7451 37.6471 25.0980 20.3599 17.0474 7.9655
158 62.7451 50.1961 25.0980 23.8609 24.0493 9.1324
159 62.7451 62.7451 25.0980 28.6640 33.6555 10.7335
160 62.7451 75.2941 25.0980 34.8800 46.0876 12.8055
161 62.7451 87.8431 25.0980 42.6080 61.5435 15.3815
162 62.7451 100.0000 25.0980 51.6213 79.5701 18.3859
163 75.2941 0.0000 0.0000 22.4713 12.0944 2.0962
164 75.2941 12.5490 0.0000 22.9827 13.1171 2.2666
165 75.2941 25.0980 0.0000 24.2864 15.7245 2.7012
166 75.2941 37.6471 0.0000 26.6124 20.3765 3.4765
167 75.2941 50.1961 0.0000 30.1133 27.3784 4.6435
168 75.2941 62.7451 0.0000 34.9164 36.9846 6.2445
169 75.2941 75.2941 0.0000 41.1325 49.4167 8.3165
170 75.2941 87.8431 0.0000 48.8604 64.8726 10.8925
171 75.2941 100.0000 0.0000 57.8737 82.8992 13.8970
172 75.2941 0.0000 12.5490 22.7294 12.1976 3.4553
173 75.2941 12.5490 12.5490 23.2408 13.2203 3.6258
174 75.2941 25.0980 12.5490 24.5445 15.8278 4.0603
175 75.2941 37.6471 12.5490 26.8705 20.4797 4.8357
176 75.2941 50.1961 12.5490 30.3714 27.4816 6.0026
177 75.2941 62.7451 12.5490 35.1745 37.0878 7.6037
178 75.2941 75.2941 12.5490 41.3906 49.5199 9.6757
179 75.2941 87.8431 12.5490 49.1185 64.9758 12.2517
180 75.2941 100.0000 12.5490 58.1318 83.0024 15.2561
181 75.2941 0.0000 25.0980 23.3875 12.4609 6.9206
182 75.2941 12.5490 25.0980 23.8989 13.4836 7.0910
183 75.2941 25.0980 25.0980 25.2026 16.0910 7.5256
184 75.2941 37.6471 25.0980 27.5285 20.7430 8.3009
185 75.2941 50.1961 25.0980 31.0295 27.7448 9.4679
186 75.2941 62.7451 25.0980 35.8326 37.3511 11.0690
187 75.2941 75.2941 25.0980 42.0486 49.7831 13.1410
188 75.2941 87.8431 25.0980 49.7766 65.2391 15.7170
189 75.2941 100.0000 25.0980 58.7899 83.2657 18.7214
190 87.8431 0.0000 0.0000 31.3836 16.6888 2.5132
191 87.8431 12.5490 0.0000 31.8949 17.7115 2.6837
192 87.8431 25.0980 0.0000 33.1986 20.3189 3.1183
193 87.8431 37.6471 0.0000 35.5246 24.9709 3.8936
194 87.8431 50.1961 0.0000 39.0255 31.9728 5.0606
195 87.8431 62.7451 0.0000 43.8287 41.5790 6.6616
196 87.8431 75.2941 0.0000 50.0447 54.0111 8.7336
197 87.8431 87.8431 0.0000 57.7727 69.4670 11.3096
198 87.8431 100.0000 0.0000 66.7860 87.4936 14.3140
199 87.8431 0.0000 12.5490 31.6417 16.7921 3.8724
200 87.8431 12.5490 12.5490 32.1530 17.8148 4.0429
201 87.8431 25.0980 12.5490 33.4567 20.4222 4.4774
202 87.8431 37.6471 12.5490 35.7827 25.0741 5.2527
203 87.8431 50.1961 12.5490 39.2836 32.0760 6.4197
204 87.8431 62.7451 12.5490 44.0868 41.6823 8.0208
205 87.8431 75.2941 12.5490 50.3028 54.1143 10.0928
206 87.8431 87.8431 12.5490 58.0308 69.5703 12.6688
207 87.8431 100.0000 12.5490 67.0441 87.5969 15.6732
208 87.8431 0.0000 25.0980 32.2997 17.0553 7.3377
209 87.8431 12.5490 25.0980 32.8111 18.0780 7.5081
210 87.8431 25.0980 25.0980 34.1148 20.6854 7.9427
211 87.8431 37.6471 25.0980 36.4408 25.3374 8.7180
212 87.8431 50.1961 25.0980 39.9417 32.3392 9.8850
213 87.8431 62.7451 25.0980 44.7448 41.9455 11.4860
214 87.8431 75.2941 25.0980 50.9609 54.3776 13.5581
215 87.8431 87.8431 25.0980 58.6888 69.8335 16.1340
216 87.8431 100.0000 25.0980 67.7021 87.8601 19.1385
217 100.0000 0.0000 0.0000 41.7781 22.0474 2.9997
218 100.0000 12.5490 0.0000 42.2894 23.0701 3.1701
219 100.0000 25.0980 0.0000 43.5932 25.6775 3.6047
220 100.0000 37.6471 0.0000 45.9191 30.3295 4.3800
221 100.0000 50.1961 0.0000 49.4201 37.3314 5.5470
222 100.0000 62.7451 0.0000 54.2232 46.9376 7.1481
223 100.0000 75.2941 0.0000 60.4392 59.3697 9.2201
224 100.0000 87.8431 0.0000 68.1672 74.8256 11.7961
225 100.0000 100.0000 0.0000 77.1805 92.8522 14.8005
226 100.0000 0.0000 12.5490 42.0362 22.1506 4.3589
227 100.0000 12.5490 12.5490 42.5476 23.1733 4.5293
228 100.0000 25.0980 12.5490 43.8513 25.7808 4.9639
229 100.0000 37.6471 12.5490 46.1772 30.4327 5.7392
230 100.0000 50.1961 12.5490 49.6782 37.4346 6.9062
231 100.0000 62.7451 12.5490 54.4813 47.0408 8.5072
232 100.0000 75.2941 12.5490 60.6973 59.4729 10.5792
233 100.0000 87.8431 12.5490 68.4253 74.9288 13.1552
234 100.0000 100.0000 12.5490 77.4386 92.9554 16.1597
235 100.0000 0.0000 25.0980 42.6943 22.4139 7.8241
236 100.0000 12.5490 25.0980 43.2056 23.4366 7.9946
237 100.0000 25.0980 25.0980 44.5093 26.0440 8.4292
238 100.0000 37.6471 25.0980 46.8353 30.6959 9.2045
239 100.0000 50.1961 25.0980 50.3362 37.6978 10.3715
240 100.0000 62.7451 25.0980 55.1394 47.3041 11.9725
241 100.0000 75.2941 25.0980 61.3554 59.7361 14.0445
242 100.0000 87.8431 25.0980 69.0834 75.1921 16.6205
243 100.0000 100.0000 25.0980 78.0967 93.2187 19.6249
244 0.0000 0.0000 37.6471 3.0407 1.8361 12.0959
245 0.0000 12.5490 37.6471 3.5521 2.8588 12.2663
246 0.0000 25.0980 37.6471 4.8558 5.4662 12.7009
247 0.0000 37.6471 37.6471 7.1817 10.1182 13.4762
248 0.0000 50.1961 37.6471 10.6827 17.1200 14.6432
249 0.0000 62.7451 37.6471 15.4858 26.7263 16.2442
250 0.0000 75.2941 37.6471 21.7018 39.1584 18.3163
251 0.0000 87.8431 37.6471 29.4298 54.6143 20.8922
252 0.0000 100.0000 37.6471 38.4431 72.6409 23.8967
253 0.0000 0.0000 50.1961 4.8078 2.5429 21.4014
254 0.0000 12.5490 50.1961 5.3192 3.5656 21.5718
255 0.0000 25.0980 50.1961 6.6229 6.1731 22.0064
256 0.0000 37.6471 50.1961 8.9489 10.8250 22.7817
257 0.0000 50.1961 50.1961 12.4498 17.8269 23.9487
258 0.0000 62.7451 50.1961 17.2529 27.4331 25.5497
259 0.0000 75.2941 50.1961 23.4690 39.8652 27.6217
260 0.0000 87.8431 50.1961 31.1969 55.3211 30.1977
261 0.0000 100.0000 50.1961 40.2102 73.3477 33.2022
262 0.0000 0.0000 62.7451 7.2322 3.5127 34.1680
263 0.0000 12.5490 62.7451 7.7436 4.5354 34.3385
264 0.0000 25.0980 62.7451 9.0473 7.1428 34.7731
265 0.0000 37.6471 62.7451 11.3733 11.7948 35.5484
266 0.0000 50.1961 62.7451 14.8742 18.7966 36.7154
267 0.0000 62.7451 62.7451 19.6773 28.4029 38.3164
268 0.0000 75.2941 62.7451 25.8934 40.8350 40.3884
269 0.0000 87.8431 62.7451 33.6213 56.2909 42.9644
270 0.0000 100.0000 62.7451 42.6346 74.3175 45.9688
271 12.5490 0.0000 37.6471 3.6304 2.1401 12.1235
272 12.5490 12.5490 37.6471 4.1418 3.1628 12.2939
273 12.5490 25.0980 37.6471 5.4455 5.7702 12.7285
274 12.5490 37.6471 37.6471 7.7715 10.4222 13.5038
275 12.5490 50.1961 37.6471 11.2724 17.4240 14.6708
276 12.5490 62.7451 37.6471 16.0755 27.0303 16.2718
277 12.5490 75.2941 37.6471 22.2916 39.4624 18.3439
278 12.5490 87.8431 37.6471 30.0195 54.9183 20.9198
279 12.5490 100.0000 37.6471 39.0328 72.9449 23.9243
280 12.5490 0.0000 50.1961 5.3975 2.8469 21.4290
281 12.5490 12.5490 50.1961 5.9089 3.8696 21.5994
282 12.5490 25.0980 50.1961 7.2126 6.4771 22.0340
283 12.5490 37.6471 50.1961 9.5386 11.1290 22.8093
284 12.5490 50.1961 50.1961 13.0395 18.1309 23.9763
285 12.5490 62.7451 50.1961 17.8426 27.7371 25.5773
286 12.5490 75.2941 50.1961 24.0587 40.1692 27.6493
287 12.5490 87.8431 50.1961 31.7866 55.6251 30.2253
288 12.5490 100.0000 50.1961 40.7999 73.6517 33.2298
289 12.5490 0.0000 62.7451 7.8219 3.8167 34.1956
290 12.5490 12.5490 62.7451 8.3333 4.8394 34.3661
291 12.5490 25.0980 62.7451 9.6370 7.4468 34.8007
292 12.5490 37.6471 62.7451 11.9630 12.0988 35.5760
293 12.5490 50.1961 62.7451 15.4639 19.1006 36.7430
294 12.5490 62.7451 62.7451 20.2670 28.7069 38.3440
295 12.5490 75.2941 62.7451 26.4831 41.1390 40.4160
296 12.5490 87.8431 62.7451 34.2110 56.5949 42.9920
297 12.5490 100.0000 62.7451 43.2243 74.6215 45.9964
298 25.0980 0.0000 37.6471 5.1339 2.9152 12.1938
299 25.0980 12.5490 37.6471 5.6453 3.9379 12.3643
300 25.0980 25.0980 37.6471 6.9490 6.5453 12.7989
301 25.0980 37.6471 37.6471 9.2750 11.1973 13.5742
302 25.0980 50.1961 37.6471 12.7759 18.1991 14.7412
303 25.0980 62.7451 37.6471 17.5790 27.8054 16.3422
304 25.0980 75.2941 37.6471 23.7951 40.2375 18.4142
305 25.0980 87.8431 37.6471 31.5230 55.6934 20.9902
306 25.0980 100.0000 37.6471 40.5363 73.7200 23.9946
307 25.0980 0.0000 50.1961 6.9010 3.6220 21.4993
308 25.0980 12.5490 50.1961 7.4124 4.6447 21.6698
309 25.0980 25.0980 50.1961 8.7161 7.2521 22.1043
310 25.0980 37.6471 50.1961 11.0421 11.9041 22.8797
311 25.0980 50.1961 50.1961 14.5430 18.9060 24.0467
312 25.0980 62.7451 50.1961 19.3461 28.5122 25.6477
313 25.0980 75.2941 50.1961 25.5622 40.9443 27.7197
314 25.0980 87.8431 50.1961 33.2901 56.4002 30.2957
315 25.0980 100.0000 50.1961 42.3034 74.4268 33.3001
316 25.0980 0.0000 62.7451 9.3254 4.5918 34.2660
317 25.0980 12.5490 62.7451 9.8368 5.6145 34.4365
318 25.0980 25.0980 62.7451 11.1405 8.2219 34.8710
319 25.0980 37.6471 62.7451 13.4665 12.8739 35.6463
320 25.0980 50.1961 62.7451 16.9674 19.8757 36.8133
321 25.0980 62.7451 62.7451 21.7705 29.4820 38.4144
322 25.0980 75.2941 62.7451 27.9866 41.9141 40.4864
323 25.0980 87.8431 62.7451 35.7145 57.3700 43.0624
324 25.0980 100.0000 62.7451 44.7278 75.3966 46.0668
325 37.6471 0.0000 37.6471 7.8163 4.2980 12.3194
326 37.6471 12.5490 37.6471 8.3277 5.3207 12.4898
327 37.6471 25.0980 37.6471 9.6314 7.9281 12.9244
328 37.6471 37.6471 37.6471 11.9574 12.5801 13.6997
329 37.6471 50.1961 37.6471 15.4583 19.5820 14.8667
330 37.6471 62.7451 37.6471 20.2614 29.1882 16.4677
331 37.6471 75.2941 37.6471 26.4775 41.6203 18.5398
332 37.6471 87.8431 37.6471 34.2054 57.0762 21.1157
333 37.6471 100.0000 37.6471 43.2187 75.1028 24.1202
334 37.6471 0.0000 50.1961 9.5835 5.0049 21.6249
335 37.6471 12.5490 50.1961 10.0948 6.0275 21.7953
336 37.6471 25.0980 50.1961 11.3985 8.6350 22.2299
337 37.6471 37.6471 50.1961 13.7245 13.2869 23.0052
338 37.6471 50.1961 50.1961 17.2254 20.2888 24.1722
339 37.6471 62.7451 50.1961 22.0285 29.8951 25.7732
340 37.6471 75.2941 50.1961 28.2446 42.3271 27.8452
341 37.6471 87.8431 50.1961 35.9725 57.7831 30.4212
342 37.6471 100.0000 50.1961 44.9859 75.8097 33.4257
343 37.6471 0.0000 62.7451 12.0078 5.9746 34.3915
344 37.6471 12.5490 62.7451 12.5192 6.9973 34.5620
345 37.6471 25.0980 62.7451 13.8229 9.6047 34.9966
346 37.6471 37.6471 62.7451 16.1489 14.2567 35.7719
347 37.6471 50.1961 62.7451 19.6498 21.2586 36.9389
348 37.6471 62.7451 62.7451 24.4529 30.8648 38.5399
349 37.6471 75.2941 62.7451 30.6690 43.2969 40.6119
350 37.6471 87.8431 62.7451 38.3969 58.7528 43.1879
351 37.6471 100.0000 62.7451 47.4102 76.7794 46.1923
352 50.1961 0.0000 37.6471 11.8538 6.3794 12.5083
353 50.1961 12.5490 37.6471 12.3651 7.4021 12.6788
354 50.1961 25.0980 37.6471 13.6688 10.0095 13.1133
355 50.1961 37.6471 37.6471 15.9948 14.6615 13.8887
356 50.1961 50.1961 37.6471 19.4958 21.6633 15.0557
357 50.1961 62.7451 37.6471 24.2989 31.2696 16.6567
358 50.1961 75.2941 37.6471 30.5149 43.7017 18.7287
359 50.1961 87.8431 37.6471 38.2429 59.1576 21.3047
360 50.1961 100.0000 37.6471 47.2562 77.1842 24.3091
361 50.1961 0.0000 50.1961 13.6209 7.0862 21.8138
362 50.1961 12.5490 50.1961 14.1322 8.1089 21.9843
363 50.1961 25.0980 50.1961 15.4359 10.7164 22.4188
364 50.1961 37.6471 50.1961 17.7619 15.3683 23.1942
365 50.1961 50.1961 50.1961 21.2629 22.3702 24.3611
366 50.1961 62.7451 50.1961 26.0660 31.9764 25.9622
367 50.1961 75.2941 50.1961 32.2820 44.4085 28.0342
368 50.1961 87.8431 50.1961 40.0100 59.8644 30.6102
369 50.1961 100.0000 50.1961 49.0233 77.8910 33.6146
370 50.1961 0.0000 62.7451 16.0453 8.0560 34.5805
371 50.1961 12.5490 62.7451 16.5566 9.0787 34.7509
372 50.1961 25.0980 62.7451 17.8603 11.6861 35.1855
373 50.1961 37.6471 62.7451 20.1863 16.3381 35.9608
374 50.1961 50.1961 62.7451 23.6873 23.3399 37.1278
375 50.1961 62.7451 62.7451 28.4904 32.9462 38.7289
376 50.1961 75.2941 62.7451 34.7064 45.3783 40.8009
377 50.1961 87.8431 62.7451 42.4344 60.8342 43.3769
378 50.1961 100.0000 62.7451 51.4477 78.8608 46.3813
379 62.7451 0.0000 37.6471 17.3929 9.2349 12.7676
380 62.7451 12.5490 37.6471 17.9043 10.2576 12.9380
381 62.7451 25.0980 37.6471 19.2080 12.8651 13.3726
382 62.7451 37.6471 37.6471 21.5340 17.5170 14.1479
383 62.7451 50.1961 37.6471 25.0349 24.5189 15.3149
384 62.7451 62.7451 37.6471 29.8380 34.1251 16.9159
385 62.7451 75.2941 37.6471 36.0541 46.5572 18.9879
386 62.7451 87.8431 37.6471 43.7820 62.0131 21.5639
387 62.7451 100.0000 37.6471 52.7953 80.0397 24.5684
388 62.7451 0.0000 50.1961 19.1601 9.9418 22.0730
389 62.7451 12.5490 50.1961 19.6714 10.9645 22.2435
390 62.7451 25.0980 50.1961 20.9751 13.5719 22.6781
391 62.7451 37.6471 50.1961 23.3011 18.2239 23.4534
392 62.7451 50.1961 50.1961 26.8020 25.2257 24.6204
393 62.7451 62.7451 50.1961 31.6051 34.8320 26.2214
394 62.7451 75.2941 50.1961 37.8212 47.2641 28.2934
395 62.7451 87.8431 50.1961 45.5491 62.7200 30.8694
396 62.7451 100.0000 50.1961 54.5625 80.7466 33.8738
397 62.7451 0.0000 62.7451 21.5844 10.9115 34.8397
398 62.7451 12.5490 62.7451 22.0958 11.9342 35.0102
399 62.7451 25.0980 62.7451 23.3995 14.5417 35.4447
400 62.7451 37.6471 62.7451 25.7255 19.1936 36.2201
401 62.7451 50.1961 62.7451 29.2264 26.1955 37.3870
402 62.7451 62.7451 62.7451 34.0295 35.8017 38.9881
403 62.7451 75.2941 62.7451 40.2456 48.2338 41.0601
404 62.7451 87.8431 62.7451 47.9735 63.6897 43.6361
405 62.7451 100.0000 62.7451 56.9868 81.7163 46.6405
406 75.2941 0.0000 37.6471 24.5616 12.9305 13.1030
407 75.2941 12.5490 37.6471 25.0729 13.9532 13.2735
408 75.2941 25.0980 37.6471 26.3766 16.5606 13.7081
409 75.2941 37.6471 37.6471 28.7026 21.2126 14.4834
410 75.2941 50.1961 37.6471 32.2035 28.2144 15.6504
411 75.2941 62.7451 37.6471 37.0067 37.8207 17.2514
412 75.2941 75.2941 37.6471 43.2227 50.2528 19.3234
413 75.2941 87.8431 37.6471 50.9507 65.7087 21.8994
414 75.2941 100.0000 37.6471 59.9640 83.7353 24.9038
415 75.2941 0.0000 50.1961 26.3287 13.6373 22.4085
416 75.2941 12.5490 50.1961 26.8400 14.6600 22.5790
417 75.2941 25.0980 50.1961 28.1437 17.2675 23.0135
418 75.2941 37.6471 50.1961 30.4697 21.9194 23.7889
419 75.2941 50.1961 50.1961 33.9706 28.9213 24.9559
420 75.2941 62.7451 50.1961 38.7738 38.5275 26.5569
421 75.2941 75.2941 50.1961 44.9898 50.9596 28.6289
422 75.2941 87.8431 50.1961 52.7178 66.4155 31.2049
423 75.2941 100.0000 50.1961 61.7311 84.4421 34.2093
424 75.2941 0.0000 62.7451 28.7531 14.6071 35.1752
425 75.2941 12.5490 62.7451 29.2644 15.6298 35.3456
426 75.2941 25.0980 62.7451 30.5681 18.2372 35.7802
427 75.2941 37.6471 62.7451 32.8941 22.8892 36.5555
428 75.2941 50.1961 62.7451 36.3950 29.8910 37.7225
429 75.2941 62.7451 62.7451 41.1982 39.4973 39.3236
430 75.2941 75.2941 62.7451 47.4142 51.9294 41.3956
431 75.2941 87.8431 62.7451 55.1422 67.3853 43.9716
432 75.2941 100.0000 62.7451 64.1555 85.4119 46.9760
433 87.8431 0.0000 37.6471 33.4738 17.5249 13.5201
434 87.8431 12.5490 37.6471 33.9851 18.5476 13.6906
435 87.8431 25.0980 37.6471 35.2888 21.1550 14.1251
436 87.8431 37.6471 37.6471 37.6148 25.8070 14.9005
437 87.8431 50.1961 37.6471 41.1158 32.8089 16.0675
438 87.8431 62.7451 37.6471 45.9189 42.4151 17.6685
439 87.8431 75.2941 37.6471 52.1349 54.8472 19.7405
440 87.8431 87.8431 37.6471 59.8629 70.3031 22.3165
441 87.8431 100.0000 37.6471 68.8762 88.3297 25.3209
442 87.8431 0.0000 50.1961 35.2409 18.2317 22.8256
443 87.8431 12.5490 50.1961 35.7522 19.2544 22.9961
444 87.8431 25.0980 50.1961 37.0559 21.8619 23.4306
445 87.8431 37.6471 50.1961 39.3819 26.5138 24.2060
446 87.8431 50.1961 50.1961 42.8829 33.5157 25.3729
447 87.8431 62.7451 50.1961 47.6860 43.1219 26.9740
448 87.8431 75.2941 50.1961 53.9020 55.5540 29.0460
449 87.8431 87.8431 50.1961 61.6300 71.0099 31.6220
450 87.8431 100.0000 50.1961 70.6433 89.0365 34.6264
451 87.8431 0.0000 62.7451 37.6653 19.2015 35.5923
452 87.8431 12.5490 62.7451 38.1766 20.2242 35.7627
453 87.8431 25.0980 62.7451 39.4803 22.8316 36.1973
454 87.8431 37.6471 62.7451 41.8063 27.4836 36.9726
455 87.8431 50.1961 62.7451 45.3073 34.4855 38.1396
456 87.8431 62.7451 62.7451 50.1104 44.0917 39.7407
