assets/charts/pharmacist/rgb/colormunki/a3plus/tc918eg/tc918eg.ti2
CTI2   

DESCRIPTOR "Argyll Calibration Target chart information 2"
ORIGINATOR "Argyll printtarg"
CREATED "Tue Jun  9 10:25:16 2026"
TARGET_INSTRUMENT "X-Rite ColorMunki"
APPROX_WHITE_POINT "95.050000 100.000000 108.900000"
COLOR_REP "RGB"
PAPER_SIZE "495.0x329.0"
RANDOM_START "1"
STEPS_IN_PASS "23"
PASSES_IN_STRIPS2 "51"
STRIP_INDEX_PATTERN "A-Z, A-Z"
PATCH_INDEX_PATTERN "0-9,@-9,@-9;1-999"
INDEX_ORDER "STRIP_THEN_PATCH"

NUMBER_OF_FIELDS 8
BEGIN_DATA_FORMAT
SAMPLE_ID SAMPLE_LOC RGB_R RGB_G RGB_B XYZ_X XYZ_Y XYZ_Z 
END_DATA_FORMAT

NUMBER_OF_SETS 1173
BEGIN_DATA
1 "AX23" 0.00000 0.00000 0.00000 0.950500 1.000000 1.089000 
2 "AF12" 0.00000 12.54902 0.00000 1.461800 2.022700 1.259400 
3 "U4" 0.00000 25.09804 0.00000 2.765600 4.630100 1.694000 
4 "AV1" 0.00000 37.64706 0.00000 5.091500 9.282100 2.469300 
5 "X16" 0.00000 50.19608 0.00000 8.592500 16.28400 3.636300 
6 "Z19" 0.00000 62.74510 0.00000 13.39560 25.89020 5.237400 
7 "F1" 0.00000 75.29412 0.00000 19.61160 38.32230 7.309400 
8 "K2" 0.00000 87.84314 0.00000 27.33960 53.77820 9.885400 
9 "Q10" 0.00000 100.0000 0.00000 36.35290 71.80480 12.88980 
10 "AB15" 0.00000 0.00000 12.54902 1.208600 1.103200 2.448200 
11 "AJ7" 0.00000 12.54902 12.54902 1.720000 2.125900 2.618600 
12 "Q23" 0.00000 25.09804 12.54902 3.023700 4.733400 3.053200 
13 "U2" 0.00000 37.64706 12.54902 5.349600 9.385300 3.828500 
14 "K16" 0.00000 50.19608 12.54902 8.850600 16.38720 4.995500 
15 "T11" 0.00000 62.74510 12.54902 13.65370 25.99340 6.596500 
16 "AL9" 0.00000 75.29412 12.54902 19.86970 38.42550 8.668500 
17 "AK11" 0.00000 87.84314 12.54902 27.59770 53.88140 11.24450 
18 "AS5" 0.00000 100.0000 12.54902 36.61100 71.90800 14.24900 
19 "G18" 0.00000 0.00000 25.09804 1.866700 1.366500 5.913400 
20 "AF11" 0.00000 12.54902 25.09804 2.378000 2.389200 6.083900 
21 "I1" 0.00000 25.09804 25.09804 3.681700 4.996600 6.518500 
22 "O21" 0.00000 37.64706 25.09804 6.007700 9.648500 7.293800 
23 "H11" 0.00000 50.19608 25.09804 9.508600 16.65040 8.460800 
24 "AM21" 0.00000 62.74510 25.09804 14.31180 26.25670 10.06180 
25 "V19" 0.00000 75.29412 25.09804 20.52780 38.68870 12.13380 
26 "AE9" 0.00000 87.84314 25.09804 28.25580 54.14470 14.70980 
27 "AO16" 0.00000 100.0000 25.09804 37.26910 72.17130 17.71420 
28 "I19" 12.54902 0.00000 0.00000 1.540200 1.304000 1.116600 
29 "AV21" 12.54902 12.54902 0.00000 2.051600 2.326700 1.287000 
30 "P2" 12.54902 25.09804 0.00000 3.355300 4.934100 1.721600 
31 "AM11" 12.54902 37.64706 0.00000 5.681200 9.586100 2.496900 
32 "I15" 12.54902 50.19608 0.00000 9.182200 16.58800 3.663900 
33 "Z21" 12.54902 62.74510 0.00000 13.98530 26.19420 5.265000 
34 "I11" 12.54902 75.29412 0.00000 20.20130 38.62630 7.337000 
35 "Y15" 12.54902 87.84314 0.00000 27.92930 54.08220 9.913000 
36 "AG16" 12.54902 100.0000 0.00000 36.94260 72.10880 12.91740 
37 "AK4" 12.54902 0.00000 12.54902 1.798300 1.407200 2.475800 
38 "W1" 12.54902 12.54902 12.54902 2.309700 2.429900 2.646200 
39 "AW23" 12.54902 25.09804 12.54902 3.613400 5.037400 3.080800 
40 "C18" 12.54902 37.64706 12.54902 5.939400 9.689300 3.856100 
41 "R22" 12.54902 50.19608 12.54902 9.440300 16.69120 5.023100 
42 "AQ23" 12.54902 62.74510 12.54902 14.24340 26.29740 6.624100 
43 "AC15" 12.54902 75.29412 12.54902 20.45950 38.72950 8.696100 
44 "AI6" 12.54902 87.84314 12.54902 28.18740 54.18540 11.27210 
45 "AQ11" 12.54902 100.0000 12.54902 37.20070 72.21200 14.27660 
46 "AO6" 12.54902 0.00000 25.09804 2.456400 1.670500 5.941000 
47 "B23" 12.54902 12.54902 25.09804 2.967700 2.693200 6.111500 
48 "AL1" 12.54902 25.09804 25.09804 4.271400 5.300600 6.546000 
49 "AG23" 12.54902 37.64706 25.09804 6.597400 9.952600 7.321400 
50 "Q12" 12.54902 50.19608 25.09804 10.09830 16.95440 8.488400 
51 "AP21" 12.54902 62.74510 25.09804 14.90150 26.56070 10.08940 
52 "AC5" 12.54902 75.29412 25.09804 21.11750 38.99280 12.16140 
53 "Z23" 12.54902 87.84314 25.09804 28.84550 54.44870 14.73740 
54 "G6" 12.54902 100.0000 25.09804 37.85880 72.47530 17.74180 
55 "B19" 25.09804 0.00000 0.00000 3.043700 2.079100 1.187000 
56 "H14" 25.09804 12.54902 0.00000 3.555100 3.101800 1.357400 
57 "G13" 25.09804 25.09804 0.00000 4.858800 5.709200 1.792000 
58 "AB5" 25.09804 37.64706 0.00000 7.184800 10.36120 2.567300 
59 "J1" 25.09804 50.19608 0.00000 10.68570 17.36300 3.734300 
60 "A3" 25.09804 62.74510 0.00000 15.48880 26.96930 5.335300 
61 "AT13" 25.09804 75.29412 0.00000 21.70480 39.40140 7.407300 
62 "AE7" 25.09804 87.84314 0.00000 29.43280 54.85730 9.983300 
63 "AC3" 25.09804 100.0000 0.00000 38.44610 72.88390 12.98780 
64 "M21" 25.09804 0.00000 12.54902 3.301800 2.182300 2.546100 
65 "X1" 25.09804 12.54902 12.54902 3.813200 3.205000 2.716600 
66 "W5" 25.09804 25.09804 12.54902 5.116900 5.812500 3.151100 
67 "AE13" 25.09804 37.64706 12.54902 7.442900 10.46440 3.926500 
68 "R9" 25.09804 50.19608 12.54902 10.94380 17.46630 5.093400 
69 "AJ22" 25.09804 62.74510 12.54902 15.74690 27.07250 6.694500 
70 "O17" 25.09804 75.29412 12.54902 21.96300 39.50460 8.766500 
71 "AB16" 25.09804 87.84314 12.54902 29.69090 54.96050 11.34250 
72 "A7" 25.09804 100.0000 12.54902 38.70420 72.98710 14.34690 
73 "A2" 25.09804 0.00000 25.09804 3.959900 2.445600 6.011400 
74 "AW19" 25.09804 12.54902 25.09804 4.471200 3.468200 6.181800 
75 "AP1" 25.09804 25.09804 25.09804 5.774900 6.075700 6.616400 
76 "G7" 25.09804 37.64706 25.09804 8.100900 10.72760 7.391700 
77 "O23" 25.09804 50.19608 25.09804 11.60180 17.72950 8.558700 
78 "AS3" 25.09804 62.74510 25.09804 16.40500 27.33570 10.15980 
79 "AD15" 25.09804 75.29412 25.09804 22.62100 39.76780 12.23180 
80 "AV8" 25.09804 87.84314 25.09804 30.34900 55.22370 14.80780 
81 "X4" 25.09804 100.0000 25.09804 39.36230 73.25040 17.81220 
82 "Z18" 37.64706 0.00000 0.00000 5.726100 3.461900 1.312500 
83 "S23" 37.64706 12.54902 0.00000 6.237500 4.484600 1.482900 
84 "S10" 37.64706 25.09804 0.00000 7.541200 7.092100 1.917500 
85 "V23" 37.64706 37.64706 0.00000 9.867200 11.74400 2.692800 
86 "AO13" 37.64706 50.19608 0.00000 13.36810 18.74590 3.859800 
87 "AG1" 37.64706 62.74510 0.00000 18.17120 28.35210 5.460900 
88 "AG18" 37.64706 75.29412 0.00000 24.38730 40.78420 7.532900 
89 "A18" 37.64706 87.84314 0.00000 32.11520 56.24010 10.10890 
90 "F17" 37.64706 100.0000 0.00000 41.12850 74.26670 13.11330 
91 "X17" 37.64706 0.00000 12.54902 5.984200 3.565200 2.671700 
92 "AW21" 37.64706 12.54902 12.54902 6.495600 4.587900 2.842100 
93 "Q14" 37.64706 25.09804 12.54902 7.799300 7.195300 3.276700 
94 "B1" 37.64706 37.64706 12.54902 10.12530 11.84730 4.052000 
95 "C16" 37.64706 50.19608 12.54902 13.62620 18.84910 5.219000 
96 "P13" 37.64706 62.74510 12.54902 18.42930 28.45540 6.820000 
97 "AJ19" 37.64706 75.29412 12.54902 24.64540 40.88750 8.892000 
98 "D5" 37.64706 87.84314 12.54902 32.37330 56.34340 11.46800 
99 "AG7" 37.64706 100.0000 12.54902 41.38660 74.37000 14.47250 
100 "AC20" 37.64706 0.00000 25.09804 6.642300 3.828400 6.136900 
101 "G14" 37.64706 12.54902 25.09804 7.153600 4.851100 6.307400 
102 "AX16" 37.64706 25.09804 25.09804 8.457400 7.458500 6.741900 
103 "AG21" 37.64706 37.64706 25.09804 10.78330 12.11050 7.517300 
104 "AS20" 37.64706 50.19608 25.09804 14.28430 19.11240 8.684300 
105 "AB2" 37.64706 62.74510 25.09804 19.08740 28.71860 10.28530 
106 "AD19" 37.64706 75.29412 25.09804 25.30340 41.15070 12.35730 
107 "L6" 37.64706 87.84314 25.09804 33.03140 56.60660 14.93330 
108 "G20" 37.64706 100.0000 25.09804 42.04470 74.63320 17.93770 
109 "W6" 50.19608 0.00000 0.00000 9.763600 5.543300 1.501400 
110 "M10" 50.19608 12.54902 0.00000 10.27490 6.566000 1.671900 
111 "AT1" 50.19608 25.09804 0.00000 11.57860 9.173400 2.106500 
112 "AX1" 50.19608 37.64706 0.00000 13.90460 13.82540 2.881800 
113 "AU14" 50.19608 50.19608 0.00000 17.40550 20.82730 4.048800 
114 "E13" 50.19608 62.74510 0.00000 22.20870 30.43350 5.649800 
115 "AJ12" 50.19608 75.29412 0.00000 28.42470 42.86560 7.721800 
116 "AD22" 50.19608 87.84314 0.00000 36.15270 58.32150 10.29780 
117 "AI7" 50.19608 100.0000 0.00000 45.16600 76.34810 13.30220 
118 "B14" 50.19608 0.00000 12.54902 10.02170 5.646500 2.860600 
119 "I2" 50.19608 12.54902 12.54902 10.53300 6.669200 3.031100 
120 "AQ1" 50.19608 25.09804 12.54902 11.83670 9.276700 3.465600 
121 "AF14" 50.19608 37.64706 12.54902 14.16270 13.92860 4.241000 
122 "R17" 50.19608 50.19608 12.54902 17.66370 20.93050 5.407900 
123 "AW10" 50.19608 62.74510 12.54902 22.46680 30.53670 7.009000 
124 "AV7" 50.19608 75.29412 12.54902 28.68280 42.96880 9.081000 
125 "P22" 50.19608 87.84314 12.54902 36.41080 58.42470 11.65700 
126 "X19" 50.19608 100.0000 12.54902 45.42410 76.45130 14.66140 
127 "F12" 50.19608 0.00000 25.09804 10.67970 5.909800 6.325900 
128 "U5" 50.19608 12.54902 25.09804 11.19110 6.932500 6.496300 
129 "O20" 50.19608 25.09804 25.09804 12.49480 9.539900 6.930900 
130 "Z10" 50.19608 37.64706 25.09804 14.82080 14.19190 7.706200 
131 "AF9" 50.19608 50.19608 25.09804 18.32170 21.19370 8.873200 
132 "V14" 50.19608 62.74510 25.09804 23.12480 30.80000 10.47420 
133 "G2" 50.19608 75.29412 25.09804 29.34090 43.23200 12.54630 
134 "AQ7" 50.19608 87.84314 25.09804 37.06880 58.68800 15.12220 
135 "E5" 50.19608 100.0000 25.09804 46.08210 76.71460 18.12670 
136 "AL7" 62.74510 0.00000 0.00000 15.30270 8.398800 1.760700 
137 "AD13" 62.74510 12.54902 0.00000 15.81410 9.421500 1.931100 
138 "T4" 62.74510 25.09804 0.00000 17.11780 12.02900 2.365700 
139 "G15" 62.74510 37.64706 0.00000 19.44380 16.68090 3.141000 
140 "G21" 62.74510 50.19608 0.00000 22.94470 23.68280 4.308000 
141 "AS7" 62.74510 62.74510 0.00000 27.74780 33.28900 5.909000 
142 "AP11" 62.74510 75.29412 0.00000 33.96390 45.72110 7.981100 
143 "T7" 62.74510 87.84314 0.00000 41.69180 61.17700 10.55700 
144 "Z7" 62.74510 100.0000 0.00000 50.70510 79.20360 13.56150 
145 "N8" 62.74510 0.00000 12.54902 15.56080 8.502100 3.119800 
146 "AU16" 62.74510 12.54902 12.54902 16.07220 9.524800 3.290300 
147 "X9" 62.74510 25.09804 12.54902 17.37590 12.13220 3.724900 
148 "AY22" 62.74510 37.64706 12.54902 19.70190 16.78420 4.500200 
149 "AI17" 62.74510 50.19608 12.54902 23.20280 23.78600 5.667200 
150 "AH11" 62.74510 62.74510 12.54902 28.00590 33.39230 7.268200 
151 "S5" 62.74510 75.29412 12.54902 34.22200 45.82440 9.340200 
152 "AC17" 62.74510 87.84314 12.54902 41.94990 61.28030 11.91620 
153 "J15" 62.74510 100.0000 12.54902 50.96320 79.30690 14.92060 
154 "I18" 62.74510 0.00000 25.09804 16.21890 8.765300 6.585100 
155 "P7" 62.74510 12.54902 25.09804 16.73020 9.788000 6.755600 
156 "AB6" 62.74510 25.09804 25.09804 18.03400 12.39540 7.190100 
157 "AJ14" 62.74510 37.64706 25.09804 20.35990 17.04740 7.965500 
158 "AE18" 62.74510 50.19608 25.09804 23.86090 24.04930 9.132400 
159 "L12" 62.74510 62.74510 25.09804 28.66400 33.65550 10.73350 
160 "AT23" 62.74510 75.29412 25.09804 34.88000 46.08760 12.80550 
161 "N2" 62.74510 87.84314 25.09804 42.60800 61.54350 15.38150 
162 "N10" 62.74510 100.0000 25.09804 51.62130 79.57010 18.38590 
163 "O22" 75.29412 0.00000 0.00000 22.47130 12.09440 2.096200 
164 "Y13" 75.29412 12.54902 0.00000 22.98270 13.11710 2.266600 
165 "AL19" 75.29412 25.09804 0.00000 24.28640 15.72450 2.701200 
166 "AB23" 75.29412 37.64706 0.00000 26.61240 20.37650 3.476500 
167 "AY1" 75.29412 50.19608 0.00000 30.11330 27.37840 4.643500 
168 "A9" 75.29412 62.74510 0.00000 34.91640 36.98460 6.244500 
169 "O8" 75.29412 75.29412 0.00000 41.13250 49.41670 8.316500 
170 "Z9" 75.29412 87.84314 0.00000 48.86040 64.87260 10.89250 
171 "M8" 75.29412 100.0000 0.00000 57.87370 82.89920 13.89700 
172 "AO3" 75.29412 0.00000 12.54902 22.72940 12.19760 3.455300 
173 "AN12" 75.29412 12.54902 12.54902 23.24080 13.22030 3.625800 
174 "AT15" 75.29412 25.09804 12.54902 24.54450 15.82780 4.060300 
175 "AO8" 75.29412 37.64706 12.54902 26.87050 20.47970 4.835700 
176 "E8" 75.29412 50.19608 12.54902 30.37140 27.48160 6.002600 
177 "AQ4" 75.29412 62.74510 12.54902 35.17450 37.08780 7.603700 
178 "F15" 75.29412 75.29412 12.54902 41.39060 49.51990 9.675700 
179 "AX12" 75.29412 87.84314 12.54902 49.11850 64.97580 12.25170 
180 "U11" 75.29412 100.0000 12.54902 58.13180 83.00240 15.25610 
181 "AW16" 75.29412 0.00000 25.09804 23.38750 12.46090 6.920600 
182 "AY13" 75.29412 12.54902 25.09804 23.89890 13.48360 7.091000 
183 "AR12" 75.29412 25.09804 25.09804 25.20260 16.09100 7.525600 
184 "AR4" 75.29412 37.64706 25.09804 27.52850 20.74300 8.300900 
185 "L3" 75.29412 50.19608 25.09804 31.02950 27.74480 9.467900 
186 "O5" 75.29412 62.74510 25.09804 35.83260 37.35110 11.06900 
187 "D1" 75.29412 75.29412 25.09804 42.04860 49.78310 13.14100 
188 "AE4" 75.29412 87.84314 25.09804 49.77660 65.23910 15.71700 
189 "AX10" 75.29412 100.0000 25.09804 58.78990 83.26570 18.72140 
190 "N7" 87.84314 0.00000 0.00000 31.38360 16.68880 2.513200 
191 "U15" 87.84314 12.54902 0.00000 31.89490 17.71150 2.683700 
192 "L13" 87.84314 25.09804 0.00000 33.19860 20.31890 3.118300 
193 "M15" 87.84314 37.64706 0.00000 35.52460 24.97090 3.893600 
194 "AI21" 87.84314 50.19608 0.00000 39.02550 31.97280 5.060600 
195 "U9" 87.84314 62.74510 0.00000 43.82870 41.57900 6.661600 
196 "AK1" 87.84314 75.29412 0.00000 50.04470 54.01110 8.733600 
197 "AV10" 87.84314 87.84314 0.00000 57.77270 69.46700 11.30960 
198 "AE2" 87.84314 100.0000 0.00000 66.78600 87.49360 14.31400 
199 "L10" 87.84314 0.00000 12.54902 31.64170 16.79210 3.872400 
200 "AC19" 87.84314 12.54902 12.54902 32.15300 17.81480 4.042900 
201 "AD10" 87.84314 25.09804 12.54902 33.45670 20.42220 4.477400 
202 "AO18" 87.84314 37.64706 12.54902 35.78270 25.07410 5.252700 
203 "N4" 87.84314 50.19608 12.54902 39.28360 32.07600 6.419700 
204 "AR19" 87.84314 62.74510 12.54902 44.08680 41.68230 8.020800 
205 "N23" 87.84314 75.29412 12.54902 50.30280 54.11430 10.09280 
206 "AA5" 87.84314 87.84314 12.54902 58.03080 69.57030 12.66880 
207 "AF21" 87.84314 100.0000 12.54902 67.04410 87.59690 15.67320 
208 "Y23" 87.84314 0.00000 25.09804 32.29970 17.05530 7.337700 
209 "B12" 87.84314 12.54902 25.09804 32.81110 18.07800 7.508100 
210 "W4" 87.84314 25.09804 25.09804 34.11480 20.68540 7.942700 
211 "T16" 87.84314 37.64706 25.09804 36.44080 25.33740 8.718000 
212 "AT19" 87.84314 50.19608 25.09804 39.94170 32.33920 9.885000 
213 "O1" 87.84314 62.74510 25.09804 44.74480 41.94550 11.48600 
214 "Q2" 87.84314 75.29412 25.09804 50.96090 54.37760 13.55810 
215 "H21" 87.84314 87.84314 25.09804 58.68880 69.83350 16.13400 
216 "X2" 87.84314 100.0000 25.09804 67.70210 87.86010 19.13850 
217 "AX5" 100.0000 0.00000 0.00000 41.77810 22.04740 2.999700 
218 "AU19" 100.0000 12.54902 0.00000 42.28940 23.07010 3.170100 
219 "AS12" 100.0000 25.09804 0.00000 43.59320 25.67750 3.604700 
220 "AG3" 100.0000 37.64706 0.00000 45.91910 30.32950 4.380000 
221 "AC10" 100.0000 50.19608 0.00000 49.42010 37.33140 5.547000 
222 "AR9" 100.0000 62.74510 0.00000 54.22320 46.93760 7.148100 
223 "AL17" 100.0000 75.29412 0.00000 60.43920 59.36970 9.220100 
224 "AG5" 100.0000 87.84314 0.00000 68.16720 74.82560 11.79610 
225 "AH4" 100.0000 100.0000 0.00000 77.18050 92.85220 14.80050 
226 "Y9" 100.0000 0.00000 12.54902 42.03620 22.15060 4.358900 
227 "T14" 100.0000 12.54902 12.54902 42.54760 23.17330 4.529300 
228 "R6" 100.0000 25.09804 12.54902 43.85130 25.78080 4.963900 
229 "R4" 100.0000 37.64706 12.54902 46.17720 30.43270 5.739200 
230 "Y19" 100.0000 50.19608 12.54902 49.67820 37.43460 6.906200 
231 "AN10" 100.0000 62.74510 12.54902 54.48130 47.04080 8.507200 
232 "AU23" 100.0000 75.29412 12.54902 60.69730 59.47290 10.57920 
233 "U17" 100.0000 87.84314 12.54902 68.42530 74.92880 13.15520 
234 "AO9" 100.0000 100.0000 12.54902 77.43860 92.95540 16.15970 
235 "U23" 100.0000 0.00000 25.09804 42.69430 22.41390 7.824100 
236 "AB22" 100.0000 12.54902 25.09804 43.20560 23.43660 7.994600 
237 "H23" 100.0000 25.09804 25.09804 44.50930 26.04400 8.429200 
238 "K8" 100.0000 37.64706 25.09804 46.83530 30.69590 9.204500 
239 "M17" 100.0000 50.19608 25.09804 50.33620 37.69780 10.37150 
240 "N15" 100.0000 62.74510 25.09804 55.13940 47.30410 11.97250 
241 "AR7" 100.0000 75.29412 25.09804 61.35540 59.73610 14.04450 
242 "AL21" 100.0000 87.84314 25.09804 69.08340 75.19210 16.62050 
243 "AI9" 100.0000 100.0000 25.09804 78.09670 93.21870 19.62490 
244 "H2" 0.00000 0.00000 37.64706 3.040700 1.836100 12.09590 
245 "AH5" 0.00000 12.54902 37.64706 3.552100 2.858800 12.26630 
246 "AH1" 0.00000 25.09804 37.64706 4.855800 5.466200 12.70090 
247 "L1" 0.00000 37.64706 37.64706 7.181700 10.11820 13.47620 
248 "G16" 0.00000 50.19608 37.64706 10.68270 17.12000 14.64320 
249 "AF23" 0.00000 62.74510 37.64706 15.48580 26.72630 16.24420 
250 "AA18" 0.00000 75.29412 37.64706 21.70180 39.15840 18.31630 
251 "AP10" 0.00000 87.84314 37.64706 29.42980 54.61430 20.89220 
252 "AE21" 0.00000 100.0000 37.64706 38.44310 72.64090 23.89670 
253 "B20" 0.00000 0.00000 50.19608 4.807800 2.542900 21.40140 
254 "F13" 0.00000 12.54902 50.19608 5.319200 3.565600 21.57180 
255 "J22" 0.00000 25.09804 50.19608 6.622900 6.173100 22.00640 
256 "N1" 0.00000 37.64706 50.19608 8.948900 10.82500 22.78170 
257 "F11" 0.00000 50.19608 50.19608 12.44980 17.82690 23.94870 
258 "AT4" 0.00000 62.74510 50.19608 17.25290 27.43310 25.54970 
259 "AX7" 0.00000 75.29412 50.19608 23.46900 39.86520 27.62170 
260 "V20" 0.00000 87.84314 50.19608 31.19690 55.32110 30.19770 
261 "R1" 0.00000 100.0000 50.19608 40.21020 73.34770 33.20220 
262 "AY21" 0.00000 0.00000 62.74510 7.232200 3.512700 34.16800 
263 "J17" 0.00000 12.54902 62.74510 7.743600 4.535400 34.33850 
264 "AU13" 0.00000 25.09804 62.74510 9.047300 7.142800 34.77310 
265 "P16" 0.00000 37.64706 62.74510 11.37330 11.79480 35.54840 
266 "J14" 0.00000 50.19608 62.74510 14.87420 18.79660 36.71540 
267 "AD21" 0.00000 62.74510 62.74510 19.67730 28.40290 38.31640 
268 "AE10" 0.00000 75.29412 62.74510 25.89340 40.83500 40.38840 
269 "AI15" 0.00000 87.84314 62.74510 33.62130 56.29090 42.96440 
270 "A20" 0.00000 100.0000 62.74510 42.63460 74.31750 45.96880 
271 "W2" 12.54902 0.00000 37.64706 3.630400 2.140100 12.12350 
272 "AH7" 12.54902 12.54902 37.64706 4.141800 3.162800 12.29390 
273 "AR1" 12.54902 25.09804 37.64706 5.445500 5.770200 12.72850 
274 "W3" 12.54902 37.64706 37.64706 7.771500 10.42220 13.50380 
275 "AC9" 12.54902 50.19608 37.64706 11.27240 17.42400 14.67080 
276 "Z16" 12.54902 62.74510 37.64706 16.07550 27.03030 16.27180 
277 "L23" 12.54902 75.29412 37.64706 22.29160 39.46240 18.34390 
278 "H16" 12.54902 87.84314 37.64706 30.01950 54.91830 20.91980 
279 "V22" 12.54902 100.0000 37.64706 39.03280 72.94490 23.92430 
280 "G23" 12.54902 0.00000 50.19608 5.397500 2.846900 21.42900 
281 "AE12" 12.54902 12.54902 50.19608 5.908900 3.869600 21.59940 
282 "AU4" 12.54902 25.09804 50.19608 7.212600 6.477100 22.03400 
283 "AJ23" 12.54902 37.64706 50.19608 9.538600 11.12900 22.80930 
284 "AP12" 12.54902 50.19608 50.19608 13.03950 18.13090 23.97630 
285 "E6" 12.54902 62.74510 50.19608 17.84260 27.73710 25.57730 
286 "AP4" 12.54902 75.29412 50.19608 24.05870 40.16920 27.64930 
287 "S9" 12.54902 87.84314 50.19608 31.78660 55.62510 30.22530 
288 "W23" 12.54902 100.0000 50.19608 40.79990 73.65170 33.22980 
289 "AC7" 12.54902 0.00000 62.74510 7.821900 3.816700 34.19560 
290 "AW1" 12.54902 12.54902 62.74510 8.333300 4.839400 34.36610 
291 "B2" 12.54902 25.09804 62.74510 9.637000 7.446800 34.80070 
292 "Q15" 12.54902 37.64706 62.74510 11.96300 12.09880 35.57600 
293 "T10" 12.54902 50.19608 62.74510 15.46390 19.10060 36.74300 
294 "W9" 12.54902 62.74510 62.74510 20.26700 28.70690 38.34400 
295 "B6" 12.54902 75.29412 62.74510 26.48310 41.13900 40.41600 
296 "AE6" 12.54902 87.84314 62.74510 34.21100 56.59490 42.99200 
297 "G8" 12.54902 100.0000 62.74510 43.22430 74.62150 45.99640 
298 "K14" 25.09804 0.00000 37.64706 5.133900 2.915200 12.19380 
299 "S11" 25.09804 12.54902 37.64706 5.645300 3.937900 12.36430 
300 "U3" 25.09804 25.09804 37.64706 6.949000 6.545300 12.79890 
301 "M16" 25.09804 37.64706 37.64706 9.275000 11.19730 13.57420 
302 "AU7" 25.09804 50.19608 37.64706 12.77590 18.19910 14.74120 
303 "L21" 25.09804 62.74510 37.64706 17.57900 27.80540 16.34220 
304 "X7" 25.09804 75.29412 37.64706 23.79510 40.23750 18.41420 
305 "K6" 25.09804 87.84314 37.64706 31.52300 55.69340 20.99020 
306 "AN14" 25.09804 100.0000 37.64706 40.53630 73.72000 23.99460 
307 "F10" 25.09804 0.00000 50.19608 6.901000 3.622000 21.49930 
308 "O9" 25.09804 12.54902 50.19608 7.412400 4.644700 21.66980 
309 "AW22" 25.09804 25.09804 50.19608 8.716100 7.252100 22.10430 
310 "AD7" 25.09804 37.64706 50.19608 11.04210 11.90410 22.87970 
311 "AN5" 25.09804 50.19608 50.19608 14.54300 18.90600 24.04670 
312 "AS9" 25.09804 62.74510 50.19608 19.34610 28.51220 25.64770 
313 "C2" 25.09804 75.29412 50.19608 25.56220 40.94430 27.71970 
314 "K12" 25.09804 87.84314 50.19608 33.29010 56.40020 30.29570 
315 "W21" 25.09804 100.0000 50.19608 42.30340 74.42680 33.30010 
316 "AO11" 25.09804 0.00000 62.74510 9.325400 4.591800 34.26600 
317 "AU6" 25.09804 12.54902 62.74510 9.836800 5.614500 34.43650 
318 "M1" 25.09804 25.09804 62.74510 11.14050 8.221900 34.87100 
319 "Q22" 25.09804 37.64706 62.74510 13.46650 12.87390 35.64630 
320 "N3" 25.09804 50.19608 62.74510 16.96740 19.87570 36.81330 
321 "F21" 25.09804 62.74510 62.74510 21.77050 29.48200 38.41440 
322 "I6" 25.09804 75.29412 62.74510 27.98660 41.91410 40.48640 
323 "AJ8" 25.09804 87.84314 62.74510 35.71450 57.37000 43.06240 
324 "AN8" 25.09804 100.0000 62.74510 44.72780 75.39660 46.06680 
325 "AP13" 37.64706 0.00000 37.64706 7.816300 4.298000 12.31940 
326 "I23" 37.64706 12.54902 37.64706 8.327700 5.320700 12.48980 
327 "S19" 37.64706 25.09804 37.64706 9.631400 7.928100 12.92440 
328 "AP7" 37.64706 37.64706 37.64706 11.95740 12.58010 13.69970 
329 "AK13" 37.64706 50.19608 37.64706 15.45830 19.58200 14.86670 
330 "AO5" 37.64706 62.74510 37.64706 20.26140 29.18820 16.46770 
331 "AB10" 37.64706 75.29412 37.64706 26.47750 41.62030 18.53980 
332 "AB18" 37.64706 87.84314 37.64706 34.20540 57.07620 21.11570 
333 "AF4" 37.64706 100.0000 37.64706 43.21870 75.10280 24.12020 
334 "AK14" 37.64706 0.00000 50.19608 9.583500 5.004900 21.62490 
335 "AR21" 37.64706 12.54902 50.19608 10.09480 6.027500 21.79530 
336 "AM23" 37.64706 25.09804 50.19608 11.39850 8.635000 22.22990 
337 "C21" 37.64706 37.64706 50.19608 13.72450 13.28690 23.00520 
338 "AS11" 37.64706 50.19608 50.19608 17.22540 20.28880 24.17220 
339 "H5" 37.64706 62.74510 50.19608 22.02850 29.89510 25.77320 
340 "S22" 37.64706 75.29412 50.19608 28.24460 42.32710 27.84520 
341 "W15" 37.64706 87.84314 50.19608 35.97250 57.78310 30.42120 
342 "C6" 37.64706 100.0000 50.19608 44.98590 75.80970 33.42570 
343 "AT10" 37.64706 0.00000 62.74510 12.00780 5.974600 34.39150 
344 "Q7" 37.64706 12.54902 62.74510 12.51920 6.997300 34.56200 
345 "AO1" 37.64706 25.09804 62.74510 13.82290 9.604700 34.99660 
346 "A23" 37.64706 37.64706 62.74510 16.14890 14.25670 35.77190 
347 "AA4" 37.64706 50.19608 62.74510 19.64980 21.25860 36.93890 
348 "Z3" 37.64706 62.74510 62.74510 24.45290 30.86480 38.53990 
349 "AY16" 37.64706 75.29412 62.74510 30.66900 43.29690 40.61190 
350 "AK18" 37.64706 87.84314 62.74510 38.39690 58.75280 43.18790 
351 "N12" 37.64706 100.0000 62.74510 47.41020 76.77940 46.19230 
352 "AM14" 50.19608 0.00000 37.64706 11.85380 6.379400 12.50830 
353 "AB3" 50.19608 12.54902 37.64706 12.36510 7.402100 12.67880 
354 "Q1" 50.19608 25.09804 37.64706 13.66880 10.00950 13.11330 
355 "AE5" 50.19608 37.64706 37.64706 15.99480 14.66150 13.88870 
356 "T20" 50.19608 50.19608 37.64706 19.49580 21.66330 15.05570 
357 "AS18" 50.19608 62.74510 37.64706 24.29890 31.26960 16.65670 
358 "R11" 50.19608 75.29412 37.64706 30.51490 43.70170 18.72870 
359 "AJ10" 50.19608 87.84314 37.64706 38.24290 59.15760 21.30470 
360 "AV12" 50.19608 100.0000 37.64706 47.25620 77.18420 24.30910 
361 "I9" 50.19608 0.00000 50.19608 13.62090 7.086200 21.81380 
362 "AT17" 50.19608 12.54902 50.19608 14.13220 8.108900 21.98430 
363 "S1" 50.19608 25.09804 50.19608 15.43590 10.71640 22.41880 
364 "E14" 50.19608 37.64706 50.19608 17.76190 15.36830 23.19420 
