assets/charts/knut/rgb/fulllayout/fls_i1pro_a4_495p_1page_landscape/chart.ti1
CTI1   

DESCRIPTOR "Argyll Calibration Target chart information 1"
ORIGINATOR "ChromIQ"
APPROX_WHITE_POINT "95.050000 100.000000 108.900000"
COLOR_REP "iRGB"
WHITE_COLOR_PATCHES "2"
BLACK_COLOR_PATCHES "2"
CREATED "Mon Jun 22 00:07:44 2026"

NUMBER_OF_FIELDS 7
BEGIN_DATA_FORMAT
SAMPLE_ID RGB_R RGB_G RGB_B XYZ_X XYZ_Y XYZ_Z
END_DATA_FORMAT

NUMBER_OF_SETS 495
BEGIN_DATA
1 0.0000 0.0000 0.0000 0.9505 1.0000 1.0890
2 0.0000 0.0000 16.6667 1.3732 1.1691 3.3147
3 0.0000 0.0000 33.3333 2.5738 1.6493 9.6372
4 0.0000 0.0000 50.0000 4.7753 2.5299 21.2302
5 0.0000 0.0000 66.6667 8.1336 3.8733 38.9149
6 0.0000 0.0000 83.3333 12.7779 5.7310 63.3712
7 0.0000 0.0000 100.0000 18.8200 8.1478 95.1885
8 0.0000 16.6667 0.0000 1.7879 2.6747 1.3681
9 0.0000 16.6667 16.6667 2.2105 2.8438 3.5938
10 0.0000 16.6667 33.3333 3.4111 3.3240 9.9163
11 0.0000 16.6667 50.0000 5.6127 4.2046 21.5093
12 0.0000 16.6667 66.6667 8.9710 5.5480 39.1940
13 0.0000 16.6667 83.3333 13.6152 7.4057 63.6503
14 0.0000 16.6667 100.0000 19.6574 9.8225 95.4676
15 0.0000 33.3333 0.0000 4.1665 7.4320 2.1610
16 0.0000 33.3333 16.6667 4.5892 7.6011 4.3867
17 0.0000 33.3333 33.3333 5.7898 8.0813 10.7092
18 0.0000 33.3333 50.0000 7.9913 8.9620 22.3022
19 0.0000 33.3333 66.6667 11.3497 10.3053 39.9869
20 0.0000 33.3333 83.3333 15.9939 12.1630 64.4432
21 0.0000 33.3333 100.0000 22.0360 14.5798 96.2605
22 0.0000 50.0000 0.0000 8.5281 16.1551 3.6149
23 0.0000 50.0000 16.6667 8.9507 16.3242 5.8405
24 0.0000 50.0000 33.3333 10.1514 16.8045 12.1630
25 0.0000 50.0000 50.0000 12.3529 17.6851 23.7560
26 0.0000 50.0000 66.6667 15.7112 19.0284 41.4408
27 0.0000 50.0000 83.3333 20.3555 20.8861 65.8970
28 0.0000 50.0000 100.0000 26.3976 23.3029 97.7144
29 0.0000 66.6667 0.0000 15.1815 29.4620 5.8327
30 0.0000 66.6667 16.6667 15.6041 29.6310 8.0583
31 0.0000 66.6667 33.3333 16.8048 30.1113 14.3808
32 0.0000 66.6667 50.0000 19.0063 30.9919 25.9738
33 0.0000 66.6667 66.6667 22.3646 32.3352 43.6586
34 0.0000 66.6667 83.3333 27.0089 34.1929 68.1148
35 0.0000 66.6667 100.0000 33.0510 36.6098 99.9322
36 0.0000 83.3333 0.0000 24.3825 47.8640 8.8997
37 0.0000 83.3333 16.6667 24.8051 48.0330 11.1253
38 0.0000 83.3333 33.3333 26.0058 48.5133 17.4478
39 0.0000 83.3333 50.0000 28.2073 49.3939 29.0408
40 0.0000 83.3333 66.6667 31.5656 50.7372 46.7256
41 0.0000 83.3333 83.3333 36.2099 52.5949 71.1818
42 0.0000 83.3333 100.0000 42.2520 55.0118 102.9992
43 0.0000 100.0000 0.0000 36.3529 71.8048 12.8898
44 0.0000 100.0000 16.6667 36.7756 71.9739 15.1155
45 0.0000 100.0000 33.3333 37.9762 72.4541 21.4380
46 0.0000 100.0000 50.0000 40.1777 73.3347 33.0310
47 0.0000 100.0000 66.6667 43.5360 74.6781 50.7157
48 0.0000 100.0000 83.3333 48.1803 76.5358 75.1720
49 0.0000 100.0000 100.0000 54.2224 78.9526 106.9893
50 16.6667 0.0000 0.0000 1.9162 1.4978 1.1342
51 16.6667 0.0000 16.6667 2.3388 1.6669 3.3599
52 16.6667 0.0000 33.3333 3.5395 2.1471 9.6824
53 16.6667 0.0000 50.0000 5.7410 3.0277 21.2754
54 16.6667 0.0000 66.6667 9.0993 4.3711 38.9601
55 16.6667 0.0000 83.3333 13.7436 6.2288 63.4164
56 16.6667 0.0000 100.0000 19.7857 8.6456 95.2337
57 16.6667 16.6667 0.0000 2.7535 3.1725 1.4133
58 16.6667 16.6667 16.6667 3.1762 3.3416 3.6390
59 16.6667 16.6667 33.3333 4.3768 3.8218 9.9615
60 16.6667 16.6667 50.0000 6.5783 4.7024 21.5545
61 16.6667 16.6667 66.6667 9.9367 6.0458 39.2392
62 16.6667 16.6667 83.3333 14.5809 7.9035 63.6955
63 16.6667 16.6667 100.0000 20.6230 10.3203 95.5128
64 16.6667 33.3333 0.0000 5.1322 7.9299 2.2062
65 16.6667 33.3333 16.6667 5.5548 8.0989 4.4319
66 16.6667 33.3333 33.3333 6.7555 8.5792 10.7544
67 16.6667 33.3333 50.0000 8.9570 9.4598 22.3474
68 16.6667 33.3333 66.6667 12.3153 10.8031 40.0321
69 16.6667 33.3333 83.3333 16.9596 12.6608 64.4884
70 16.6667 33.3333 100.0000 23.0017 15.0777 96.3057
71 16.6667 50.0000 0.0000 9.4937 16.6530 3.6600
72 16.6667 50.0000 16.6667 9.9164 16.8220 5.8857
73 16.6667 50.0000 33.3333 11.1170 17.3023 12.2082
74 16.6667 50.0000 50.0000 13.3185 18.1829 23.8012
75 16.6667 50.0000 66.6667 16.6769 19.5262 41.4860
76 16.6667 50.0000 83.3333 21.3211 21.3839 65.9422
77 16.6667 50.0000 100.0000 27.3632 23.8008 97.7595
78 16.6667 66.6667 0.0000 16.1471 29.9598 5.8779
79 16.6667 66.6667 16.6667 16.5698 30.1288 8.1035
80 16.6667 66.6667 33.3333 17.7704 30.6091 14.4260
81 16.6667 66.6667 50.0000 19.9720 31.4897 26.0190
82 16.6667 66.6667 66.6667 23.3303 32.8330 43.7038
83 16.6667 66.6667 83.3333 27.9745 34.6907 68.1600
84 16.6667 66.6667 100.0000 34.0166 37.1076 99.9774
85 16.6667 83.3333 0.0000 25.3482 48.3618 8.9449
86 16.6667 83.3333 16.6667 25.7708 48.5309 11.1705
87 16.6667 83.3333 33.3333 26.9715 49.0111 17.4930
88 16.6667 83.3333 50.0000 29.1730 49.8917 29.0860
89 16.6667 83.3333 66.6667 32.5313 51.2351 46.7708
90 16.6667 83.3333 83.3333 37.1755 53.0927 71.2270
91 16.6667 83.3333 100.0000 43.2177 55.5096 103.0444
92 16.6667 100.0000 0.0000 37.3186 72.3026 12.9350
93 16.6667 100.0000 16.6667 37.7412 72.4717 15.1607
94 16.6667 100.0000 33.3333 38.9419 72.9519 21.4832
95 16.6667 100.0000 50.0000 41.1434 73.8325 33.0762
96 16.6667 100.0000 66.6667 44.5017 75.1759 50.7609
97 16.6667 100.0000 83.3333 49.1460 77.0336 75.2172
98 16.6667 100.0000 100.0000 55.1881 79.4504 107.0345
99 33.3333 0.0000 0.0000 4.6593 2.9120 1.2626
100 33.3333 0.0000 16.6667 5.0820 3.0810 3.4882
101 33.3333 0.0000 33.3333 6.2826 3.5613 9.8107
102 33.3333 0.0000 50.0000 8.4842 4.4419 21.4037
103 33.3333 0.0000 66.6667 11.8425 5.7852 39.0885
104 33.3333 0.0000 83.3333 16.4867 7.6429 63.5447
105 33.3333 0.0000 100.0000 22.5288 10.0598 95.3621
106 33.3333 16.6667 0.0000 5.4967 4.5867 1.5417
107 33.3333 16.6667 16.6667 5.9194 4.7557 3.7674
108 33.3333 16.6667 33.3333 7.1200 5.2360 10.0898
109 33.3333 16.6667 50.0000 9.3215 6.1166 21.6829
110 33.3333 16.6667 66.6667 12.6798 7.4599 39.3676
111 33.3333 16.6667 83.3333 17.3241 9.3176 63.8239
112 33.3333 16.6667 100.0000 23.3662 11.7345 95.6412
113 33.3333 33.3333 0.0000 7.8754 9.3440 2.3346
114 33.3333 33.3333 16.6667 8.2980 9.5131 4.5603
115 33.3333 33.3333 33.3333 9.4987 9.9933 10.8827
116 33.3333 33.3333 50.0000 11.7002 10.8739 22.4757
117 33.3333 33.3333 66.6667 15.0585 12.2173 40.1605
118 33.3333 33.3333 83.3333 19.7028 14.0750 64.6167
119 33.3333 33.3333 100.0000 25.7449 16.4918 96.4341
120 33.3333 50.0000 0.0000 12.2369 18.0671 3.7884
121 33.3333 50.0000 16.6667 12.6596 18.2362 6.0141
122 33.3333 50.0000 33.3333 13.8602 18.7164 12.3366
123 33.3333 50.0000 50.0000 16.0617 19.5970 23.9296
124 33.3333 50.0000 66.6667 19.4201 20.9404 41.6143
125 33.3333 50.0000 83.3333 24.0643 22.7981 66.0706
126 33.3333 50.0000 100.0000 30.1064 25.2149 97.8879
127 33.3333 66.6667 0.0000 18.8903 31.3739 6.0062
128 33.3333 66.6667 16.6667 19.3130 31.5430 8.2319
129 33.3333 66.6667 33.3333 20.5136 32.0233 14.5544
130 33.3333 66.6667 50.0000 22.7151 32.9039 26.1474
131 33.3333 66.6667 66.6667 26.0735 34.2472 43.8321
132 33.3333 66.6667 83.3333 30.7177 36.1049 68.2884
133 33.3333 66.6667 100.0000 36.7598 38.5217 100.1057
134 33.3333 83.3333 0.0000 28.0913 49.7760 9.0732
135 33.3333 83.3333 16.6667 28.5140 49.9450 11.2989
136 33.3333 83.3333 33.3333 29.7146 50.4253 17.6214
137 33.3333 83.3333 50.0000 31.9161 51.3059 29.2144
138 33.3333 83.3333 66.6667 35.2745 52.6492 46.8991
139 33.3333 83.3333 83.3333 39.9187 54.5069 71.3554
140 33.3333 83.3333 100.0000 45.9608 56.9238 103.1727
141 33.3333 100.0000 0.0000 40.0617 73.7168 13.0634
142 33.3333 100.0000 16.6667 40.4844 73.8858 15.2890
143 33.3333 100.0000 33.3333 41.6850 74.3661 21.6115
144 33.3333 100.0000 50.0000 43.8866 75.2467 33.2045
145 33.3333 100.0000 66.6667 47.2449 76.5900 50.8893
146 33.3333 100.0000 83.3333 51.8891 78.4477 75.3455
147 33.3333 100.0000 100.0000 57.9312 80.8646 107.1629
148 50.0000 0.0000 0.0000 9.6893 5.5050 1.4980
149 50.0000 0.0000 16.6667 10.1119 5.6741 3.7236
150 50.0000 0.0000 33.3333 11.3126 6.1543 10.0461
151 50.0000 0.0000 50.0000 13.5141 7.0349 21.6391
152 50.0000 0.0000 66.6667 16.8724 8.3783 39.3239
153 50.0000 0.0000 83.3333 21.5167 10.2360 63.7801
154 50.0000 0.0000 100.0000 27.5588 12.6528 95.5975
155 50.0000 16.6667 0.0000 10.5266 7.1797 1.7771
156 50.0000 16.6667 16.6667 10.9493 7.3488 4.0028
157 50.0000 16.6667 33.3333 12.1499 7.8290 10.3252
158 50.0000 16.6667 50.0000 14.3514 8.7096 21.9182
159 50.0000 16.6667 66.6667 17.7098 10.0530 39.6030
160 50.0000 16.6667 83.3333 22.3540 11.9107 64.0593
161 50.0000 16.6667 100.0000 28.3961 14.3275 95.8766
162 50.0000 33.3333 0.0000 12.9053 11.9370 2.5700
163 50.0000 33.3333 16.6667 13.3280 12.1061 4.7957
164 50.0000 33.3333 33.3333 14.5286 12.5864 11.1181
165 50.0000 33.3333 50.0000 16.7301 13.4670 22.7111
166 50.0000 33.3333 66.6667 20.0884 14.8103 40.3959
167 50.0000 33.3333 83.3333 24.7327 16.6680 64.8521
168 50.0000 33.3333 100.0000 30.7748 19.0848 96.6695
169 50.0000 50.0000 0.0000 17.2669 20.6601 4.0238
170 50.0000 50.0000 16.6667 17.6895 20.8292 6.2495
171 50.0000 50.0000 33.3333 18.8902 21.3095 12.5720
172 50.0000 50.0000 50.0000 21.0917 22.1901 24.1650
173 50.0000 50.0000 66.6667 24.4500 23.5334 41.8497
174 50.0000 50.0000 83.3333 29.0942 25.3911 66.3060
175 50.0000 50.0000 100.0000 35.1364 27.8079 98.1233
176 50.0000 66.6667 0.0000 23.9203 33.9670 6.2416
177 50.0000 66.6667 16.6667 24.3429 34.1360 8.4673
178 50.0000 66.6667 33.3333 25.5436 34.6163 14.7898
179 50.0000 66.6667 50.0000 27.7451 35.4969 26.3828
180 50.0000 66.6667 66.6667 31.1034 36.8402 44.0675
181 50.0000 66.6667 83.3333 35.7477 38.6979 68.5238
182 50.0000 66.6667 100.0000 41.7898 41.1148 100.3411
183 50.0000 83.3333 0.0000 33.1213 52.3690 9.3086
184 50.0000 83.3333 16.6667 33.5439 52.5380 11.5343
185 50.0000 83.3333 33.3333 34.7446 53.0183 17.8568
186 50.0000 83.3333 50.0000 36.9461 53.8989 29.4498
187 50.0000 83.3333 66.6667 40.3044 55.2422 47.1345
188 50.0000 83.3333 83.3333 44.9487 57.0999 71.5908
189 50.0000 83.3333 100.0000 50.9908 59.5168 103.4081
190 50.0000 100.0000 0.0000 45.0917 76.3098 13.2988
191 50.0000 100.0000 16.6667 45.5143 76.4789 15.5244
192 50.0000 100.0000 33.3333 46.7150 76.9591 21.8469
193 50.0000 100.0000 50.0000 48.9165 77.8397 33.4399
194 50.0000 100.0000 66.6667 52.2748 79.1831 51.1247
195 50.0000 100.0000 83.3333 56.9191 81.0408 75.5809
196 50.0000 100.0000 100.0000 62.9612 83.4576 107.3983
197 66.6667 0.0000 0.0000 17.3623 9.4606 1.8571
198 66.6667 0.0000 16.6667 17.7849 9.6296 4.0827
199 66.6667 0.0000 33.3333 18.9856 10.1099 10.4052
200 66.6667 0.0000 50.0000 21.1871 10.9905 21.9982
201 66.6667 0.0000 66.6667 24.5454 12.3338 39.6830
202 66.6667 0.0000 83.3333 29.1897 14.1915 64.1392
203 66.6667 0.0000 100.0000 35.2318 16.6084 95.9566
204 66.6667 16.6667 0.0000 18.1996 11.1353 2.1362
205 66.6667 16.6667 16.6667 18.6223 11.3044 4.3619
206 66.6667 16.6667 33.3333 19.8229 11.7846 10.6843
207 66.6667 16.6667 50.0000 22.0244 12.6652 22.2773
208 66.6667 16.6667 66.6667 25.3828 14.0085 39.9621
209 66.6667 16.6667 83.3333 30.0270 15.8662 64.4183
210 66.6667 16.6667 100.0000 36.0691 18.2831 96.2357
211 66.6667 33.3333 0.0000 20.5783 15.8926 2.9291
212 66.6667 33.3333 16.6667 21.0010 16.0617 5.1547
213 66.6667 33.3333 33.3333 22.2016 16.5419 11.4772
214 66.6667 33.3333 50.0000 24.4031 17.4225 23.0702
215 66.6667 33.3333 66.6667 27.7614 18.7659 40.7550
216 66.6667 33.3333 83.3333 32.4057 20.6236 65.2112
217 66.6667 33.3333 100.0000 38.4478 23.0404 97.0286
218 66.6667 50.0000 0.0000 24.9399 24.6157 4.3829
219 66.6667 50.0000 16.6667 25.3625 24.7848 6.6086
220 66.6667 50.0000 33.3333 26.5632 25.2650 12.9311
221 66.6667 50.0000 50.0000 28.7647 26.1457 24.5241
222 66.6667 50.0000 66.6667 32.1230 27.4890 42.2088
223 66.6667 50.0000 83.3333 36.7672 29.3467 66.6651
224 66.6667 50.0000 100.0000 42.8094 31.7635 98.4824
225 66.6667 66.6667 0.0000 31.5933 37.9225 6.6007
226 66.6667 66.6667 16.6667 32.0159 38.0916 8.8264
227 66.6667 66.6667 33.3333 33.2166 38.5719 15.1489
228 66.6667 66.6667 50.0000 35.4181 39.4525 26.7419
229 66.6667 66.6667 66.6667 38.7764 40.7958 44.4266
230 66.6667 66.6667 83.3333 43.4207 42.6535 68.8829
231 66.6667 66.6667 100.0000 49.4628 45.0703 100.7002
232 66.6667 83.3333 0.0000 40.7943 56.3246 9.6677
233 66.6667 83.3333 16.6667 41.2169 56.4936 11.8934
234 66.6667 83.3333 33.3333 42.4176 56.9739 18.2159
235 66.6667 83.3333 50.0000 44.6191 57.8545 29.8089
236 66.6667 83.3333 66.6667 47.9774 59.1978 47.4936
237 66.6667 83.3333 83.3333 52.6217 61.0555 71.9499
238 66.6667 83.3333 100.0000 58.6638 63.4724 103.7672
239 66.6667 100.0000 0.0000 52.7647 80.2654 13.6579
240 66.6667 100.0000 16.6667 53.1873 80.4344 15.8835
241 66.6667 100.0000 33.3333 54.3880 80.9147 22.2060
242 66.6667 100.0000 50.0000 56.5895 81.7953 33.7990
243 66.6667 100.0000 66.6667 59.9478 83.1386 51.4838
244 66.6667 100.0000 83.3333 64.5921 84.9963 75.9400
245 66.6667 100.0000 100.0000 70.6342 87.4132 107.7574
246 83.3333 0.0000 0.0000 27.9733 14.9308 2.3536
247 83.3333 0.0000 16.6667 28.3960 15.0998 4.5793
248 83.3333 0.0000 33.3333 29.5966 15.5801 10.9018
249 83.3333 0.0000 50.0000 31.7981 16.4607 22.4948
250 83.3333 0.0000 66.6667 35.1564 17.8040 40.1796
251 83.3333 0.0000 83.3333 39.8007 19.6617 64.6358
252 83.3333 0.0000 100.0000 45.8428 22.0786 96.4531
253 83.3333 16.6667 0.0000 28.8106 16.6055 2.6328
254 83.3333 16.6667 16.6667 29.2333 16.7745 4.8584
255 83.3333 16.6667 33.3333 30.4339 17.2548 11.1809
256 83.3333 16.6667 50.0000 32.6355 18.1354 22.7739
257 83.3333 16.6667 66.6667 35.9938 19.4787 40.4587
258 83.3333 16.6667 83.3333 40.6380 21.3364 64.9149
259 83.3333 16.6667 100.0000 46.6801 23.7533 96.7323
260 83.3333 33.3333 0.0000 31.1893 21.3628 3.4257
261 83.3333 33.3333 16.6667 31.6120 21.5319 5.6513
262 83.3333 33.3333 33.3333 32.8126 22.0121 11.9738
263 83.3333 33.3333 50.0000 35.0141 22.8927 23.5668
264 83.3333 33.3333 66.6667 38.3725 24.2360 41.2516
265 83.3333 33.3333 83.3333 43.0167 26.0937 65.7078
266 83.3333 33.3333 100.0000 49.0588 28.5106 97.5252
267 83.3333 50.0000 0.0000 35.5509 30.0859 4.8795
268 83.3333 50.0000 16.6667 35.9735 30.2550 7.1052
269 83.3333 50.0000 33.3333 37.1742 30.7352 13.4277
270 83.3333 50.0000 50.0000 39.3757 31.6158 25.0207
271 83.3333 50.0000 66.6667 42.7340 32.9592 42.7054
272 83.3333 50.0000 83.3333 47.3783 34.8169 67.1617
273 83.3333 50.0000 100.0000 53.4204 37.2337 98.9790
274 83.3333 66.6667 0.0000 42.2043 43.3927 7.0973
275 83.3333 66.6667 16.6667 42.6269 43.5618 9.3230
276 83.3333 66.6667 33.3333 43.8276 44.0420 15.6455
277 83.3333 66.6667 50.0000 46.0291 44.9226 27.2385
278 83.3333 66.6667 66.6667 49.3874 46.2660 44.9232
279 83.3333 66.6667 83.3333 54.0317 48.1237 69.3795
280 83.3333 66.6667 100.0000 60.0738 50.5405 101.1968
281 83.3333 83.3333 0.0000 51.4053 61.7947 10.1643
282 83.3333 83.3333 16.6667 51.8279 61.9638 12.3900
283 83.3333 83.3333 33.3333 53.0286 62.4441 18.7125
284 83.3333 83.3333 50.0000 55.2301 63.3247 30.3055
285 83.3333 83.3333 66.6667 58.5884 64.6680 47.9902
286 83.3333 83.3333 83.3333 63.2327 66.5257 72.4465
287 83.3333 83.3333 100.0000 69.2748 68.9425 104.2638
288 83.3333 100.0000 0.0000 63.3757 85.7356 14.1544
289 83.3333 100.0000 16.6667 63.7984 85.9046 16.3801
290 83.3333 100.0000 33.3333 64.9990 86.3849 22.7026
291 83.3333 100.0000 50.0000 67.2005 87.2655 34.2956
292 83.3333 100.0000 66.6667 70.5588 88.6088 51.9804
293 83.3333 100.0000 83.3333 75.2031 90.4665 76.4366
294 83.3333 100.0000 100.0000 81.2452 92.8834 108.2539
295 100.0000 0.0000 0.0000 41.7781 22.0474 2.9997
296 100.0000 0.0000 16.6667 42.2008 22.2165 5.2254
297 100.0000 0.0000 33.3333 43.4014 22.6967 11.5479
298 100.0000 0.0000 50.0000 45.6029 23.5773 23.1409
299 100.0000 0.0000 66.6667 48.9612 24.9207 40.8256
300 100.0000 0.0000 83.3333 53.6055 26.7784 65.2819
301 100.0000 0.0000 100.0000 59.6476 29.1952 97.0992
302 100.0000 16.6667 0.0000 42.6155 23.7221 3.2788
303 100.0000 16.6667 16.6667 43.0381 23.8912 5.5045
304 100.0000 16.6667 33.3333 44.2387 24.3714 11.8270
305 100.0000 16.6667 50.0000 46.4403 25.2520 23.4200
306 100.0000 16.6667 66.6667 49.7986 26.5954 41.1047
307 100.0000 16.6667 83.3333 54.4428 28.4531 65.5610
308 100.0000 16.6667 100.0000 60.4850 30.8699 97.3783
309 100.0000 33.3333 0.0000 44.9941 28.4794 4.0717
310 100.0000 33.3333 16.6667 45.4168 28.6485 6.2974
311 100.0000 33.3333 33.3333 46.6174 29.1287 12.6199
312 100.0000 33.3333 50.0000 48.8189 30.0094 24.2129
313 100.0000 33.3333 66.6667 52.1773 31.3527 41.8976
314 100.0000 33.3333 83.3333 56.8215 33.2104 66.3539
315 100.0000 33.3333 100.0000 62.8636 35.6272 98.1712
316 100.0000 50.0000 0.0000 49.3557 37.2025 5.5256
317 100.0000 50.0000 16.6667 49.7783 37.3716 7.7512
318 100.0000 50.0000 33.3333 50.9790 37.8519 14.0737
319 100.0000 50.0000 50.0000 53.1805 38.7325 25.6667
320 100.0000 50.0000 66.6667 56.5388 40.0758 43.3515
321 100.0000 50.0000 83.3333 61.1831 41.9335 67.8077
322 100.0000 50.0000 100.0000 67.2252 44.3503 99.6251
323 100.0000 66.6667 0.0000 56.0091 50.5094 7.7434
324 100.0000 66.6667 16.6667 56.4317 50.6784 9.9690
325 100.0000 66.6667 33.3333 57.6324 51.1587 16.2915
326 100.0000 66.6667 50.0000 59.8339 52.0393 27.8845
327 100.0000 66.6667 66.6667 63.1922 53.3826 45.5693
328 100.0000 66.6667 83.3333 67.8365 55.2403 70.0255
329 100.0000 66.6667 100.0000 73.8786 57.6572 101.8429
330 100.0000 83.3333 0.0000 65.2101 68.9114 10.8104
331 100.0000 83.3333 16.6667 65.6327 69.0804 13.0360
332 100.0000 83.3333 33.3333 66.8334 69.5607 19.3585
333 100.0000 83.3333 50.0000 69.0349 70.4413 30.9515
334 100.0000 83.3333 66.6667 72.3932 71.7846 48.6363
335 100.0000 83.3333 83.3333 77.0375 73.6423 73.0925
336 100.0000 83.3333 100.0000 83.0796 76.0592 104.9099
337 100.0000 100.0000 0.0000 77.1805 92.8522 14.8005
338 100.0000 100.0000 16.6667 77.6032 93.0213 17.0262
339 100.0000 100.0000 33.3333 78.8038 93.5015 23.3487
340 100.0000 100.0000 50.0000 81.0053 94.3821 34.9417
341 100.0000 100.0000 66.6667 84.3636 95.7255 52.6264
342 100.0000 100.0000 83.3333 89.0079 97.5832 77.0827
343 100.0000 100.0000 100.0000 95.0500 100.0000 108.9000
344 8.3333 0.0000 0.0000 1.2619 1.1606 1.1036
345 0.0000 8.3333 0.0000 1.2206 1.5401 1.1790
346 0.0000 0.0000 8.3333 1.0868 1.0545 1.8068
347 91.6667 0.0000 0.0000 34.4617 18.2756 2.6573
348 100.0000 8.3333 0.0000 42.0482 22.5875 3.0897
349 100.0000 0.0000 8.3333 41.9144 22.1019 3.7175
350 8.3333 100.0000 0.0000 36.6643 71.9654 12.9044
351 0.0000 91.6667 0.0000 30.0087 59.1163 10.7751
352 0.0000 100.0000 8.3333 36.4892 71.8593 13.6076
353 8.3333 0.0000 100.0000 19.1314 8.3084 95.2031
354 0.0000 8.3333 100.0000 19.0901 8.6879 95.2785
355 0.0000 0.0000 91.6667 15.6177 6.8669 78.3256
356 8.3333 100.0000 100.0000 54.5338 79.1132 107.0039
357 0.0000 91.6667 100.0000 47.8782 66.2641 104.8746
358 0.0000 100.0000 91.6667 51.0201 77.6717 90.1264
359 91.6667 0.0000 100.0000 52.3312 25.4234 96.7568
360 100.0000 8.3333 100.0000 59.9177 29.7353 97.1892
361 100.0000 0.0000 91.6667 56.4453 27.9143 80.2363
362 91.6667 100.0000 0.0000 69.8641 89.0804 14.4581
363 100.0000 91.6667 0.0000 70.8363 80.1637 12.6858
364 100.0000 100.0000 8.3333 77.3168 92.9067 15.5183
365 91.6667 100.0000 100.0000 87.7336 96.2282 108.5576
366 100.0000 91.6667 100.0000 88.7058 87.3115 106.7853
367 100.0000 100.0000 91.6667 91.8477 98.7191 92.0371
368 0.0000 0.0000 2.0000 0.9782 1.0111 1.2347
369 3.4483 3.4483 3.4483 1.2016 1.2642 1.3767
370 6.8966 6.8966 6.8966 1.5022 1.5804 1.7211
371 10.3448 10.3448 10.3448 1.9448 2.0461 2.2282
372 13.7931 13.7931 13.7931 2.5454 2.6780 2.9164
373 15.8272 17.2414 18.6556 3.2406 3.4424 4.1624
374 20.6897 20.6897 20.6897 4.2717 4.4941 4.8941
375 24.1379 24.1379 24.1379 5.4196 5.7018 6.2093
376 27.5862 27.5862 27.5862 6.7706 7.1233 7.7572
377 31.0345 31.0345 31.0345 8.3341 8.7681 9.5485
378 33.3281 33.3281 35.6375 9.7372 10.0869 12.1505
379 37.9310 37.9310 37.9310 12.1320 12.7639 13.8998
380 41.3793 41.3793 41.3793 14.3824 15.1314 16.4781
381 44.8276 44.8276 44.8276 16.8768 17.7558 19.3360
382 48.2759 48.2759 48.2759 19.6225 20.6444 22.4818
383 51.7241 51.7241 51.7241 22.6261 23.8044 25.9230
384 55.1724 55.1724 55.1724 25.8942 27.2427 29.6673
385 58.6207 58.6207 58.6207 29.4329 30.9657 33.7217
386 62.0690 62.0690 62.0690 33.2484 34.9800 38.0932
387 64.3625 64.3625 64.3625 35.9424 37.8142 41.1797
388 68.9655 68.9655 68.9655 41.7330 43.9064 47.8140
389 72.4138 72.4138 72.4138 46.4133 48.8304 53.1763
390 75.8621 75.8621 75.8621 51.3927 54.0691 58.8813
391 79.3103 79.3103 79.3103 56.6766 59.6282 64.9351
392 81.6039 81.6039 81.6039 60.3622 63.5057 69.1577
393 86.2069 86.2069 86.2069 68.1779 71.7284 78.1123
394 89.6552 89.6552 89.6552 74.4051 78.2800 85.2469
395 93.1034 93.1034 93.1034 80.9565 85.1725 92.7529
396 96.5517 96.5517 96.5517 87.8366 92.4109 100.6355
397 98.0000 100.0000 100.0000 93.2170 99.0551 108.8142
398 2.6667 0.0000 0.0000 1.0348 1.0434 1.0929
399 0.1786 2.4880 0.0000 1.0243 1.1393 1.1120
400 0.0000 2.6667 2.0000 1.0512 1.1572 1.2590
401 2.0000 1.3333 1.3333 1.0687 1.1130 1.2012
402 0.0000 0.0000 4.0809 1.0070 1.0226 1.3863
403 2.7475 0.0000 2.7475 1.0753 1.0600 1.2932
404 9.3333 5.3333 5.3333 1.5447 1.5205 1.5555
405 8.0000 8.0000 4.0000 1.5543 1.6830 1.4790
406 5.3333 9.3333 5.3333 1.5188 1.7582 1.6028
407 4.0000 8.0000 8.0000 1.4602 1.6260 1.8568
408 5.3333 5.3333 9.3333 1.4351 1.4542 1.9959
409 8.0000 4.0000 8.0000 1.4824 1.4221 1.8163
410 16.0000 12.0000 12.0000 2.5624 2.5081 2.5513
411 14.6667 14.6667 10.6667 2.5856 2.8107 2.3909
412 12.0000 16.0000 12.0000 2.5159 2.9345 2.6361
413 10.6667 14.6667 14.6667 2.4074 2.7028 3.1064
414 12.0000 12.0000 16.0000 2.3657 2.3890 3.3413
415 14.6667 10.6667 14.6667 2.4495 2.3166 3.0297
416 22.6667 18.6667 18.6667 4.2168 4.1532 4.2512
417 21.3333 21.3333 17.3333 4.2562 4.6179 3.9917
418 18.6667 22.6667 18.6667 4.1466 4.7964 4.3790
419 17.3333 21.3333 21.3333 3.9804 4.4509 5.0995
420 18.6667 18.6667 22.6667 3.9200 3.9735 5.4430
421 21.3333 17.3333 21.3333 4.0456 3.8530 4.9806
422 29.3333 25.3333 25.3333 6.5896 6.5437 6.7529
423 28.0000 28.0000 24.0000 6.6474 7.1889 6.3821
424 25.3333 29.3333 25.3333 6.4932 7.4274 6.9286
425 24.0000 28.0000 28.0000 6.2626 6.9559 7.9271
426 25.3333 25.3333 29.3333 6.1818 6.2968 8.3902
427 28.0000 24.0000 28.0000 6.3535 6.1220 7.7613
428 36.0000 32.0000 32.0000 9.7503 9.7542 10.1390
429 34.6667 34.6667 30.6667 9.8283 10.5956 9.6462
430 32.0000 36.0000 32.0000 9.6255 10.8988 10.3665
431 30.6667 34.6667 34.6667 9.3249 10.2908 11.6674
432 30.8453 30.8453 34.8453 8.6370 8.8297 11.5204
433 34.6667 30.6667 34.6667 9.4439 9.1999 11.4505
434 42.6667 38.6667 38.6667 13.7603 13.8500 14.4815
435 41.3333 41.3333 37.3333 13.8600 14.9018 13.8574
436 38.6667 42.6667 38.6667 13.6050 15.2739 14.7645
437 37.3333 41.3333 41.3333 13.2294 14.5201 16.3894
438 38.6667 38.6667 42.6667 13.1033 13.4523 17.1195
439 41.3333 37.3333 41.3333 13.3784 13.1534 16.1177
440 49.3333 45.3333 45.3333 18.6747 18.8901 19.8452
441 48.0000 48.0000 44.0000 18.7976 20.1651 19.0814
442 45.3333 49.3333 45.3333 18.4872 20.6098 20.1870
443 44.0000 48.0000 48.0000 18.0320 19.7016 22.1556
444 45.3333 45.3333 49.3333 17.8813 18.4098 23.0314
445 48.0000 44.0000 48.0000 18.2129 18.0423 21.8258
446 56.0000 52.0000 52.0000 24.5442 24.9283 26.2893
447 54.6667 54.6667 50.6667 24.6915 26.4381 25.3780
448 52.0000 56.0000 52.0000 24.3228 26.9592 26.6930
449 50.6667 54.6667 54.6667 23.7837 25.8885 29.0233
450 52.0000 52.0000 56.0000 23.6071 24.3609 30.0521
451 54.6667 50.6667 54.6667 23.9982 23.9210 28.6323
452 62.6667 58.6667 58.6667 31.4155 32.0141 33.8684
453 61.3333 61.3333 57.3333 31.5885 33.7698 32.8024
454 58.6667 62.6667 58.6667 31.1586 34.3705 34.3367
455 57.3333 61.3333 61.3333 30.5317 33.1301 37.0457
456 58.6667 58.6667 62.6667 30.3282 31.3558 38.2343
457 61.3333 57.3333 61.3333 30.7814 30.8398 36.5905
458 69.3333 65.3333 65.3333 39.3324 40.1941 42.6333
459 68.0000 68.0000 64.0000 39.5321 42.2060 41.4060
460 65.3333 69.3333 65.3333 39.0385 42.8894 43.1690
461 64.0000 68.0000 68.0000 38.3203 41.4723 46.2723
462 65.3333 65.3333 69.3333 38.0888 39.4411 47.6271
463 68.0000 64.0000 68.0000 38.6066 38.8457 45.7503
