assets/charts/knut/rgb/fulllayout/fls_colormunki_a4_484p_1page_portrait/chart.ti1
CTI1   

DESCRIPTOR "Argyll Calibration Target chart information 1"
ORIGINATOR "ChromIQ"
APPROX_WHITE_POINT "95.050000 100.000000 108.900000"
COLOR_REP "iRGB"
WHITE_COLOR_PATCHES "1"
BLACK_COLOR_PATCHES "1"
CREATED "Tue Jun 23 16:24:33 2026"

NUMBER_OF_FIELDS 7
BEGIN_DATA_FORMAT
SAMPLE_ID RGB_R RGB_G RGB_B XYZ_X XYZ_Y XYZ_Z
END_DATA_FORMAT

NUMBER_OF_SETS 484
BEGIN_DATA
1 16.8627 100.0000 33.3333 38.9625 72.9626 21.4841
2 66.6667 0.0000 33.3333 18.9856 10.1099 10.4052
3 98.8235 96.8628 100.0000 91.4916 94.4926 108.0245
4 16.8627 66.6667 33.3333 17.7911 30.6197 14.4270
5 83.1372 50.1961 83.1372 47.2372 34.8470 66.8470
6 83.1372 33.3333 16.8627 31.4781 21.4618 5.6922
7 92.1569 96.0784 92.1569 82.0402 89.0755 91.6267
8 18.8235 18.8235 22.7451 3.9597 4.0173 5.4758
9 100.0000 100.0000 83.1372 88.9453 97.5581 76.7532
10 30.5882 34.5098 34.5098 9.2596 10.2107 11.5691
11 100.0000 16.8627 33.3333 44.2566 24.4072 11.8329
12 65.4902 65.4902 69.4118 38.2645 39.6370 47.7590
13 66.6667 83.1372 0.0000 40.6703 56.0767 9.6264
14 21.1765 17.2549 21.1765 4.0075 3.8235 4.9280
15 83.1372 50.1961 0.0000 35.4723 30.1410 4.8943
16 16.8627 16.8627 50.1961 6.6494 4.7619 21.7326
17 0.0000 66.6667 66.6667 22.3646 32.3352 43.6586
18 66.6667 83.1372 66.6667 47.8535 58.9499 47.4523
19 100.0000 50.1961 33.3333 51.0434 37.9807 14.0952
20 0.0000 8.2353 0.0000 1.2160 1.5310 1.1775
21 0.0000 50.1961 83.1372 20.3573 20.9899 65.5891
22 0.0000 16.8627 66.6667 8.9889 5.5837 39.2000
23 8.2353 100.0000 0.0000 36.6591 71.9626 12.9041
24 50.1961 100.0000 50.1961 49.0233 77.8910 33.6146
25 72.1569 72.1569 76.0784 47.1293 48.8827 58.4259
26 16.8627 0.0000 33.3333 3.5601 2.1578 9.6833
27 83.1372 100.0000 100.0000 81.1023 92.8097 108.2473
28 83.1372 50.1961 33.3333 37.0956 30.7904 13.4424
29 65.4902 69.4118 65.4902 39.1977 43.0253 43.3785
30 100.0000 83.1372 16.8627 65.5178 68.8362 13.0423
31 94.5098 94.5098 90.5882 82.2837 87.5071 88.3451
32 17.2549 21.1765 21.1765 3.9440 4.4057 5.0437
33 0.0000 83.1372 16.8627 24.6902 47.7888 11.1316
34 66.6667 50.1961 50.1961 28.8616 26.2875 24.7168
35 33.3333 100.0000 66.6667 47.2449 76.5900 50.8893
36 5.0980 5.0980 5.0980 1.3292 1.3984 1.5229
37 81.1765 77.2549 81.1765 57.3418 58.1259 67.5844
38 66.6667 33.3333 83.1372 32.3431 20.5985 64.8818
39 16.8627 83.1372 83.1372 37.0097 52.8305 70.8572
40 33.3333 16.8627 0.0000 5.5146 4.6225 1.5477
41 66.6667 83.1372 83.1372 52.4352 60.7826 71.5791
42 0.0000 16.8627 83.1372 13.5706 7.4164 63.3268
43 45.0980 45.0980 45.0980 17.0830 17.9727 19.5722
44 66.6667 16.8627 100.0000 36.0870 18.3189 96.2416
45 0.0000 100.0000 16.8627 36.7846 71.9775 15.1630
46 34.5098 34.5098 30.5882 9.7510 10.5082 9.5961
47 16.8627 83.1372 100.0000 43.1143 55.2723 103.0040
48 27.8431 27.8431 23.9216 6.5876 7.1212 6.3441
49 100.0000 83.1372 33.3333 66.7094 69.3128 19.3172
50 70.5882 74.5098 74.5098 47.0153 50.7454 56.4910
51 83.1372 33.3333 33.3333 32.6697 21.9384 11.9671
52 16.8627 50.1961 16.8627 10.0105 16.9651 5.9557
53 33.3333 50.1961 33.3333 13.9246 18.8453 12.3581
54 66.6667 100.0000 83.1372 64.5295 84.9713 75.6106
55 42.7451 38.8235 38.8235 13.8409 13.9450 14.5946
56 0.0000 83.1372 33.3333 25.8818 48.2654 17.4065
57 16.8627 50.1961 83.1372 21.3436 21.4983 65.6352
58 66.6667 33.3333 66.6667 27.7614 18.7659 40.7550
59 66.6667 16.8627 33.3333 19.8408 11.8204 10.6903
60 16.8627 66.6667 66.6667 23.3509 32.8437 43.7047
61 33.3333 0.0000 66.6667 11.8425 5.7852 39.0885
62 83.1372 66.6667 83.1372 53.8262 48.0250 69.0433
63 100.0000 100.0000 16.8627 77.6122 93.0249 17.0737
64 50.1961 33.3333 16.8627 13.4113 12.1480 4.8467
65 100.0000 100.0000 50.1961 81.0378 94.3951 35.1129
66 83.1372 33.3333 100.0000 48.9159 28.4369 97.5185
67 100.0000 0.0000 16.8627 42.2098 22.2201 5.2729
68 18.8235 22.7451 18.8235 4.1833 4.8292 4.4261
69 83.1372 33.3333 66.6667 38.2295 24.1624 41.2449
70 33.3333 16.8627 100.0000 23.3841 11.7703 95.6472
71 54.9020 54.9020 54.9020 25.6282 26.9628 29.3625
72 100.0000 83.1372 0.0000 65.0861 68.6635 10.7690
73 50.1961 50.1961 50.1961 21.2629 22.3702 24.3611
74 100.0000 100.0000 0.0000 77.1805 92.8522 14.8005
75 66.6667 0.0000 0.0000 17.3623 9.4606 1.8571
76 83.1372 33.3333 83.1372 42.8112 25.9950 65.3717
77 33.3333 83.1372 33.3333 29.5907 50.1774 17.5801
78 98.0392 100.0000 100.0000 93.2525 99.0734 108.8159
79 32.1569 36.0784 32.1569 9.6920 10.9568 10.4529
80 94.9020 94.9020 94.9020 84.5036 88.9044 96.8169
81 8.2353 100.0000 100.0000 54.5286 79.1104 107.0036
82 33.3333 83.1372 16.8627 28.3991 49.7007 11.3051
83 45.4902 45.4902 49.4118 17.9921 18.5330 23.1163
84 100.0000 16.8627 83.1372 54.3982 28.4638 65.2375
85 83.9216 87.8431 87.8431 68.1138 73.2594 81.3124
86 50.1961 50.1961 16.8627 17.8372 20.9999 6.3220
87 83.1372 83.1372 16.8627 51.5701 61.6458 12.3895
88 83.1372 16.8627 100.0000 46.5551 23.7154 96.7315
89 8.2353 0.0000 100.0000 19.1262 8.3056 95.2028
90 83.1372 66.6667 100.0000 59.9308 50.4668 101.1901
91 50.1961 0.0000 50.1961 13.6209 7.0862 21.8138
92 0.0000 100.0000 100.0000 54.2224 78.9526 106.9893
93 1.9608 1.1765 1.1765 1.0610 1.1029 1.1883
94 33.3333 66.6667 50.1961 22.7476 32.9169 26.3186
95 66.6667 100.0000 100.0000 70.6342 87.4132 107.7574
96 50.1961 16.8627 50.1961 14.4761 8.7967 22.0989
97 96.0784 92.1569 92.1569 82.4868 84.9790 90.8124
98 7.8431 3.9216 7.8431 1.4686 1.4121 1.7964
99 100.0000 66.6667 100.0000 73.8786 57.6572 101.8429
100 16.8627 16.8627 16.8627 3.2237 3.3916 3.6935
101 66.6667 83.1372 50.1961 44.5277 57.6196 29.9388
102 0.0000 50.1961 100.0000 26.4620 23.4318 97.7358
103 50.1961 66.6667 50.1961 27.8519 35.5482 26.5575
104 3.9216 7.8431 7.8431 1.4471 1.6092 1.8356
105 83.1372 0.0000 33.3333 29.4537 15.5064 10.8951
106 100.0000 83.1372 100.0000 82.9556 75.8113 104.8685
107 21.1765 21.1765 17.2549 4.2127 4.5684 3.9649
108 78.8235 82.7451 78.8235 58.2955 63.5909 64.8536
109 16.8627 33.3333 16.8627 5.5845 8.1132 4.4804
110 33.3333 100.0000 0.0000 40.0617 73.7168 13.0634
111 100.0000 0.0000 100.0000 59.6476 29.1952 97.0992
112 66.6667 33.3333 16.8627 21.0100 16.0653 5.2023
113 66.6667 16.8627 50.1961 22.0748 12.7140 22.4545
114 50.1961 66.6667 0.0000 23.9945 34.0053 6.2451
115 66.6667 33.3333 50.1961 24.4356 17.4355 23.2414
116 50.1961 83.1372 33.3333 34.6949 52.8087 17.8190
117 100.0000 83.1372 66.6667 72.2693 71.5367 48.5950
118 0.0000 50.1961 50.1961 12.4498 17.8269 23.9487
119 83.1372 100.0000 33.3333 64.8561 86.3112 22.6959
120 61.1765 61.1765 57.2549 31.4297 33.5910 32.6954
121 50.1961 16.8627 0.0000 10.6188 7.2538 1.7865
122 0.0000 50.1961 66.6667 15.7756 19.1572 41.4622
123 16.8627 33.3333 83.1372 16.9176 12.6464 64.1599
124 69.4118 65.4902 65.4902 39.4865 40.3768 42.8521
125 100.0000 33.3333 0.0000 44.9941 28.4794 4.0717
126 8.2353 0.0000 0.0000 1.2567 1.1578 1.1033
127 83.1372 50.1961 50.1961 39.3297 31.6840 25.2066
128 0.0000 33.3333 0.0000 4.1665 7.4320 2.1610
129 16.8627 16.8627 66.6667 9.9752 6.0922 39.2461
130 83.1372 100.0000 83.1372 74.9976 90.3678 76.1005
131 33.3333 100.0000 83.1372 51.8266 78.4227 75.0161
132 0.0000 83.1372 0.0000 24.2585 47.6161 8.8583
133 16.8627 100.0000 16.8627 37.7709 72.4859 15.2092
134 83.1372 33.3333 50.1961 34.9037 22.8320 23.7313
135 16.8627 0.0000 0.0000 1.9368 1.5085 1.1352
136 16.8627 100.0000 83.1372 49.1040 77.0192 74.8887
137 97.2549 98.4314 98.8235 90.8220 96.0193 105.8673
138 66.6667 33.3333 33.3333 22.2016 16.5419 11.4772
139 0.0000 66.6667 100.0000 33.0510 36.6098 99.9322
140 0.0000 33.3333 100.0000 22.0360 14.5798 96.2605
141 34.5098 30.5882 34.5098 9.3757 9.1458 11.3574
142 100.0000 50.1961 0.0000 49.4201 37.3314 5.5470
143 54.5098 50.5882 54.5098 23.8768 23.8230 28.4678
144 100.0000 0.0000 66.6667 48.9612 24.9207 40.8256
145 58.8235 58.8235 62.7451 30.4814 31.5264 38.3499
146 0.0000 100.0000 83.1372 48.1177 76.5107 74.8425
147 14.5098 14.5098 10.5882 2.5566 2.7776 2.3740
148 66.6667 50.1961 16.8627 25.4360 24.9172 6.6776
149 33.3333 83.1372 83.1372 39.7322 54.2340 70.9847
150 33.3333 0.0000 16.8627 5.0910 3.0847 3.5358
151 50.1961 50.1961 66.6667 24.5887 23.7005 41.8747
152 16.8627 100.0000 66.6667 44.5223 75.1865 50.7619
153 0.0000 66.6667 83.1372 26.9463 34.1679 67.7854
154 16.8627 0.0000 83.1372 13.7016 6.2144 63.0879
155 16.8627 100.0000 0.0000 37.3392 72.3133 12.9360
156 95.2941 100.0000 100.0000 90.8149 97.8167 108.7018
157 50.1961 0.0000 100.0000 27.6331 12.6911 95.6009
158 83.1372 83.1372 83.1372 62.9032 66.1791 72.0690
159 100.0000 66.6667 0.0000 56.0091 50.5094 7.7434
160 47.8431 47.8431 43.9216 18.6816 20.0342 19.0044
161 0.0000 100.0000 50.1961 40.2102 73.3477 33.2022
162 66.6667 66.6667 16.8627 32.0250 38.0952 8.8739
163 49.0196 49.0196 49.0196 20.2483 21.3028 23.1987
164 16.8627 83.1372 16.8627 25.6765 48.2972 11.1777
165 77.2549 81.1765 81.1765 56.9858 61.3909 68.2334
166 100.0000 33.3333 33.3333 46.6174 29.1287 12.6199
167 57.2549 61.1765 61.1765 30.3963 32.9653 36.8449
168 33.3333 83.1372 0.0000 27.9674 49.5281 9.0319
169 66.6667 50.1961 66.6667 32.1874 27.6178 42.2303
170 16.0784 12.1569 12.1569 2.5857 2.5348 2.5824
171 66.6667 33.3333 100.0000 38.4478 23.0404 97.0286
172 43.9216 47.8431 47.8431 17.9334 19.5813 22.0087
173 83.1372 100.0000 16.8627 63.6644 85.8346 16.4210
174 72.1569 76.0784 72.1569 48.1841 52.7123 53.4749
175 0.0000 0.0000 0.0000 0.9505 1.0000 1.0890
176 100.0000 16.8627 100.0000 60.5028 30.9057 97.3843
177 66.6667 100.0000 0.0000 52.7647 80.2654 13.6579
178 66.6667 0.0000 16.8627 17.7940 9.6333 4.1303
179 33.3333 33.3333 0.0000 7.8754 9.3440 2.3346
180 82.7451 78.8235 78.8235 58.6608 60.2408 64.1877
181 16.8627 50.1961 100.0000 27.4483 23.9402 97.7820
182 10.5882 14.5098 14.5098 2.3835 2.6728 3.0691
183 89.4118 85.4902 85.4902 69.9745 71.9818 76.8183
184 16.8627 0.0000 66.6667 9.1199 4.3817 38.9611
185 74.9020 74.9020 74.9020 49.9759 52.5786 57.2581
186 50.1961 100.0000 33.3333 46.7893 76.9974 21.8504
187 37.2549 41.1765 41.1765 13.1480 14.4204 16.2675
188 100.0000 66.6667 16.8627 56.4408 50.6820 10.0166
189 76.0784 72.1569 72.1569 48.5104 49.7189 52.8799
190 66.6667 100.0000 33.3333 54.3880 80.9147 22.2060
191 65.0980 65.0980 65.0980 36.8331 38.7513 42.2001
192 66.6667 16.8627 66.6667 25.4007 14.0443 39.9681
193 100.0000 100.0000 91.7647 91.8833 98.7333 92.2242
194 38.8235 42.7451 38.8235 13.6882 15.3459 14.8730
195 83.1372 16.8627 66.6667 35.8687 19.4408 40.4579
196 100.0000 50.1961 83.1372 61.1849 42.0373 67.4998
197 50.1961 66.6667 83.1372 35.7594 38.7112 68.1978
198 0.0000 8.2353 100.0000 19.0855 8.6788 95.2770
199 33.3333 0.0000 100.0000 22.5288 10.0598 95.3621
200 83.1372 100.0000 0.0000 63.2328 85.6619 14.1478
201 50.1961 66.6667 100.0000 41.8640 41.1531 100.3446
202 16.8627 33.3333 66.6667 12.3360 10.8137 40.0331
203 0.0000 33.3333 16.8627 4.5982 7.6047 4.4342
204 66.6667 66.6667 50.1961 35.4506 39.4655 26.9131
205 83.1372 66.6667 33.3333 43.6846 43.9684 15.6388
206 66.6667 66.6667 33.3333 33.2166 38.5719 15.1489
207 50.1961 100.0000 66.6667 52.3491 79.2214 51.1282
208 91.7647 100.0000 100.0000 87.8148 96.2701 108.5614
209 41.1765 41.1765 37.2549 13.7639 14.7933 13.7942
210 33.3333 100.0000 50.1961 43.9191 75.2597 33.3757
211 12.1569 12.1569 16.0784 2.3912 2.4171 3.3634
212 50.1961 0.0000 33.3333 11.3869 6.1926 10.0496
213 33.3333 16.8627 50.1961 9.3719 6.1654 21.8600
214 83.1372 16.8627 83.1372 40.4504 21.2735 64.5848
215 100.0000 16.8627 16.8627 43.0650 23.9306 5.5580
216 50.1961 50.1961 100.0000 35.2750 27.9751 98.1483
217 16.8627 66.6667 50.1961 20.0251 31.5133 26.1912
218 66.6667 16.8627 16.8627 18.6492 11.3437 4.4154
219 52.1569 56.0784 52.1569 24.4422 27.0617 26.8497
220 0.0000 100.0000 0.0000 36.3529 71.8048 12.8898
221 33.3333 16.8627 83.1372 17.2794 9.3284 63.5004
222 33.3333 33.3333 66.6667 15.0585 12.2173 40.1605
223 16.8627 100.0000 100.0000 55.2087 79.4611 107.0355
224 0.0000 2.7451 1.9608 1.0528 1.1613 1.2569
225 0.0000 83.1372 83.1372 36.0234 52.3220 70.8111
226 66.6667 100.0000 66.6667 59.9478 83.1386 51.4838
227 49.4118 45.4902 45.4902 18.7724 19.0055 19.9829
228 83.1372 50.1961 100.0000 53.3418 37.2888 98.9938
229 33.3333 0.0000 33.3333 6.2826 3.5613 9.8107
230 50.1961 16.8627 33.3333 12.2421 7.9031 10.3347
231 33.3333 0.0000 83.1372 16.4242 7.6179 63.2153
232 50.1961 50.1961 33.3333 19.0288 21.4766 12.5969
233 33.3333 50.1961 16.8627 12.7330 18.3686 6.0831
234 50.1961 100.0000 100.0000 63.0355 83.4959 107.4017
235 29.8039 29.8039 29.8039 7.7512 8.1549 8.8807
236 66.6667 100.0000 50.1961 56.6220 81.8083 33.9702
237 50.1961 33.3333 66.6667 20.1627 14.8486 40.3994
238 100.0000 66.6667 33.3333 57.6324 51.1587 16.2915
239 83.1372 83.1372 100.0000 69.0079 68.6210 104.2158
240 12.1569 16.0784 12.1569 2.5398 2.9564 2.6662
241 0.0000 50.1961 16.8627 9.0242 16.4566 5.9095
242 100.0000 8.2353 0.0000 42.0436 22.5784 3.0882
243 66.6667 16.8627 83.1372 29.9824 15.8770 64.0949
244 100.0000 8.2353 100.0000 59.9131 29.7262 97.1877
245 0.0000 33.3333 50.1961 8.0238 8.9750 22.4734
246 16.8627 66.6667 16.8627 16.5995 30.1431 8.1520
247 0.0000 16.8627 0.0000 1.8057 2.7105 1.3741
248 0.0000 66.6667 50.1961 19.0388 31.0049 26.1450
249 83.1372 66.6667 0.0000 42.0613 43.3190 7.0906
250 83.1372 66.6667 50.1961 45.9187 44.8620 27.4030
251 33.3333 100.0000 100.0000 57.9312 80.8646 107.1629
252 33.3333 50.1961 100.0000 30.1708 25.3437 97.9094
253 50.1961 16.8627 100.0000 28.4883 14.4016 95.8860
254 62.7451 58.8235 58.8235 31.5500 32.1734 34.0589
255 16.8627 66.6667 0.0000 16.1678 29.9704 5.8788
256 50.1961 33.3333 33.3333 14.6029 12.6246 11.1216
257 0.0000 0.0000 33.3333 2.5738 1.6493 9.6372
258 50.1961 83.1372 83.1372 44.8364 56.8653 71.2235
259 33.3333 0.0000 0.0000 4.6593 2.9120 1.2626
260 66.6667 50.1961 83.1372 36.7691 29.4505 66.3571
261 16.8627 16.8627 33.3333 4.4153 3.8683 9.9684
262 0.0000 66.6667 33.3333 16.8048 30.1113 14.3808
263 63.9216 67.8431 67.8431 38.1652 41.2839 46.0430
264 50.1961 100.0000 0.0000 45.1660 76.3481 13.3022
265 16.8627 0.0000 100.0000 19.8063 8.6563 95.2347
266 91.7647 0.0000 100.0000 52.4124 25.4653 96.7606
267 66.6667 50.1961 33.3333 26.6276 25.3939 12.9525
268 100.0000 0.0000 33.3333 43.4014 22.6967 11.5479
269 66.6667 0.0000 66.6667 24.5454 12.3338 39.6830
270 67.8431 63.9216 67.8431 38.4454 38.7148 45.5323
271 33.3333 0.0000 50.1961 8.5167 4.4549 21.5749
272 100.0000 50.1961 16.8627 49.8518 37.5040 7.8202
273 66.6667 66.6667 100.0000 49.4628 45.0703 100.7002
274 50.1961 33.3333 50.1961 16.8369 13.5183 22.8858
275 100.0000 33.3333 100.0000 62.8636 35.6272 98.1712
276 83.1372 66.6667 66.6667 49.2445 46.1923 44.9165
277 50.1961 100.0000 83.1372 56.9308 81.0540 75.2550
278 16.8627 83.1372 66.6667 32.4280 50.9978 46.7304
279 25.4902 29.4118 25.4902 6.5442 7.4722 6.9945
280 100.0000 66.6667 66.6667 63.1922 53.3826 45.5693
281 0.0000 0.0000 50.1961 4.8078 2.5429 21.4014
282 81.1765 81.1765 77.2549 58.4923 62.3030 62.1840
283 0.0000 0.0000 8.2353 1.0845 1.0536 1.7947
284 50.1961 0.0000 66.6667 16.9467 8.4166 39.3274
285 56.0784 52.1569 52.1569 24.6599 25.0651 26.4528
286 0.0000 100.0000 33.3333 37.9762 72.4541 21.4380
287 0.0000 100.0000 8.2353 36.4869 71.8584 13.5955
288 5.4902 9.4118 5.4902 1.5316 1.7706 1.6184
289 100.0000 0.0000 83.1372 53.5429 26.7533 64.9524
290 58.8235 62.7451 58.8235 31.2975 34.4894 34.5193
291 83.1372 83.1372 33.3333 52.7617 62.1225 18.6645
292 45.4902 49.4118 45.4902 18.5880 20.6967 20.3190
293 83.1372 33.3333 0.0000 31.0464 21.2891 3.4190
294 33.3333 66.6667 0.0000 18.8903 31.3739 6.0062
295 100.0000 91.7647 100.0000 88.7762 87.4524 106.8087
296 100.0000 33.3333 16.8627 45.4258 28.6521 6.3449
297 41.1765 37.2549 41.1765 13.2935 13.0855 16.0021
298 33.3333 33.3333 100.0000 25.7449 16.4918 96.4341
299 100.0000 100.0000 100.0000 95.0500 100.0000 108.9000
300 10.1961 10.1961 10.1961 1.9225 2.0227 2.2027
301 80.0000 80.0000 80.0000 57.7704 60.7789 66.1882
302 0.0000 83.1372 66.6667 31.4417 50.4893 46.6843
303 66.6667 50.1961 100.0000 42.8738 31.8923 98.5039
304 33.3333 50.1961 66.6667 19.4845 21.0692 41.6358
305 0.0000 0.0000 66.6667 8.1336 3.8733 38.9149
306 16.8627 33.3333 33.3333 6.7761 8.5898 10.7553
307 94.5098 90.5882 94.5098 80.8719 82.3814 94.9718
308 66.6667 0.0000 83.1372 29.1271 14.1665 63.8098
309 16.8627 0.0000 50.1961 5.7941 3.0514 21.4475
310 0.0000 100.0000 91.7647 51.0557 77.6859 90.3135
311 33.3333 50.1961 50.1961 16.1586 19.7389 24.1223
312 16.8627 16.8627 83.1372 14.5569 7.9249 63.3730
313 83.1372 66.6667 16.8627 42.4930 43.4917 9.3638
314 0.0000 0.0000 16.8627 1.3822 1.1727 3.3622
315 100.0000 33.3333 83.1372 56.7589 33.1854 66.0244
316 16.8627 50.1961 66.6667 16.7619 19.6657 41.5084
317 33.3333 66.6667 33.3333 20.5136 32.0233 14.5544
318 0.0000 16.8627 100.0000 19.6752 9.8583 95.4736
319 16.8627 33.3333 50.1961 9.0101 9.4834 22.5195
320 0.0000 66.6667 16.8627 15.6132 29.6346 8.1059
321 16.8627 16.8627 0.0000 2.7920 3.2189 1.4202
322 50.1961 50.1961 83.1372 29.1704 25.5332 66.0015
323 0.0000 50.1961 0.0000 8.5925 16.2840 3.6363
324 32.1569 32.1569 36.0784 9.2949 9.5151 12.3167
325 16.8627 83.1372 50.1961 29.1022 49.6675 29.2169
326 33.3333 66.6667 83.1372 30.6552 36.0799 67.9590
327 50.1961 50.1961 0.0000 17.4055 20.8273 4.0488
328 83.1372 16.8627 0.0000 28.6856 16.5676 2.6320
329 0.0000 16.8627 33.3333 3.4290 3.3598 9.9222
330 33.3333 100.0000 16.8627 40.4934 73.8895 15.3366
331 50.1961 33.3333 100.0000 30.8491 19.1231 96.6729
332 61.1765 57.2549 61.1765 30.6405 30.7257 36.3998
333 0.0000 100.0000 66.6667 43.5360 74.6781 50.7157
334 25.4902 25.4902 29.4118 6.2374 6.3583 8.4346
335 100.0000 0.0000 50.1961 45.6354 23.5903 23.3121
336 0.0000 91.7647 100.0000 47.9486 66.4050 104.8980
337 91.7647 100.0000 0.0000 69.9453 89.1223 14.4619
338 23.9216 27.8431 27.8431 6.2124 6.8940 7.8509
339 83.1372 16.8627 50.1961 32.5429 18.1105 22.9444
340 66.6667 100.0000 16.8627 53.1964 80.4381 15.9311
341 0.0000 2.3529 0.0000 1.0150 1.1289 1.1105
342 90.1961 90.1961 90.1961 75.4112 79.3385 86.3996
343 25.0980 25.0980 25.0980 5.7749 6.0757 6.6164
344 92.1569 92.1569 96.0784 80.5967 83.8347 98.4022
345 83.1372 0.0000 50.1961 31.6877 16.4000 22.6593
346 66.6667 66.6667 66.6667 38.7764 40.7958 44.4266
347 2.7451 0.0000 0.0000 1.0372 1.0447 1.0931
348 69.8039 69.8039 69.8039 42.8437 45.0749 49.0866
349 83.1372 100.0000 50.1961 67.0901 87.2048 34.4601
350 52.1569 52.1569 56.0784 23.7386 24.5073 30.1520
351 100.0000 100.0000 33.3333 78.8038 93.5015 23.3487
352 91.7647 0.0000 0.0000 34.5429 18.3175 2.6611
353 50.1961 16.8627 83.1372 22.3836 11.9597 63.7393
354 83.1372 0.0000 16.8627 28.2620 15.0298 4.6202
355 100.0000 83.1372 50.1961 68.9435 70.2064 31.0814
356 33.3333 16.8627 16.8627 5.9463 4.7951 3.8209
357 66.6667 0.0000 100.0000 35.2318 16.6084 95.9566
358 7.8431 7.8431 3.9216 1.5380 1.6642 1.4705
359 66.6667 50.1961 0.0000 25.0043 24.7445 4.4044
360 100.0000 100.0000 8.2353 77.3145 92.9058 15.5062
361 67.8431 67.8431 63.9216 39.3506 42.0016 41.2830
362 0.0000 66.6667 0.0000 15.1815 29.4620 5.8327
363 66.6667 83.1372 100.0000 58.5398 63.2245 103.7259
364 0.0000 0.0000 83.1372 12.7153 5.7059 63.0417
365 83.1372 50.1961 66.6667 42.6555 33.0143 42.7202
366 100.0000 16.8627 50.1961 46.4907 25.3008 23.5971
367 29.4118 25.4902 25.4902 6.6391 6.6015 6.8214
368 33.3333 83.1372 100.0000 45.8369 56.6759 103.1314
369 66.6667 66.6667 0.0000 31.5933 37.9225 6.6007
370 40.0000 40.0000 40.0000 13.4533 14.1540 15.4137
371 50.1961 83.1372 50.1961 36.9289 53.7023 29.5832
372 14.9020 14.9020 14.9020 2.7744 2.9189 3.1786
373 78.8235 78.8235 82.7451 57.1151 59.3050 70.3945
374 100.0000 0.0000 0.0000 41.7781 22.0474 2.9997
375 0.0000 0.0000 91.7647 15.6533 6.8811 78.5127
376 50.5882 54.5098 54.5098 23.6671 25.7465 28.8501
377 33.3333 33.3333 83.1372 19.6402 14.0499 64.2873
378 66.6667 0.0000 50.1961 21.2196 11.0035 22.1694
379 0.0000 33.3333 33.3333 5.7898 8.0813 10.7092
380 85.4902 85.4902 89.4118 68.2591 70.9432 83.7066
381 50.1961 66.6667 33.3333 25.6178 34.6546 14.7933
382 9.4118 5.4902 5.4902 1.5574 1.5346 1.5715
383 100.0000 100.0000 97.2549 93.9543 99.5617 103.1304
384 50.1961 83.1372 66.6667 40.2548 55.0327 47.0967
385 0.0000 16.8627 16.8627 2.2374 2.8832 3.6473
386 98.8235 97.6471 97.6471 91.1588 95.3335 103.2690
387 100.0000 33.3333 66.6667 52.1773 31.3527 41.8976
388 0.0000 0.0000 1.9608 0.9776 1.0108 1.2318
389 0.0000 83.1372 100.0000 42.1280 54.7639 102.9578
390 33.3333 16.8627 33.3333 7.1379 5.2718 10.0958
391 100.0000 91.7647 0.0000 70.9067 80.3046 12.7092
392 100.0000 50.1961 50.1961 53.2774 38.8743 25.8594
393 33.3333 33.3333 16.8627 8.3070 9.5167 4.6078
394 87.8431 83.9216 87.8431 68.5097 69.6290 80.5908
395 16.8627 33.3333 100.0000 23.0223 15.0883 96.3067
396 50.1961 100.0000 16.8627 45.5977 76.5208 15.5755
397 16.8627 16.8627 100.0000 20.6615 10.3667 95.5197
398 85.0980 85.0980 85.0980 66.2435 69.6933 75.8960
399 83.1372 0.0000 100.0000 45.6999 22.0049 96.4465
400 83.1372 83.1372 50.1961 54.9957 63.0161 30.4287
401 34.9020 34.9020 34.9020 10.3509 10.8900 11.8592
402 83.1372 0.0000 66.6667 35.0135 17.7303 40.1729
403 100.0000 50.1961 66.6667 56.6032 40.2046 43.3729
404 33.3333 83.1372 66.6667 35.1505 52.4013 46.8578
405 36.0784 32.1569 32.1569 9.8149 9.8299 10.2290
406 0.0000 33.3333 83.1372 15.9313 12.1380 64.1137
407 83.1372 100.0000 66.6667 70.4159 88.5351 51.9737
408 22.7451 18.8235 18.8235 4.2525 4.1946 4.2999
409 100.0000 33.3333 50.1961 48.8514 30.0224 24.3841
410 83.1372 0.0000 0.0000 27.8304 14.8571 2.3470
411 50.1961 16.8627 16.8627 11.0505 7.4265 4.0597
412 0.0000 50.1961 33.3333 10.2158 16.9333 12.1845
413 74.5098 74.5098 70.5882 48.3585 51.5587 51.0973
414 33.3333 100.0000 33.3333 41.6850 74.3661 21.6115
415 83.1372 16.8627 33.3333 30.3089 17.2169 11.1802
416 74.5098 70.5882 74.5098 47.3327 47.8343 55.9124
417 0.0000 16.8627 50.1961 5.6631 4.2534 21.6864
418 0.0000 91.7647 0.0000 30.0791 59.2572 10.7985
419 100.0000 0.0000 8.2353 41.9121 22.1010 3.7054
420 54.5098 54.5098 50.5882 24.5546 26.2838 25.2864
421 33.3333 16.8627 66.6667 12.6977 7.4957 39.3736
422 5.4902 5.4902 9.4118 1.4485 1.4687 2.0087
423 83.1372 16.8627 16.8627 29.1173 16.7402 4.9053
424 33.3333 50.1961 83.1372 24.0662 22.9019 65.7626
425 0.0000 33.3333 66.6667 11.3497 10.3053 39.9869
426 83.1372 83.1372 0.0000 51.1384 61.4732 10.1163
427 20.0000 20.0000 20.0000 4.0656 4.2774 4.6581
428 50.1961 33.3333 83.1372 24.7444 16.6813 64.5262
429 33.3333 83.1372 50.1961 31.8247 51.0710 29.3443
430 100.0000 66.6667 50.1961 59.8664 52.0523 28.0557
431 50.1961 66.6667 66.6667 31.1777 36.8785 44.0710
432 66.6667 83.1372 33.3333 42.2936 56.7260 18.1746
433 16.8627 66.6667 83.1372 27.9326 34.6763 67.8316
434 50.1961 0.0000 0.0000 9.7636 5.5433 1.5014
435 33.3333 50.1961 0.0000 12.3013 18.1959 3.8099
436 85.4902 89.4118 85.4902 69.5691 75.6996 77.5573
437 100.0000 100.0000 66.6667 84.3636 95.7255 52.6264
438 66.6667 33.3333 0.0000 20.5783 15.8926 2.9291
439 100.0000 50.1961 100.0000 67.2896 44.4792 99.6465
440 50.1961 0.0000 83.1372 21.5284 10.2492 63.4542
441 100.0000 16.8627 0.0000 42.6333 23.7579 3.2848
442 0.0000 83.1372 50.1961 28.1159 49.1590 29.1707
443 66.6667 66.6667 83.1372 43.3581 42.6285 68.5535
444 14.5098 10.5882 14.5098 2.4244 2.2976 2.9945
445 50.1961 83.1372 100.0000 50.9411 59.3072 103.3703
446 66.6667 16.8627 0.0000 18.2175 11.1711 2.1421
447 27.8431 23.9216 27.8431 6.3011 6.0807 7.6893
448 33.3333 66.6667 100.0000 36.7598 38.5217 100.1057
449 33.3333 33.3333 50.1961 11.7327 10.8869 22.6469
450 33.3333 66.6667 16.8627 19.3220 31.5466 8.2795
451 47.8431 43.9216 47.8431 18.1102 17.9597 21.6864
452 100.0000 0.0000 91.7647 56.4809 27.9285 80.4234
453 100.0000 66.6667 83.1372 67.7739 55.2153 69.6961
454 16.8627 100.0000 50.1961 41.1965 73.8562 33.2483
455 16.8627 33.3333 0.0000 5.1528 7.9405 2.2072
456 50.1961 83.1372 16.8627 33.5033 52.3321 11.5440
457 33.3333 66.6667 66.6667 26.0735 34.2472 43.8321
458 50.1961 66.6667 16.8627 24.4262 34.1779 8.5183
459 16.8627 83.1372 33.3333 26.8681 48.7739 17.4527
460 16.8627 50.1961 0.0000 9.5788 16.7924 3.6825
461 33.3333 33.3333 33.3333 9.4987 9.9933 10.8827
462 83.1372 0.0000 83.1372 39.5952 19.5630 64.2997
