assets/charts/pharmacist/rgb/colormunki/a4/abw702/abw702.ti1
CTI1   

DESCRIPTOR "Argyll Calibration Target chart information 1"
ORIGINATOR "ChromIQ"
APPROX_WHITE_POINT "95.050000 100.000000 108.900000"
COLOR_REP "RGB"
WHITE_COLOR_PATCHES "6"
BLACK_COLOR_PATCHES "5"
CREATED "Sun May 31 08:24:55 2026"

NUMBER_OF_FIELDS 7
BEGIN_DATA_FORMAT
SAMPLE_ID RGB_R RGB_G RGB_B XYZ_X XYZ_Y XYZ_Z
END_DATA_FORMAT

NUMBER_OF_SETS 702
BEGIN_DATA
1 0.0000 0.0000 0.0000 0.9505 1.0000 1.0890
2 16.4706 0.0000 0.0000 1.8958 1.4873 1.1332
3 33.3333 0.0000 0.0000 4.6593 2.9120 1.2626
4 49.8039 0.0000 0.0000 9.6154 5.4669 1.4945
5 66.6667 0.0000 0.0000 17.3623 9.4606 1.8571
6 83.1373 0.0000 0.0000 27.8304 14.8571 2.3470
7 100.0000 0.0000 0.0000 41.7781 22.0474 2.9997
8 0.0000 16.4706 0.0000 1.7702 2.6394 1.3622
9 16.4706 16.4706 0.0000 2.7155 3.1267 1.4065
10 33.3333 16.4706 0.0000 5.4790 4.5514 1.5358
11 49.8039 16.4706 0.0000 10.4351 7.1063 1.7677
12 66.6667 16.4706 0.0000 18.1820 11.1000 2.1303
13 83.1373 16.4706 0.0000 28.6500 16.4964 2.6202
14 100.0000 16.4706 0.0000 42.5978 23.6868 3.2729
15 0.0000 33.3333 0.0000 4.1665 7.4320 2.1610
16 16.4706 33.3333 0.0000 5.1118 7.9193 2.2052
17 33.3333 33.3333 0.0000 7.8754 9.3440 2.3346
18 49.8039 33.3333 0.0000 12.8314 11.8989 2.5665
19 66.6667 33.3333 0.0000 20.5783 15.8926 2.9291
20 83.1373 33.3333 0.0000 31.0464 21.2891 3.4190
21 100.0000 33.3333 0.0000 44.9941 28.4794 4.0717
22 0.0000 49.8039 0.0000 8.4640 16.0270 3.5935
23 16.4706 49.8039 0.0000 9.4093 16.5143 3.6377
24 33.3333 49.8039 0.0000 12.1728 17.9389 3.7671
25 49.8039 49.8039 0.0000 17.1289 20.4939 3.9990
26 66.6667 49.8039 0.0000 24.8758 24.4875 4.3616
27 83.1373 49.8039 0.0000 35.3438 29.8840 4.8514
28 100.0000 49.8039 0.0000 49.2916 37.0744 5.5042
29 0.0000 66.6667 0.0000 15.1815 29.4620 5.8327
30 16.4706 66.6667 0.0000 16.1268 29.9493 5.8769
31 33.3333 66.6667 0.0000 18.8903 31.3739 6.0062
32 49.8039 66.6667 0.0000 23.8464 33.9289 6.2382
33 66.6667 66.6667 0.0000 31.5933 37.9225 6.6007
34 83.1373 66.6667 0.0000 42.0613 43.3190 7.0906
35 100.0000 66.6667 0.0000 56.0091 50.5094 7.7434
36 0.0000 83.1373 0.0000 24.2585 47.6161 8.8583
37 16.4706 83.1373 0.0000 25.2038 48.1034 8.9026
38 33.3333 83.1373 0.0000 27.9674 49.5281 9.0319
39 49.8039 83.1373 0.0000 32.9234 52.0830 9.2639
40 66.6667 83.1373 0.0000 40.6703 56.0767 9.6264
41 83.1373 83.1373 0.0000 51.1384 61.4732 10.1163
42 100.0000 83.1373 0.0000 65.0861 68.6635 10.7690
43 0.0000 100.0000 0.0000 36.3529 71.8048 12.8898
44 16.4706 100.0000 0.0000 37.2982 72.2921 12.9340
45 33.3333 100.0000 0.0000 40.0617 73.7168 13.0634
46 49.8039 100.0000 0.0000 45.0178 76.2717 13.2953
47 66.6667 100.0000 0.0000 52.7647 80.2654 13.6579
48 83.1373 100.0000 0.0000 63.2328 85.6619 14.1478
49 100.0000 100.0000 0.0000 77.1805 92.8522 14.8005
50 0.0000 0.0000 16.4706 1.3642 1.1655 3.2677
51 16.4706 0.0000 16.4706 2.3095 1.6528 3.3120
52 33.3333 0.0000 16.4706 5.0731 3.0775 3.4413
53 49.8039 0.0000 16.4706 10.0291 5.6324 3.6732
54 66.6667 0.0000 16.4706 17.7760 9.6261 4.0358
55 83.1373 0.0000 16.4706 28.2441 15.0226 4.5257
56 100.0000 0.0000 16.4706 42.1918 22.2129 5.1784
57 0.0000 16.4706 16.4706 2.1839 2.8049 3.5409
58 16.4706 16.4706 16.4706 3.1292 3.2922 3.5852
59 33.3333 16.4706 16.4706 5.8928 4.7168 3.7145
60 49.8039 16.4706 16.4706 10.8488 7.2718 3.9465
61 66.6667 16.4706 16.4706 18.5957 11.2655 4.3090
62 83.1373 16.4706 16.4706 29.0638 16.6619 4.7989
63 100.0000 16.4706 16.4706 43.0115 23.8523 5.4516
64 0.0000 33.3333 16.4706 4.5803 7.5975 4.3397
65 16.4706 33.3333 16.4706 5.5256 8.0848 4.3840
66 33.3333 33.3333 16.4706 8.2891 9.5095 4.5133
67 49.8039 33.3333 16.4706 13.2451 12.0644 4.7452
68 66.6667 33.3333 16.4706 20.9920 16.0581 5.1078
69 83.1373 33.3333 16.4706 31.4601 21.4546 5.5977
70 100.0000 33.3333 16.4706 45.4079 28.6449 6.2504
71 0.0000 49.8039 16.4706 8.8777 16.1925 5.7722
72 16.4706 49.8039 16.4706 9.8230 16.6798 5.8165
73 33.3333 49.8039 16.4706 12.5866 18.1044 5.9458
74 49.8039 49.8039 16.4706 17.5426 20.6594 6.1777
75 66.6667 49.8039 16.4706 25.2895 24.6530 6.5403
76 83.1373 49.8039 16.4706 35.7576 30.0495 7.0302
77 100.0000 49.8039 16.4706 49.7053 37.2399 7.6829
78 0.0000 66.6667 16.4706 15.5952 29.6275 8.0114
79 16.4706 66.6667 16.4706 16.5405 30.1148 8.0556
80 33.3333 66.6667 16.4706 19.3041 31.5394 8.1850
81 49.8039 66.6667 16.4706 24.2601 34.0944 8.4169
82 66.6667 66.6667 16.4706 32.0070 38.0880 8.7794
83 83.1373 66.6667 16.4706 42.4751 43.4845 9.2693
84 100.0000 66.6667 16.4706 56.4228 50.6749 9.9221
85 0.0000 83.1373 16.4706 24.6723 47.7816 11.0371
86 16.4706 83.1373 16.4706 25.6176 48.2689 11.0813
87 33.3333 83.1373 16.4706 28.3811 49.6936 11.2106
88 49.8039 83.1373 16.4706 33.3372 52.2485 11.4426
89 66.6667 83.1373 16.4706 41.0841 56.2422 11.8051
90 83.1373 83.1373 16.4706 51.5522 61.6387 12.2950
91 100.0000 83.1373 16.4706 65.4999 68.8290 12.9478
92 0.0000 100.0000 16.4706 36.7666 71.9703 15.0685
93 16.4706 100.0000 16.4706 37.7119 72.4576 15.1128
94 33.3333 100.0000 16.4706 40.4755 73.8823 15.2421
95 49.8039 100.0000 16.4706 45.4315 76.4372 15.4740
96 66.6667 100.0000 16.4706 53.1784 80.4309 15.8366
97 83.1373 100.0000 16.4706 63.6465 85.8274 16.3265
98 100.0000 100.0000 16.4706 77.5942 93.0177 16.9792
99 0.0000 0.0000 33.3333 2.5738 1.6493 9.6372
100 16.4706 0.0000 33.3333 3.5191 2.1366 9.6814
101 33.3333 0.0000 33.3333 6.2826 3.5613 9.8107
102 49.8039 0.0000 33.3333 11.2387 6.1162 10.0427
103 66.6667 0.0000 33.3333 18.9856 10.1099 10.4052
104 83.1373 0.0000 33.3333 29.4537 15.5064 10.8951
105 100.0000 0.0000 33.3333 43.4014 22.6967 11.5479
106 0.0000 16.4706 33.3333 3.3935 3.2887 9.9104
107 16.4706 16.4706 33.3333 4.3388 3.7760 9.9546
108 33.3333 16.4706 33.3333 7.1023 5.2007 10.0840
109 49.8039 16.4706 33.3333 12.0584 7.7556 10.3159
110 66.6667 16.4706 33.3333 19.8053 11.7493 10.6784
111 83.1373 16.4706 33.3333 30.2733 17.1458 11.1683
112 100.0000 16.4706 33.3333 44.2211 24.3361 11.8211
113 0.0000 33.3333 33.3333 5.7898 8.0813 10.7092
114 16.4706 33.3333 33.3333 6.7351 8.5687 10.7534
115 33.3333 33.3333 33.3333 9.4987 9.9933 10.8827
116 49.8039 33.3333 33.3333 14.4547 12.5483 11.1147
117 66.6667 33.3333 33.3333 22.2016 16.5419 11.4772
118 83.1373 33.3333 33.3333 32.6697 21.9384 11.9671
119 100.0000 33.3333 33.3333 46.6174 29.1287 12.6199
120 0.0000 49.8039 33.3333 10.0873 16.6763 12.1417
121 16.4706 49.8039 33.3333 11.0326 17.1636 12.1859
122 33.3333 49.8039 33.3333 13.7961 18.5883 12.3152
123 49.8039 49.8039 33.3333 18.7521 21.1432 12.5472
124 66.6667 49.8039 33.3333 26.4991 25.1369 12.9097
125 83.1373 49.8039 33.3333 36.9671 30.5334 13.3996
126 100.0000 49.8039 33.3333 50.9149 37.7237 14.0524
127 0.0000 66.6667 33.3333 16.8048 30.1113 14.3808
128 16.4706 66.6667 33.3333 17.7501 30.5986 14.4251
129 33.3333 66.6667 33.3333 20.5136 32.0233 14.5544
130 49.8039 66.6667 33.3333 25.4696 34.5782 14.7863
131 66.6667 66.6667 33.3333 33.2166 38.5719 15.1489
132 83.1373 66.6667 33.3333 43.6846 43.9684 15.6388
133 100.0000 66.6667 33.3333 57.6324 51.1587 16.2915
134 0.0000 83.1373 33.3333 25.8818 48.2654 17.4065
135 16.4706 83.1373 33.3333 26.8271 48.7527 17.4507
136 33.3333 83.1373 33.3333 29.5907 50.1774 17.5801
137 49.8039 83.1373 33.3333 34.5467 52.7323 17.8120
138 66.6667 83.1373 33.3333 42.2936 56.7260 18.1746
139 83.1373 83.1373 33.3333 52.7617 62.1225 18.6645
140 100.0000 83.1373 33.3333 66.7094 69.3128 19.3172
141 0.0000 100.0000 33.3333 37.9762 72.4541 21.4380
142 16.4706 100.0000 33.3333 38.9215 72.9414 21.4822
143 33.3333 100.0000 33.3333 41.6850 74.3661 21.6115
144 49.8039 100.0000 33.3333 46.6411 76.9210 21.8435
145 66.6667 100.0000 33.3333 54.3880 80.9147 22.2060
146 83.1373 100.0000 33.3333 64.8561 86.3112 22.6959
147 100.0000 100.0000 33.3333 78.8038 93.5015 23.3487
148 0.0000 0.0000 49.8039 4.7430 2.5170 21.0598
149 16.4706 0.0000 49.8039 5.6883 3.0043 21.1040
150 33.3333 0.0000 49.8039 8.4518 4.4290 21.2334
151 49.8039 0.0000 49.8039 13.4078 6.9839 21.4653
152 66.6667 0.0000 49.8039 21.1547 10.9776 21.8279
153 83.1373 0.0000 49.8039 31.6228 16.3741 22.3178
154 100.0000 0.0000 49.8039 45.5706 23.5644 22.9705
155 0.0000 16.4706 49.8039 5.5626 4.1564 21.3330
156 16.4706 16.4706 49.8039 6.5079 4.6437 21.3773
157 33.3333 16.4706 49.8039 9.2715 6.0683 21.5066
158 49.8039 16.4706 49.8039 14.2275 8.6233 21.7385
159 66.6667 16.4706 49.8039 21.9744 12.6169 22.1011
160 83.1373 16.4706 49.8039 32.4425 18.0134 22.5910
161 100.0000 16.4706 49.8039 46.3902 25.2038 23.2437
162 0.0000 33.3333 49.8039 7.9590 8.9490 22.1318
163 16.4706 33.3333 49.8039 8.9043 9.4363 22.1761
164 33.3333 33.3333 49.8039 11.6678 10.8610 22.3054
165 49.8039 33.3333 49.8039 16.6238 13.4159 22.5373
166 66.6667 33.3333 49.8039 24.3708 17.4096 22.8999
167 83.1373 33.3333 49.8039 34.8388 22.8061 23.3898
168 100.0000 33.3333 49.8039 48.7866 29.9964 24.0425
169 0.0000 49.8039 49.8039 12.2564 17.5439 23.5643
170 16.4706 49.8039 49.8039 13.2017 18.0313 23.6085
171 33.3333 49.8039 49.8039 15.9653 19.4559 23.7379
172 49.8039 49.8039 49.8039 20.9213 22.0108 23.9698
173 66.6667 49.8039 49.8039 28.6682 26.0045 24.3324
174 83.1373 49.8039 49.8039 39.1363 31.4010 24.8223
175 100.0000 49.8039 49.8039 53.0840 38.5913 25.4750
176 0.0000 66.6667 49.8039 18.9739 30.9789 25.8035
177 16.4706 66.6667 49.8039 19.9192 31.4663 25.8477
178 33.3333 66.6667 49.8039 22.6828 32.8909 25.9770
179 49.8039 66.6667 49.8039 27.6388 35.4458 26.2090
180 66.6667 66.6667 49.8039 35.3857 39.4395 26.5715
181 83.1373 66.6667 49.8039 45.8538 44.8360 27.0614
182 100.0000 66.6667 49.8039 59.8015 52.0263 27.7142
183 0.0000 83.1373 49.8039 28.0510 49.1331 28.8292
184 16.4706 83.1373 49.8039 28.9963 49.6204 28.8734
185 33.3333 83.1373 49.8039 31.7599 51.0451 29.0027
186 49.8039 83.1373 49.8039 36.7159 53.6000 29.2347
187 66.6667 83.1373 49.8039 44.4628 57.5937 29.5972
188 83.1373 83.1373 49.8039 54.9309 62.9902 30.0871
189 100.0000 83.1373 49.8039 68.8786 70.1805 30.7399
190 0.0000 100.0000 49.8039 40.1454 73.3218 32.8606
191 16.4706 100.0000 49.8039 41.0907 73.8091 32.9048
192 33.3333 100.0000 49.8039 43.8542 75.2338 33.0342
193 49.8039 100.0000 49.8039 48.8102 77.7887 33.2661
194 66.6667 100.0000 49.8039 56.5571 81.7824 33.6287
195 83.1373 100.0000 49.8039 67.0252 87.1789 34.1186
196 100.0000 100.0000 49.8039 80.9730 94.3692 34.7713
197 0.0000 0.0000 66.6667 8.1336 3.8733 38.9149
198 16.4706 0.0000 66.6667 9.0789 4.3606 38.9591
199 33.3333 0.0000 66.6667 11.8425 5.7852 39.0885
200 49.8039 0.0000 66.6667 16.7985 8.3402 39.3204
201 66.6667 0.0000 66.6667 24.5454 12.3338 39.6830
202 83.1373 0.0000 66.6667 35.0135 17.7303 40.1729
203 100.0000 0.0000 66.6667 48.9612 24.9207 40.8256
204 0.0000 16.4706 66.6667 8.9533 5.5126 39.1881
205 16.4706 16.4706 66.6667 9.8986 5.9999 39.2324
206 33.3333 16.4706 66.6667 12.6622 7.4246 39.3617
207 49.8039 16.4706 66.6667 17.6182 9.9795 39.5936
208 66.6667 16.4706 66.6667 25.3651 13.9732 39.9562
209 83.1373 16.4706 66.6667 35.8332 19.3697 40.4461
210 100.0000 16.4706 66.6667 49.7809 26.5600 41.0988
211 0.0000 33.3333 66.6667 11.3497 10.3053 39.9869
212 16.4706 33.3333 66.6667 12.2950 10.7926 40.0312
213 33.3333 33.3333 66.6667 15.0585 12.2173 40.1605
214 49.8039 33.3333 66.6667 20.0145 14.7722 40.3924
215 66.6667 33.3333 66.6667 27.7614 18.7659 40.7550
216 83.1373 33.3333 66.6667 38.2295 24.1624 41.2449
217 100.0000 33.3333 66.6667 52.1773 31.3527 41.8976
218 0.0000 49.8039 66.6667 15.6471 18.9002 41.4194
219 16.4706 49.8039 66.6667 16.5924 19.3875 41.4636
220 33.3333 49.8039 66.6667 19.3560 20.8122 41.5930
221 49.8039 49.8039 66.6667 24.3120 23.3671 41.8249
222 66.6667 49.8039 66.6667 32.0589 27.3608 42.1875
223 83.1373 49.8039 66.6667 42.5270 32.7573 42.6774
224 100.0000 49.8039 66.6667 56.4747 39.9476 43.3301
225 0.0000 66.6667 66.6667 22.3646 32.3352 43.6586
226 16.4706 66.6667 66.6667 23.3099 32.8225 43.7028
227 33.3333 66.6667 66.6667 26.0735 34.2472 43.8321
228 49.8039 66.6667 66.6667 31.0295 36.8021 44.0641
229 66.6667 66.6667 66.6667 38.7764 40.7958 44.4266
230 83.1373 66.6667 66.6667 49.2445 46.1923 44.9165
231 100.0000 66.6667 66.6667 63.1922 53.3826 45.5693
232 0.0000 83.1373 66.6667 31.4417 50.4894 46.6843
233 16.4706 83.1373 66.6667 32.3870 50.9767 46.7285
234 33.3333 83.1373 66.6667 35.1505 52.4013 46.8578
235 49.8039 83.1373 66.6667 40.1066 54.9563 47.0898
236 66.6667 83.1373 66.6667 47.8535 58.9499 47.4523
237 83.1373 83.1373 66.6667 58.3216 64.3464 47.9422
238 100.0000 83.1373 66.6667 72.2693 71.5368 48.5950
239 0.0000 100.0000 66.6667 43.5360 74.6781 50.7157
240 16.4706 100.0000 66.6667 44.4813 75.1654 50.7599
241 33.3333 100.0000 66.6667 47.2449 76.5900 50.8893
242 49.8039 100.0000 66.6667 52.2009 79.1450 51.1212
243 66.6667 100.0000 66.6667 59.9478 83.1386 51.4838
244 83.1373 100.0000 66.6667 70.4159 88.5351 51.9737
245 100.0000 100.0000 66.6667 84.3636 95.7255 52.6264
246 0.0000 0.0000 83.1373 12.7153 5.7059 63.0417
247 16.4706 0.0000 83.1373 13.6606 6.1932 63.0860
248 33.3333 0.0000 83.1373 16.4242 7.6179 63.2153
249 49.8039 0.0000 83.1373 21.3802 10.1728 63.4473
250 66.6667 0.0000 83.1373 29.1271 14.1665 63.8098
251 83.1373 0.0000 83.1373 39.5952 19.5630 64.2997
252 100.0000 0.0000 83.1373 53.5429 26.7533 64.9524
253 0.0000 16.4706 83.1373 13.5350 7.3453 63.3150
254 16.4706 16.4706 83.1373 14.4803 7.8326 63.3592
255 33.3333 16.4706 83.1373 17.2439 9.2573 63.4885
256 49.8039 16.4706 83.1373 22.1999 11.8122 63.7205
257 66.6667 16.4706 83.1373 29.9468 15.8059 64.0830
258 83.1373 16.4706 83.1373 40.4149 21.2024 64.5729
259 100.0000 16.4706 83.1373 54.3626 28.3927 65.2257
260 0.0000 33.3333 83.1373 15.9313 12.1380 64.1137
261 16.4706 33.3333 83.1373 16.8766 12.6253 64.1580
262 33.3333 33.3333 83.1373 19.6402 14.0499 64.2873
263 49.8039 33.3333 83.1373 24.5962 16.6049 64.5193
264 66.6667 33.3333 83.1373 32.3431 20.5985 64.8818
265 83.1373 33.3333 83.1373 42.8112 25.9950 65.3717
266 100.0000 33.3333 83.1373 56.7589 33.1854 66.0244
267 0.0000 49.8039 83.1373 20.2288 20.7329 65.5462
268 16.4706 49.8039 83.1373 21.1741 21.2202 65.5905
269 33.3333 49.8039 83.1373 23.9377 22.6449 65.7198
270 49.8039 49.8039 83.1373 28.8937 25.1998 65.9517
271 66.6667 49.8039 83.1373 36.6406 29.1935 66.3143
272 83.1373 49.8039 83.1373 47.1087 34.5900 66.8042
273 100.0000 49.8039 83.1373 61.0564 41.7803 67.4569
274 0.0000 66.6667 83.1373 26.9463 34.1679 67.7854
275 16.4706 66.6667 83.1373 27.8916 34.6552 67.8296
276 33.3333 66.6667 83.1373 30.6552 36.0799 67.9590
277 49.8039 66.6667 83.1373 35.6112 38.6348 68.1909
278 66.6667 66.6667 83.1373 43.3581 42.6285 68.5535
279 83.1373 66.6667 83.1373 53.8262 48.0250 69.0434
280 100.0000 66.6667 83.1373 67.7739 55.2153 69.6961
281 0.0000 83.1373 83.1373 36.0234 52.3220 70.8111
282 16.4706 83.1373 83.1373 36.9687 52.8093 70.8553
283 33.3333 83.1373 83.1373 39.7322 54.2340 70.9847
284 49.8039 83.1373 83.1373 44.6882 56.7889 71.2166
285 66.6667 83.1373 83.1373 52.4352 60.7826 71.5791
286 83.1373 83.1373 83.1373 62.9032 66.1791 72.0690
287 100.0000 83.1373 83.1373 76.8510 73.3694 72.7218
288 0.0000 100.0000 83.1373 48.1177 76.5107 74.8425
289 16.4706 100.0000 83.1373 49.0630 76.9980 74.8868
290 33.3333 100.0000 83.1373 51.8266 78.4227 75.0161
291 49.8039 100.0000 83.1373 56.7826 80.9776 75.2481
292 66.6667 100.0000 83.1373 64.5295 84.9713 75.6106
293 83.1373 100.0000 83.1373 74.9976 90.3678 76.1005
294 100.0000 100.0000 83.1373 88.9453 97.5581 76.7532
295 0.0000 0.0000 100.0000 18.8200 8.1478 95.1885
296 16.4706 0.0000 100.0000 19.7653 8.6351 95.2327
297 33.3333 0.0000 100.0000 22.5288 10.0598 95.3621
298 49.8039 0.0000 100.0000 27.4849 12.6147 95.5940
299 66.6667 0.0000 100.0000 35.2318 16.6084 95.9566
300 83.1373 0.0000 100.0000 45.6999 22.0049 96.4465
301 100.0000 0.0000 100.0000 59.6476 29.1952 97.0992
302 0.0000 16.4706 100.0000 19.6397 9.7872 95.4617
303 16.4706 16.4706 100.0000 20.5850 10.2745 95.5060
304 33.3333 16.4706 100.0000 23.3485 11.6992 95.6353
305 49.8039 16.4706 100.0000 28.3046 14.2541 95.8672
306 66.6667 16.4706 100.0000 36.0515 18.2478 96.2298
307 83.1373 16.4706 100.0000 46.5195 23.6442 96.7197
308 100.0000 16.4706 100.0000 60.4673 30.8346 97.3724
309 0.0000 33.3333 100.0000 22.0360 14.5798 96.2605
310 16.4706 33.3333 100.0000 22.9813 15.0671 96.3047
311 33.3333 33.3333 100.0000 25.7449 16.4918 96.4341
312 49.8039 33.3333 100.0000 30.7009 19.0467 96.6660
313 66.6667 33.3333 100.0000 38.4478 23.0404 97.0286
314 83.1373 33.3333 100.0000 48.9159 28.4369 97.5185
315 100.0000 33.3333 100.0000 62.8636 35.6272 98.1712
316 0.0000 49.8039 100.0000 26.3335 23.1748 97.6930
317 16.4706 49.8039 100.0000 27.2788 23.6621 97.7372
318 33.3333 49.8039 100.0000 30.0423 25.0867 97.8666
319 49.8039 49.8039 100.0000 34.9984 27.6417 98.0985
320 66.6667 49.8039 100.0000 42.7453 31.6353 98.4611
321 83.1373 49.8039 100.0000 53.2133 37.0318 98.9509
322 100.0000 49.8039 100.0000 67.1611 44.2222 99.6037
323 0.0000 66.6667 100.0000 33.0510 36.6098 99.9322
324 16.4706 66.6667 100.0000 33.9963 37.0971 99.9764
325 33.3333 66.6667 100.0000 36.7598 38.5217 100.1057
326 49.8039 66.6667 100.0000 41.7159 41.0767 100.3377
327 66.6667 66.6667 100.0000 49.4628 45.0703 100.7002
328 83.1373 66.6667 100.0000 59.9308 50.4668 101.1901
329 100.0000 66.6667 100.0000 73.8786 57.6572 101.8429
330 0.0000 83.1373 100.0000 42.1280 54.7639 102.9578
331 16.4706 83.1373 100.0000 43.0733 55.2512 103.0021
332 33.3333 83.1373 100.0000 45.8369 56.6759 103.1314
333 49.8039 83.1373 100.0000 50.7929 59.2308 103.3634
334 66.6667 83.1373 100.0000 58.5398 63.2245 103.7259
335 83.1373 83.1373 100.0000 69.0079 68.6210 104.2158
336 100.0000 83.1373 100.0000 82.9556 75.8113 104.8685
337 0.0000 100.0000 100.0000 54.2224 78.9526 106.9893
338 16.4706 100.0000 100.0000 55.1677 79.4399 107.0335
339 33.3333 100.0000 100.0000 57.9312 80.8646 107.1629
340 49.8039 100.0000 100.0000 62.8873 83.4195 107.3948
341 66.6667 100.0000 100.0000 70.6342 87.4132 107.7574
342 83.1373 100.0000 100.0000 81.1023 92.8097 108.2473
343 100.0000 100.0000 100.0000 95.0500 100.0000 108.9000
344 6.6667 6.6667 8.2353 1.5118 1.5685 1.8715
345 6.6667 8.2353 6.6667 1.5450 1.6890 1.7157
346 8.2353 6.6667 6.6667 1.5553 1.5948 1.6969
347 13.7255 13.7255 16.8627 2.6634 2.7165 3.5927
348 13.7255 16.8627 13.7255 2.7923 3.1844 2.9878
349 16.8627 13.7255 13.7255 2.8322 2.8186 2.9151
350 20.3922 20.3922 25.0980 4.4844 4.5207 6.3843
351 20.3922 25.0980 20.3922 4.7812 5.5983 4.9910
352 25.0980 20.3922 20.3922 4.8731 4.7560 4.8236
353 27.4510 27.4510 33.7255 7.2822 7.2908 10.6856
354 27.4510 33.7255 27.4510 7.8400 9.3159 8.0674
355 33.7255 27.4510 27.4510 8.0126 7.7329 7.7528
356 34.5098 34.5098 41.9608 11.0169 11.0145 16.2623
357 34.5098 41.9608 34.5098 11.8837 14.1617 12.1934
358 41.9608 34.5098 34.5098 12.1519 11.7017 11.7045
359 41.1765 41.1765 50.5882 15.6418 15.5445 23.6832
360 41.1765 50.5882 41.1765 17.0140 20.5265 17.2423
361 50.5882 41.1765 41.1765 17.4386 16.6323 16.4683
362 48.2353 48.2353 59.2157 21.5794 21.4051 32.9257
363 48.2353 59.2157 48.2353 23.5325 28.4965 23.7577
364 59.2157 48.2353 48.2353 24.1369 22.9535 22.6559
365 55.2941 55.2941 67.4510 28.6267 28.4141 43.5612
366 55.2941 67.4510 55.2941 31.1898 37.7199 31.5302
367 67.4510 55.2941 55.2941 31.9829 30.4461 30.0844
368 61.9608 61.9608 76.0784 36.6549 36.2617 56.5419
369 61.9608 76.0784 61.9608 40.1188 48.8381 40.2826
370 76.0784 61.9608 61.9608 41.1906 39.0078 38.3286
371 69.0196 69.0196 84.3137 46.1891 45.7352 70.9865
372 69.0196 84.3137 69.0196 50.4915 61.3559 50.7913
373 84.3137 69.0196 69.0196 51.8228 49.1460 48.3644
374 76.0784 76.0784 92.9412 57.2082 56.6057 88.1764
375 76.0784 92.9412 76.0784 62.5977 76.1734 62.8783
376 92.9412 76.0784 76.0784 64.2654 60.8783 59.8382
377 82.7451 82.7451 100.0000 68.4767 67.9808 104.1202
378 82.7451 100.0000 82.7451 74.5885 90.1713 75.4314
379 100.0000 82.7451 82.7451 76.4797 72.8262 71.9838
380 0.0000 0.0000 0.0000 0.9505 1.0000 1.0890
381 3.1373 3.1373 3.1373 1.1790 1.2404 1.3508
382 6.2745 6.2745 6.2745 1.4381 1.5130 1.6476
383 9.4118 9.4118 9.4118 1.8100 1.9043 2.0738
384 12.5490 12.5490 12.5490 2.3097 2.4299 2.6462
385 15.6863 15.6863 15.6863 2.9472 3.1007 3.3766
386 18.8235 18.8235 18.8235 3.7318 3.9261 4.2756
387 21.9608 21.9608 21.9608 4.6718 4.9151 5.3525
388 25.0980 25.0980 25.0980 5.7749 6.0757 6.6164
389 28.2353 28.2353 28.2353 7.0485 7.4155 8.0755
390 31.3725 31.3725 31.3725 8.4991 8.9418 9.7376
391 34.5098 34.5098 34.5098 10.1334 10.6611 11.6100
392 37.6471 37.6471 37.6471 11.9574 12.5801 13.6997
393 40.7843 40.7843 40.7843 13.9768 14.7047 16.0135
394 43.9216 43.9216 43.9216 16.1974 17.0409 18.5575
395 47.0588 47.0588 47.0588 18.6243 19.5943 21.3381
396 50.1961 50.1961 50.1961 21.2629 22.3702 24.3611
397 53.3333 53.3333 53.3333 24.1179 25.3739 27.6322
398 56.4706 56.4706 56.4706 27.1943 28.6105 31.1569
399 59.6078 59.6078 59.6078 30.4967 32.0849 34.9404
400 62.7451 62.7451 62.7451 34.0295 35.8017 38.9881
401 65.8824 65.8824 65.8824 37.7973 39.7657 43.3048
402 69.0196 69.0196 69.0196 41.8041 43.9812 47.8955
403 72.1569 72.1569 72.1569 46.0543 48.4527 52.7650
404 75.2941 75.2941 75.2941 50.5518 53.1844 57.9178
405 78.4314 78.4314 78.4314 55.3005 58.1805 63.3585
406 81.5686 81.5686 81.5686 60.3044 63.4450 69.0916
407 84.7059 84.7059 84.7059 65.5672 68.9818 75.1212
408 87.8431 87.8431 87.8431 71.0927 74.7950 81.4518
409 90.9804 90.9804 90.9804 76.8843 80.8883 88.0873
410 94.1176 94.1176 94.1176 82.9457 87.2653 95.0320
411 97.2549 97.2549 97.2549 89.2804 93.9299 102.2896
412 100.0000 100.0000 100.0000 95.0500 100.0000 108.9000
413 12.5490 6.2745 6.2745 1.8162 1.7079 1.6653
414 18.8235 12.5490 12.5490 2.9267 2.7480 2.6751
415 25.0980 18.8235 18.8235 4.6183 4.3831 4.3170
416 31.3725 25.0980 25.0980 6.9569 6.6850 6.6717
417 37.6471 31.3725 31.3725 9.9996 9.7153 9.8078
418 43.9216 37.6471 37.6471 13.7970 13.5285 13.7858
419 50.1961 43.9216 43.9216 18.3952 18.1739 18.6604
420 56.4706 50.1961 50.1961 23.8364 23.6969 24.4816
421 62.7451 56.4706 56.4706 30.1600 30.1394 31.2957
422 69.0196 62.7451 62.7451 37.4028 37.5407 39.1459
423 75.2941 69.0196 69.0196 45.5995 45.9378 48.0732
424 81.5686 75.2941 75.2941 54.7832 55.3658 58.1158
425 87.8431 81.5686 81.5686 64.9852 65.8580 69.3106
426 94.1176 87.8431 87.8431 76.2354 77.4462 81.6925
427 100.0000 94.1176 94.1176 88.1975 89.9727 95.2777
428 9.4118 6.2745 6.2745 1.5995 1.5962 1.6552
429 15.6863 12.5490 12.5490 2.5863 2.5725 2.6592
430 21.9608 18.8235 18.8235 4.1396 4.1364 4.2946
431 28.2353 25.0980 25.0980 6.3275 6.3605 6.6423
432 34.5098 31.3725 31.3725 9.2082 9.3073 9.7708
433 40.7843 37.6471 37.6471 12.8336 13.0318 13.7407
434 47.0588 43.9216 43.9216 17.2504 17.5838 18.6068
435 53.3333 50.1961 50.1961 22.5016 23.0088 24.4191
436 59.6078 56.4706 56.4706 28.6271 29.3492 31.2239
437 65.8824 62.7451 62.7451 35.6643 36.6445 39.0646
438 72.1569 69.0196 69.0196 43.6482 44.9318 47.9818
439 78.4314 75.2941 75.2941 52.6121 54.2466 58.0142
440 84.7059 81.5686 81.5686 62.5878 64.6221 69.1984
441 90.9804 87.8431 87.8431 73.6055 76.0904 81.5694
442 97.2549 94.1176 94.1176 85.6942 88.6822 95.1606
443 100.0000 100.0000 100.0000 95.0500 100.0000 108.9000
444 6.2745 12.5490 6.2745 1.7660 2.1688 1.7569
445 12.5490 18.8235 12.5490 2.8447 3.5000 2.8246
446 18.8235 25.0980 18.8235 4.5005 5.4635 4.5318
447 25.0980 31.3725 25.0980 6.7998 8.1255 6.9580
448 31.3725 37.6471 31.3725 9.8002 11.5439 10.1713
449 37.6471 43.9216 37.6471 13.5526 15.7705 14.2315
450 43.9216 50.1961 43.9216 18.1031 20.8524 19.1928
451 50.1961 56.4706 50.1961 23.4944 26.8333 25.1050
452 56.4706 62.7451 56.4706 29.7659 33.7537 32.0141
