assets/charts/pharmacist/rgb/colormunki/a4/abw702/abw702.ti2
CTI2   

DESCRIPTOR "Argyll Calibration Target chart information 2"
ORIGINATOR "Argyll printtarg"
CREATED "Sun May 31 08:24:55 2026"
TARGET_INSTRUMENT "X-Rite ColorMunki"
APPROX_WHITE_POINT "95.050000 100.000000 108.900000"
COLOR_REP "RGB"
PAPER_SIZE "292.0x210.0"
RANDOM_START "577"
STEPS_IN_PASS "13"
PASSES_IN_STRIPS2 "27,27"
STRIP_INDEX_PATTERN "A-Z, A-Z"
PATCH_INDEX_PATTERN "0-9,@-9,@-9;1-999"
INDEX_ORDER "STRIP_THEN_PATCH"

NUMBER_OF_FIELDS 8
BEGIN_DATA_FORMAT
SAMPLE_ID SAMPLE_LOC RGB_R RGB_G RGB_B XYZ_X XYZ_Y XYZ_Z 
END_DATA_FORMAT

NUMBER_OF_SETS 702
BEGIN_DATA
1 "J8" 0.00000 0.00000 0.00000 0.950500 1.000000 1.089000 
2 "AD3" 16.47059 0.00000 0.00000 1.895800 1.487300 1.133200 
3 "AD5" 33.33333 0.00000 0.00000 4.659300 2.912000 1.262600 
4 "AC9" 49.80392 0.00000 0.00000 9.615400 5.466900 1.494500 
5 "AS4" 66.66667 0.00000 0.00000 17.36230 9.460600 1.857100 
6 "AM4" 83.13725 0.00000 0.00000 27.83040 14.85710 2.347000 
7 "B5" 100.0000 0.00000 0.00000 41.77810 22.04740 2.999700 
8 "AA2" 0.00000 16.47059 0.00000 1.770200 2.639400 1.362200 
9 "J7" 16.47059 16.47059 0.00000 2.715500 3.126700 1.406500 
10 "S2" 33.33333 16.47059 0.00000 5.479000 4.551400 1.535800 
11 "BB4" 49.80392 16.47059 0.00000 10.43510 7.106300 1.767700 
12 "AI7" 66.66667 16.47059 0.00000 18.18200 11.10000 2.130300 
13 "AU10" 83.13725 16.47059 0.00000 28.65000 16.49640 2.620200 
14 "AU3" 100.0000 16.47059 0.00000 42.59780 23.68680 3.272900 
15 "U9" 0.00000 33.33333 0.00000 4.166500 7.432000 2.161000 
16 "AG6" 16.47059 33.33333 0.00000 5.111800 7.919300 2.205200 
17 "AY13" 33.33333 33.33333 0.00000 7.875400 9.344000 2.334600 
18 "D10" 49.80392 33.33333 0.00000 12.83140 11.89890 2.566500 
19 "I10" 66.66667 33.33333 0.00000 20.57830 15.89260 2.929100 
20 "AP12" 83.13725 33.33333 0.00000 31.04640 21.28910 3.419000 
21 "V5" 100.0000 33.33333 0.00000 44.99410 28.47940 4.071700 
22 "P13" 0.00000 49.80392 0.00000 8.464000 16.02700 3.593500 
23 "AZ5" 16.47059 49.80392 0.00000 9.409300 16.51430 3.637700 
24 "Q11" 33.33333 49.80392 0.00000 12.17280 17.93890 3.767100 
25 "H2" 49.80392 49.80392 0.00000 17.12890 20.49390 3.999000 
26 "H10" 66.66667 49.80392 0.00000 24.87580 24.48750 4.361600 
27 "AP10" 83.13725 49.80392 0.00000 35.34380 29.88400 4.851400 
28 "AT2" 100.0000 49.80392 0.00000 49.29160 37.07440 5.504200 
29 "AD13" 0.00000 66.66667 0.00000 15.18150 29.46200 5.832700 
30 "AR1" 16.47059 66.66667 0.00000 16.12680 29.94930 5.876900 
31 "AS6" 33.33333 66.66667 0.00000 18.89030 31.37390 6.006200 
32 "Q13" 49.80392 66.66667 0.00000 23.84640 33.92890 6.238200 
33 "X5" 66.66667 66.66667 0.00000 31.59330 37.92250 6.600700 
34 "R12" 83.13725 66.66667 0.00000 42.06130 43.31900 7.090600 
35 "AQ7" 100.0000 66.66667 0.00000 56.00910 50.50940 7.743400 
36 "AR7" 0.00000 83.13725 0.00000 24.25850 47.61610 8.858300 
37 "K4" 16.47059 83.13725 0.00000 25.20380 48.10340 8.902600 
38 "AZ8" 33.33333 83.13725 0.00000 27.96740 49.52810 9.031900 
39 "C1" 49.80392 83.13725 0.00000 32.92340 52.08300 9.263900 
40 "AB7" 66.66667 83.13725 0.00000 40.67030 56.07670 9.626400 
41 "F2" 83.13725 83.13725 0.00000 51.13840 61.47320 10.11630 
42 "AL5" 100.0000 83.13725 0.00000 65.08610 68.66350 10.76900 
43 "AU12" 0.00000 100.0000 0.00000 36.35290 71.80480 12.88980 
44 "AI5" 16.47059 100.0000 0.00000 37.29820 72.29210 12.93400 
45 "AJ2" 33.33333 100.0000 0.00000 40.06170 73.71680 13.06340 
46 "AJ6" 49.80392 100.0000 0.00000 45.01780 76.27170 13.29530 
47 "O6" 66.66667 100.0000 0.00000 52.76470 80.26540 13.65790 
48 "A7" 83.13725 100.0000 0.00000 63.23280 85.66190 14.14780 
49 "AY11" 100.0000 100.0000 0.00000 77.18050 92.85220 14.80050 
50 "R4" 0.00000 0.00000 16.47059 1.364200 1.165500 3.267700 
51 "AQ5" 16.47059 0.00000 16.47059 2.309500 1.652800 3.312000 
52 "P8" 33.33333 0.00000 16.47059 5.073100 3.077500 3.441300 
53 "H3" 49.80392 0.00000 16.47059 10.02910 5.632400 3.673200 
54 "AK7" 66.66667 0.00000 16.47059 17.77600 9.626100 4.035800 
55 "S5" 83.13725 0.00000 16.47059 28.24410 15.02260 4.525700 
56 "Y4" 100.0000 0.00000 16.47059 42.19180 22.21290 5.178400 
57 "AD1" 0.00000 16.47059 16.47059 2.183900 2.804900 3.540900 
58 "Y7" 16.47059 16.47059 16.47059 3.129200 3.292200 3.585200 
59 "AL10" 33.33333 16.47059 16.47059 5.892800 4.716800 3.714500 
60 "AQ3" 49.80392 16.47059 16.47059 10.84880 7.271800 3.946500 
61 "AB6" 66.66667 16.47059 16.47059 18.59570 11.26550 4.309000 
62 "AX5" 83.13725 16.47059 16.47059 29.06380 16.66190 4.798900 
63 "G3" 100.0000 16.47059 16.47059 43.01150 23.85230 5.451600 
64 "W3" 0.00000 33.33333 16.47059 4.580300 7.597500 4.339700 
65 "AA4" 16.47059 33.33333 16.47059 5.525600 8.084800 4.384000 
66 "AF5" 33.33333 33.33333 16.47059 8.289100 9.509500 4.513300 
67 "AF7" 49.80392 33.33333 16.47059 13.24510 12.06440 4.745200 
68 "AG10" 66.66667 33.33333 16.47059 20.99200 16.05810 5.107800 
69 "BA10" 83.13725 33.33333 16.47059 31.46010 21.45460 5.597700 
70 "AL3" 100.0000 33.33333 16.47059 45.40790 28.64490 6.250400 
71 "V13" 0.00000 49.80392 16.47059 8.877700 16.19250 5.772200 
72 "AS1" 16.47059 49.80392 16.47059 9.823000 16.67980 5.816500 
73 "J10" 33.33333 49.80392 16.47059 12.58660 18.10440 5.945800 
74 "AP8" 49.80392 49.80392 16.47059 17.54260 20.65940 6.177700 
75 "AZ11" 66.66667 49.80392 16.47059 25.28950 24.65300 6.540300 
76 "R8" 83.13725 49.80392 16.47059 35.75760 30.04950 7.030200 
77 "E10" 100.0000 49.80392 16.47059 49.70530 37.23990 7.682900 
78 "AB4" 0.00000 66.66667 16.47059 15.59520 29.62750 8.011400 
79 "S3" 16.47059 66.66667 16.47059 16.54050 30.11480 8.055600 
80 "O11" 33.33333 66.66667 16.47059 19.30410 31.53940 8.185000 
81 "N9" 49.80392 66.66667 16.47059 24.26010 34.09440 8.416900 
82 "G7" 66.66667 66.66667 16.47059 32.00700 38.08800 8.779400 
83 "AW12" 83.13725 66.66667 16.47059 42.47510 43.48450 9.269300 
84 "AN3" 100.0000 66.66667 16.47059 56.42280 50.67490 9.922100 
85 "AY9" 0.00000 83.13725 16.47059 24.67230 47.78160 11.03710 
86 "AZ2" 16.47059 83.13725 16.47059 25.61760 48.26890 11.08130 
87 "M3" 33.33333 83.13725 16.47059 28.38110 49.69360 11.21060 
88 "E3" 49.80392 83.13725 16.47059 33.33720 52.24850 11.44260 
89 "AZ7" 66.66667 83.13725 16.47059 41.08410 56.24220 11.80510 
90 "V12" 83.13725 83.13725 16.47059 51.55220 61.63870 12.29500 
91 "AI9" 100.0000 83.13725 16.47059 65.49990 68.82900 12.94780 
92 "R6" 0.00000 100.0000 16.47059 36.76660 71.97030 15.06850 
93 "BB11" 16.47059 100.0000 16.47059 37.71190 72.45760 15.11280 
94 "AK3" 33.33333 100.0000 16.47059 40.47550 73.88230 15.24210 
95 "BA13" 49.80392 100.0000 16.47059 45.43150 76.43720 15.47400 
96 "U13" 66.66667 100.0000 16.47059 53.17840 80.43090 15.83660 
97 "J3" 83.13725 100.0000 16.47059 63.64650 85.82740 16.32650 
98 "U4" 100.0000 100.0000 16.47059 77.59420 93.01770 16.97920 
99 "N7" 0.00000 0.00000 33.33333 2.573800 1.649300 9.637200 
100 "AV8" 16.47059 0.00000 33.33333 3.519100 2.136600 9.681400 
101 "X2" 33.33333 0.00000 33.33333 6.282600 3.561300 9.810700 
102 "Y2" 49.80392 0.00000 33.33333 11.23870 6.116200 10.04270 
103 "AQ13" 66.66667 0.00000 33.33333 18.98560 10.10990 10.40520 
104 "X3" 83.13725 0.00000 33.33333 29.45370 15.50640 10.89510 
105 "B3" 100.0000 0.00000 33.33333 43.40140 22.69670 11.54790 
106 "AD2" 0.00000 16.47059 33.33333 3.393500 3.288700 9.910400 
107 "AQ2" 16.47059 16.47059 33.33333 4.338800 3.776000 9.954600 
108 "AK11" 33.33333 16.47059 33.33333 7.102300 5.200700 10.08400 
109 "AC3" 49.80392 16.47059 33.33333 12.05840 7.755600 10.31590 
110 "AI3" 66.66667 16.47059 33.33333 19.80530 11.74930 10.67840 
111 "M10" 83.13725 16.47059 33.33333 30.27330 17.14580 11.16830 
112 "AT4" 100.0000 16.47059 33.33333 44.22110 24.33610 11.82110 
113 "AG7" 0.00000 33.33333 33.33333 5.789800 8.081300 10.70920 
114 "Z1" 16.47059 33.33333 33.33333 6.735100 8.568700 10.75340 
115 "B13" 33.33333 33.33333 33.33333 9.498700 9.993300 10.88270 
116 "K1" 49.80392 33.33333 33.33333 14.45470 12.54830 11.11470 
117 "AS12" 66.66667 33.33333 33.33333 22.20160 16.54190 11.47720 
118 "AO12" 83.13725 33.33333 33.33333 32.66970 21.93840 11.96710 
119 "AB9" 100.0000 33.33333 33.33333 46.61740 29.12870 12.61990 
120 "L5" 0.00000 49.80392 33.33333 10.08730 16.67630 12.14170 
121 "AA13" 16.47059 49.80392 33.33333 11.03260 17.16360 12.18590 
122 "AL13" 33.33333 49.80392 33.33333 13.79610 18.58830 12.31520 
123 "O5" 49.80392 49.80392 33.33333 18.75210 21.14320 12.54720 
124 "AY8" 66.66667 49.80392 33.33333 26.49910 25.13690 12.90970 
125 "AB1" 83.13725 49.80392 33.33333 36.96710 30.53340 13.39960 
126 "E8" 100.0000 49.80392 33.33333 50.91490 37.72370 14.05240 
127 "G9" 0.00000 66.66667 33.33333 16.80480 30.11130 14.38080 
128 "I5" 16.47059 66.66667 33.33333 17.75010 30.59860 14.42510 
129 "A2" 33.33333 66.66667 33.33333 20.51360 32.02330 14.55440 
130 "E1" 49.80392 66.66667 33.33333 25.46960 34.57820 14.78630 
131 "AP3" 66.66667 66.66667 33.33333 33.21660 38.57190 15.14890 
132 "AR12" 83.13725 66.66667 33.33333 43.68460 43.96840 15.63880 
133 "AC11" 100.0000 66.66667 33.33333 57.63240 51.15870 16.29150 
134 "AE8" 0.00000 83.13725 33.33333 25.88180 48.26540 17.40650 
135 "AH13" 16.47059 83.13725 33.33333 26.82710 48.75270 17.45070 
136 "AH7" 33.33333 83.13725 33.33333 29.59070 50.17740 17.58010 
137 "G1" 49.80392 83.13725 33.33333 34.54670 52.73230 17.81200 
138 "AW10" 66.66667 83.13725 33.33333 42.29360 56.72600 18.17460 
139 "P2" 83.13725 83.13725 33.33333 52.76170 62.12250 18.66450 
140 "X7" 100.0000 83.13725 33.33333 66.70940 69.31280 19.31720 
141 "AG8" 0.00000 100.0000 33.33333 37.97620 72.45410 21.43800 
142 "A6" 16.47059 100.0000 33.33333 38.92150 72.94140 21.48220 
143 "X10" 33.33333 100.0000 33.33333 41.68500 74.36610 21.61150 
144 "M6" 49.80392 100.0000 33.33333 46.64110 76.92100 21.84350 
145 "U11" 66.66667 100.0000 33.33333 54.38800 80.91470 22.20600 
146 "D6" 83.13725 100.0000 33.33333 64.85610 86.31120 22.69590 
147 "AE3" 100.0000 100.0000 33.33333 78.80380 93.50150 23.34870 
148 "D1" 0.00000 0.00000 49.80392 4.743000 2.517000 21.05980 
149 "AI11" 16.47059 0.00000 49.80392 5.688300 3.004300 21.10400 
150 "J1" 33.33333 0.00000 49.80392 8.451800 4.429000 21.23340 
151 "M8" 49.80392 0.00000 49.80392 13.40780 6.983900 21.46530 
152 "AZ13" 66.66667 0.00000 49.80392 21.15470 10.97760 21.82790 
153 "O9" 83.13725 0.00000 49.80392 31.62280 16.37410 22.31780 
154 "C12" 100.0000 0.00000 49.80392 45.57060 23.56440 22.97050 
155 "N3" 0.00000 16.47059 49.80392 5.562600 4.156400 21.33300 
156 "I8" 16.47059 16.47059 49.80392 6.507900 4.643700 21.37730 
157 "K11" 33.33333 16.47059 49.80392 9.271500 6.068300 21.50660 
158 "AW1" 49.80392 16.47059 49.80392 14.22750 8.623300 21.73850 
159 "AP4" 66.66667 16.47059 49.80392 21.97440 12.61690 22.10110 
160 "V3" 83.13725 16.47059 49.80392 32.44250 18.01340 22.59100 
161 "O13" 100.0000 16.47059 49.80392 46.39020 25.20380 23.24370 
162 "G10" 0.00000 33.33333 49.80392 7.959000 8.949000 22.13180 
163 "AG13" 16.47059 33.33333 49.80392 8.904300 9.436300 22.17610 
164 "BB1" 33.33333 33.33333 49.80392 11.66780 10.86100 22.30540 
165 "S13" 49.80392 33.33333 49.80392 16.62380 13.41590 22.53730 
166 "AO7" 66.66667 33.33333 49.80392 24.37080 17.40960 22.89990 
167 "H5" 83.13725 33.33333 49.80392 34.83880 22.80610 23.38980 
168 "F8" 100.0000 33.33333 49.80392 48.78660 29.99640 24.04250 
169 "AP13" 0.00000 49.80392 49.80392 12.25640 17.54390 23.56430 
170 "P7" 16.47059 49.80392 49.80392 13.20170 18.03130 23.60850 
171 "M7" 33.33333 49.80392 49.80392 15.96530 19.45590 23.73790 
172 "AJ12" 49.80392 49.80392 49.80392 20.92130 22.01080 23.96980 
173 "D2" 66.66667 49.80392 49.80392 28.66820 26.00450 24.33240 
174 "AT8" 83.13725 49.80392 49.80392 39.13630 31.40100 24.82230 
175 "P11" 100.0000 49.80392 49.80392 53.08400 38.59130 25.47500 
176 "AK1" 0.00000 66.66667 49.80392 18.97390 30.97890 25.80350 
177 "AN7" 16.47059 66.66667 49.80392 19.91920 31.46630 25.84770 
178 "BB2" 33.33333 66.66667 49.80392 22.68280 32.89090 25.97700 
179 "BA7" 49.80392 66.66667 49.80392 27.63880 35.44580 26.20900 
180 "AN9" 66.66667 66.66667 49.80392 35.38570 39.43950 26.57150 
181 "AD9" 83.13725 66.66667 49.80392 45.85380 44.83600 27.06140 
182 "AM11" 100.0000 66.66667 49.80392 59.80150 52.02630 27.71420 
183 "BA1" 0.00000 83.13725 49.80392 28.05100 49.13310 28.82920 
184 "AS11" 16.47059 83.13725 49.80392 28.99630 49.62040 28.87340 
185 "AM6" 33.33333 83.13725 49.80392 31.75990 51.04510 29.00270 
186 "Y13" 49.80392 83.13725 49.80392 36.71590 53.60000 29.23470 
187 "U2" 66.66667 83.13725 49.80392 44.46280 57.59370 29.59720 
188 "AB12" 83.13725 83.13725 49.80392 54.93090 62.99020 30.08710 
189 "V8" 100.0000 83.13725 49.80392 68.87860 70.18050 30.73990 
190 "K7" 0.00000 100.0000 49.80392 40.14540 73.32180 32.86060 
191 "P4" 16.47059 100.0000 49.80392 41.09070 73.80910 32.90480 
192 "AC12" 33.33333 100.0000 49.80392 43.85420 75.23380 33.03420 
193 "AH6" 49.80392 100.0000 49.80392 48.81020 77.78870 33.26610 
194 "O4" 66.66667 100.0000 49.80392 56.55710 81.78240 33.62870 
195 "AA6" 83.13725 100.0000 49.80392 67.02520 87.17890 34.11860 
196 "AK9" 100.0000 100.0000 49.80392 80.97300 94.36920 34.77130 
197 "AX12" 0.00000 0.00000 66.66667 8.133600 3.873300 38.91490 
198 "AJ13" 16.47059 0.00000 66.66667 9.078900 4.360600 38.95910 
199 "H13" 33.33333 0.00000 66.66667 11.84250 5.785200 39.08850 
200 "K9" 49.80392 0.00000 66.66667 16.79850 8.340200 39.32040 
201 "AE6" 66.66667 0.00000 66.66667 24.54540 12.33380 39.68300 
202 "A9" 83.13725 0.00000 66.66667 35.01350 17.73030 40.17290 
203 "A4" 100.0000 0.00000 66.66667 48.96120 24.92070 40.82560 
204 "R10" 0.00000 16.47059 66.66667 8.953300 5.512600 39.18810 
205 "C3" 16.47059 16.47059 66.66667 9.898600 5.999900 39.23240 
206 "B10" 33.33333 16.47059 66.66667 12.66220 7.424600 39.36170 
207 "AV13" 49.80392 16.47059 66.66667 17.61820 9.979500 39.59360 
208 "Y11" 66.66667 16.47059 66.66667 25.36510 13.97320 39.95620 
209 "AX10" 83.13725 16.47059 66.66667 35.83320 19.36970 40.44610 
210 "L12" 100.0000 16.47059 66.66667 49.78090 26.56000 41.09880 
211 "B12" 0.00000 33.33333 66.66667 11.34970 10.30530 39.98690 
212 "K5" 16.47059 33.33333 66.66667 12.29500 10.79260 40.03120 
213 "AC6" 33.33333 33.33333 66.66667 15.05850 12.21730 40.16050 
214 "J12" 49.80392 33.33333 66.66667 20.01450 14.77220 40.39240 
215 "M12" 66.66667 33.33333 66.66667 27.76140 18.76590 40.75500 
216 "W4" 83.13725 33.33333 66.66667 38.22950 24.16240 41.24490 
217 "BB9" 100.0000 33.33333 66.66667 52.17730 31.35270 41.89760 
218 "F1" 0.00000 49.80392 66.66667 15.64710 18.90020 41.41940 
219 "J6" 16.47059 49.80392 66.66667 16.59240 19.38750 41.46360 
220 "U10" 33.33333 49.80392 66.66667 19.35600 20.81220 41.59300 
221 "U8" 49.80392 49.80392 66.66667 24.31200 23.36710 41.82490 
222 "AJ8" 66.66667 49.80392 66.66667 32.05890 27.36080 42.18750 
223 "AY2" 83.13725 49.80392 66.66667 42.52700 32.75730 42.67740 
224 "Z13" 100.0000 49.80392 66.66667 56.47470 39.94760 43.33010 
225 "T6" 0.00000 66.66667 66.66667 22.36460 32.33520 43.65860 
226 "AJ9" 16.47059 66.66667 66.66667 23.30990 32.82250 43.70280 
227 "L8" 33.33333 66.66667 66.66667 26.07350 34.24720 43.83210 
228 "X4" 49.80392 66.66667 66.66667 31.02950 36.80210 44.06410 
229 "Z12" 66.66667 66.66667 66.66667 38.77640 40.79580 44.42660 
230 "AS3" 83.13725 66.66667 66.66667 49.24450 46.19230 44.91650 
231 "BA3" 100.0000 66.66667 66.66667 63.19220 53.38260 45.56930 
232 "AH4" 0.00000 83.13725 66.66667 31.44170 50.48940 46.68430 
233 "A13" 16.47059 83.13725 66.66667 32.38700 50.97670 46.72850 
234 "AI2" 33.33333 83.13725 66.66667 35.15050 52.40130 46.85780 
235 "S12" 49.80392 83.13725 66.66667 40.10660 54.95630 47.08980 
236 "AZ10" 66.66667 83.13725 66.66667 47.85350 58.94990 47.45230 
237 "BA5" 83.13725 83.13725 66.66667 58.32160 64.34640 47.94220 
238 "T2" 100.0000 83.13725 66.66667 72.26930 71.53680 48.59500 
239 "AF4" 0.00000 100.0000 66.66667 43.53600 74.67810 50.71570 
240 "AR5" 16.47059 100.0000 66.66667 44.48130 75.16540 50.75990 
241 "AM2" 33.33333 100.0000 66.66667 47.24490 76.59000 50.88930 
242 "Y9" 49.80392 100.0000 66.66667 52.20090 79.14500 51.12120 
243 "AE12" 66.66667 100.0000 66.66667 59.94780 83.13860 51.48380 
244 "AD7" 83.13725 100.0000 66.66667 70.41590 88.53510 51.97370 
245 "G6" 100.0000 100.0000 66.66667 84.36360 95.72550 52.62640 
246 "AN12" 0.00000 0.00000 83.13725 12.71530 5.705900 63.04170 
247 "P6" 16.47059 0.00000 83.13725 13.66060 6.193200 63.08600 
248 "Z8" 33.33333 0.00000 83.13725 16.42420 7.617900 63.21530 
249 "H8" 49.80392 0.00000 83.13725 21.38020 10.17280 63.44730 
250 "AG1" 66.66667 0.00000 83.13725 29.12710 14.16650 63.80980 
251 "BA11" 83.13725 0.00000 83.13725 39.59520 19.56300 64.29970 
252 "AO6" 100.0000 0.00000 83.13725 53.54290 26.75330 64.95240 
253 "AS9" 0.00000 16.47059 83.13725 13.53500 7.345300 63.31500 
254 "AX3" 16.47059 16.47059 83.13725 14.48030 7.832600 63.35920 
255 "AE10" 33.33333 16.47059 83.13725 17.24390 9.257300 63.48850 
256 "V10" 49.80392 16.47059 83.13725 22.19990 11.81220 63.72050 
257 "AO9" 66.66667 16.47059 83.13725 29.94680 15.80590 64.08300 
258 "AF2" 83.13725 16.47059 83.13725 40.41490 21.20240 64.57290 
259 "AW8" 100.0000 16.47059 83.13725 54.36260 28.39270 65.22570 
260 "AJ11" 0.00000 33.33333 83.13725 15.93130 12.13800 64.11370 
261 "AV2" 16.47059 33.33333 83.13725 16.87660 12.62530 64.15800 
262 "AC4" 33.33333 33.33333 83.13725 19.64020 14.04990 64.28730 
263 "C5" 49.80392 33.33333 83.13725 24.59620 16.60490 64.51930 
264 "X8" 66.66667 33.33333 83.13725 32.34310 20.59850 64.88180 
265 "AH9" 83.13725 33.33333 83.13725 42.81120 25.99500 65.37170 
266 "K13" 100.0000 33.33333 83.13725 56.75890 33.18540 66.02440 
267 "L1" 0.00000 49.80392 83.13725 20.22880 20.73290 65.54620 
268 "AL12" 16.47059 49.80392 83.13725 21.17410 21.22020 65.59050 
269 "W13" 33.33333 49.80392 83.13725 23.93770 22.64490 65.71980 
270 "AM13" 49.80392 49.80392 83.13725 28.89370 25.19980 65.95170 
271 "AN1" 66.66667 49.80392 83.13725 36.64060 29.19350 66.31430 
272 "B8" 83.13725 49.80392 83.13725 47.10870 34.59000 66.80420 
273 "AX1" 100.0000 49.80392 83.13725 61.05640 41.78030 67.45690 
274 "C7" 0.00000 66.66667 83.13725 26.94630 34.16790 67.78540 
275 "AV12" 16.47059 66.66667 83.13725 27.89160 34.65520 67.82960 
276 "AV3" 33.33333 66.66667 83.13725 30.65520 36.07990 67.95900 
277 "AD8" 49.80392 66.66667 83.13725 35.61120 38.63480 68.19090 
278 "AQ8" 66.66667 66.66667 83.13725 43.35810 42.62850 68.55350 
279 "AA10" 83.13725 66.66667 83.13725 53.82620 48.02500 69.04340 
280 "AU5" 100.0000 66.66667 83.13725 67.77390 55.21530 69.69610 
281 "U6" 0.00000 83.13725 83.13725 36.02340 52.32200 70.81110 
282 "Z6" 16.47059 83.13725 83.13725 36.96870 52.80930 70.85530 
283 "AW5" 33.33333 83.13725 83.13725 39.73220 54.23400 70.98470 
284 "AU7" 49.80392 83.13725 83.13725 44.68820 56.78890 71.21660 
285 "AD10" 66.66667 83.13725 83.13725 52.43520 60.78260 71.57910 
286 "AK4" 83.13725 83.13725 83.13725 62.90320 66.17910 72.06900 
287 "BA6" 100.0000 83.13725 83.13725 76.85100 73.36940 72.72180 
288 "N1" 0.00000 100.0000 83.13725 48.11770 76.51070 74.84250 
289 "BB13" 16.47059 100.0000 83.13725 49.06300 76.99800 74.88680 
290 "C10" 33.33333 100.0000 83.13725 51.82660 78.42270 75.01610 
291 "AT11" 49.80392 100.0000 83.13725 56.78260 80.97760 75.24810 
292 "U7" 66.66667 100.0000 83.13725 64.52950 84.97130 75.61060 
293 "W8" 83.13725 100.0000 83.13725 74.99760 90.36780 76.10050 
294 "S8" 100.0000 100.0000 83.13725 88.94530 97.55810 76.75320 
295 "I13" 0.00000 0.00000 100.0000 18.82000 8.147800 95.18850 
296 "Y6" 16.47059 0.00000 100.0000 19.76530 8.635100 95.23270 
297 "D8" 33.33333 0.00000 100.0000 22.52880 10.05980 95.36210 
298 "J5" 49.80392 0.00000 100.0000 27.48490 12.61470 95.59400 
299 "V2" 66.66667 0.00000 100.0000 35.23180 16.60840 95.95660 
300 "AH2" 83.13725 0.00000 100.0000 45.69990 22.00490 96.44650 
301 "F12" 100.0000 0.00000 100.0000 59.64760 29.19520 97.09920 
302 "AO4" 0.00000 16.47059 100.0000 19.63970 9.787200 95.46170 
303 "Z10" 16.47059 16.47059 100.0000 20.58500 10.27450 95.50600 
304 "AF8" 33.33333 16.47059 100.0000 23.34850 11.69920 95.63530 
305 "AP6" 49.80392 16.47059 100.0000 28.30460 14.25410 95.86720 
306 "AH11" 66.66667 16.47059 100.0000 36.05150 18.24780 96.22980 
307 "AE1" 83.13725 16.47059 100.0000 46.51950 23.64420 96.71970 
308 "Q2" 100.0000 16.47059 100.0000 60.46730 30.83460 97.37240 
309 "F4" 0.00000 33.33333 100.0000 22.03600 14.57980 96.26050 
310 "AU1" 16.47059 33.33333 100.0000 22.98130 15.06710 96.30470 
311 "AI13" 33.33333 33.33333 100.0000 25.74490 16.49180 96.43410 
312 "Z11" 49.80392 33.33333 100.0000 30.70090 19.04670 96.66600 
313 "R1" 66.66667 33.33333 100.0000 38.44780 23.04040 97.02860 
314 "AC1" 83.13725 33.33333 100.0000 48.91590 28.43690 97.51850 
315 "D13" 100.0000 33.33333 100.0000 62.86360 35.62720 98.17120 
316 "AF13" 0.00000 49.80392 100.0000 26.33350 23.17480 97.69300 
317 "Q4" 16.47059 49.80392 100.0000 27.27880 23.66210 97.73720 
318 "I3" 33.33333 49.80392 100.0000 30.04230 25.08670 97.86660 
319 "B1" 49.80392 49.80392 100.0000 34.99840 27.64170 98.09850 
320 "AT9" 66.66667 49.80392 100.0000 42.74530 31.63530 98.46110 
321 "E12" 83.13725 49.80392 100.0000 53.21330 37.03180 98.95090 
322 "AO11" 100.0000 49.80392 100.0000 67.16110 44.22220 99.60370 
323 "BB7" 0.00000 66.66667 100.0000 33.05100 36.60980 99.93220 
324 "A11" 16.47059 66.66667 100.0000 33.99630 37.09710 99.97640 
325 "AT13" 33.33333 66.66667 100.0000 36.75980 38.52170 100.1057 
326 "N5" 49.80392 66.66667 100.0000 41.71590 41.07670 100.3377 
327 "T9" 66.66667 66.66667 100.0000 49.46280 45.07030 100.7002 
328 "AU6" 83.13725 66.66667 100.0000 59.93080 50.46680 101.1901 
329 "AB11" 100.0000 66.66667 100.0000 73.87860 57.65720 101.8429 
330 "AL7" 0.00000 83.13725 100.0000 42.12800 54.76390 102.9578 
331 "E5" 16.47059 83.13725 100.0000 43.07330 55.25120 103.0021 
332 "F10" 33.33333 83.13725 100.0000 45.83690 56.67590 103.1314 
333 "S6" 49.80392 83.13725 100.0000 50.79290 59.23080 103.3634 
334 "AF10" 66.66667 83.13725 100.0000 58.53980 63.22450 103.7259 
335 "AY7" 83.13725 83.13725 100.0000 69.00790 68.62100 104.2158 
336 "AN10" 100.0000 83.13725 100.0000 82.95560 75.81130 104.8685 
337 "AW3" 0.00000 100.0000 100.0000 54.22240 78.95260 106.9893 
338 "K2" 16.47059 100.0000 100.0000 55.16770 79.43990 107.0335 
339 "O7" 33.33333 100.0000 100.0000 57.93120 80.86460 107.1629 
340 "O2" 49.80392 100.0000 100.0000 62.88730 83.41950 107.3948 
341 "I11" 66.66667 100.0000 100.0000 70.63420 87.41320 107.7574 
342 "T4" 83.13725 100.0000 100.0000 81.10230 92.80970 108.2473 
343 "E6" 100.0000 100.0000 100.0000 95.05000 100.0000 108.9000 
344 "AB13" 6.666667 6.666667 8.235294 1.511800 1.568500 1.871500 
345 "I1" 6.666667 8.235294 6.666667 1.545000 1.689000 1.715700 
346 "AD4" 8.235294 6.666667 6.666667 1.555300 1.594800 1.696900 
347 "AR4" 13.72549 13.72549 16.86275 2.663400 2.716500 3.592700 
348 "AB10" 13.72549 16.86275 13.72549 2.792300 3.184400 2.987800 
349 "AD6" 16.86275 13.72549 13.72549 2.832200 2.818600 2.915100 
350 "K6" 20.39216 20.39216 25.09804 4.484400 4.520700 6.384300 
351 "AQ1" 20.39216 25.09804 20.39216 4.781200 5.598300 4.991000 
352 "D9" 25.09804 20.39216 20.39216 4.873100 4.756000 4.823600 
353 "W2" 27.45098 27.45098 33.72549 7.282200 7.290800 10.68560 
354 "AM5" 27.45098 33.72549 27.45098 7.840000 9.315900 8.067400 
355 "AU13" 33.72549 27.45098 27.45098 8.012600 7.732900 7.752800 
356 "P10" 34.50980 34.50980 41.96078 11.01690 11.01450 16.26230 
357 "AO13" 34.50980 41.96078 34.50980 11.88370 14.16170 12.19340 
358 "AW13" 41.96078 34.50980 34.50980 12.15190 11.70170 11.70450 
359 "AZ12" 41.17647 41.17647 50.58824 15.64180 15.54450 23.68320 
