assets/charts/pharmacist/rgb/i1pro/a4/abw1110/abw1110.ti1
CTI1   

DESCRIPTOR "Argyll Calibration Target chart information 1"
ORIGINATOR "ChromIQ"
APPROX_WHITE_POINT "95.050000 100.000000 108.900000"
COLOR_REP "RGB"
WHITE_COLOR_PATCHES "5"
BLACK_COLOR_PATCHES "5"
CREATED "Sun May 31 14:12:55 2026"

NUMBER_OF_FIELDS 7
BEGIN_DATA_FORMAT
SAMPLE_ID RGB_R RGB_G RGB_B XYZ_X XYZ_Y XYZ_Z
END_DATA_FORMAT

NUMBER_OF_SETS 1110
BEGIN_DATA
1 0.0000 0.0000 0.0000 0.9505 1.0000 1.0890
2 12.1569 0.0000 0.0000 1.5099 1.2884 1.1152
3 24.7059 0.0000 0.0000 2.9799 2.0462 1.1840
4 37.2549 0.0000 0.0000 5.6226 3.4086 1.3077
5 49.8039 0.0000 0.0000 9.6154 5.4669 1.4945
6 62.3529 0.0000 0.0000 15.1056 8.2972 1.7514
7 74.9020 0.0000 0.0000 22.2215 11.9656 2.0845
8 87.4510 0.0000 0.0000 31.0776 16.5311 2.4989
9 100.0000 0.0000 0.0000 41.7781 22.0474 2.9997
10 0.0000 12.1569 0.0000 1.4356 1.9702 1.2507
11 12.1569 12.1569 0.0000 1.9950 2.2586 1.2769
12 24.7059 12.1569 0.0000 3.4650 3.0164 1.3457
13 37.2549 12.1569 0.0000 6.1077 4.3787 1.4693
14 49.8039 12.1569 0.0000 10.1005 6.4371 1.6562
15 62.3529 12.1569 0.0000 15.5907 9.2674 1.9131
16 74.9020 12.1569 0.0000 22.7066 12.9358 2.2462
17 87.4510 12.1569 0.0000 31.5627 17.5013 2.6606
18 100.0000 12.1569 0.0000 42.2632 23.0176 3.1614
19 0.0000 24.7059 0.0000 2.7102 4.5195 1.6756
20 12.1569 24.7059 0.0000 3.2697 4.8079 1.7018
21 24.7059 24.7059 0.0000 4.7396 5.5657 1.7706
22 37.2549 24.7059 0.0000 7.3824 6.9280 1.8942
23 49.8039 24.7059 0.0000 11.3751 8.9864 2.0811
24 62.3529 24.7059 0.0000 16.8653 11.8167 2.3380
25 74.9020 24.7059 0.0000 23.9812 15.4851 2.6710
26 87.4510 24.7059 0.0000 32.8373 20.0506 3.0855
27 100.0000 24.7059 0.0000 43.5378 25.5669 3.5863
28 0.0000 37.2549 0.0000 5.0018 9.1026 2.4394
29 12.1569 37.2549 0.0000 5.5612 9.3910 2.4656
30 24.7059 37.2549 0.0000 7.0312 10.1488 2.5344
31 37.2549 37.2549 0.0000 9.6739 11.5111 2.6581
32 49.8039 37.2549 0.0000 13.6667 13.5695 2.8449
33 62.3529 37.2549 0.0000 19.1569 16.3998 3.1019
34 74.9020 37.2549 0.0000 26.2728 20.0682 3.4349
35 87.4510 37.2549 0.0000 35.1289 24.6337 3.8494
36 100.0000 37.2549 0.0000 45.8294 30.1500 4.3501
37 0.0000 49.8039 0.0000 8.4640 16.0270 3.5935
38 12.1569 49.8039 0.0000 9.0234 16.3153 3.6197
39 24.7059 49.8039 0.0000 10.4934 17.0732 3.6885
40 37.2549 49.8039 0.0000 13.1361 18.4355 3.8121
41 49.8039 49.8039 0.0000 17.1289 20.4939 3.9990
42 62.3529 49.8039 0.0000 22.6191 23.3242 4.2559
43 74.9020 49.8039 0.0000 29.7350 26.9926 4.5890
44 87.4510 49.8039 0.0000 38.5911 31.5581 5.0034
45 100.0000 49.8039 0.0000 49.2916 37.0744 5.5042
46 0.0000 62.3529 0.0000 13.2247 25.5483 5.1804
47 12.1569 62.3529 0.0000 13.7841 25.8367 5.2066
48 24.7059 62.3529 0.0000 15.2541 26.5945 5.2754
49 37.2549 62.3529 0.0000 17.8968 27.9569 5.3990
50 49.8039 62.3529 0.0000 21.8895 30.0152 5.5859
51 62.3529 62.3529 0.0000 27.3798 32.8455 5.8428
52 74.9020 62.3529 0.0000 34.4957 36.5139 6.1759
53 87.4510 62.3529 0.0000 43.3518 41.0794 6.5903
54 100.0000 62.3529 0.0000 54.0523 46.5957 7.0911
55 0.0000 74.9020 0.0000 19.3950 37.8890 7.2372
56 12.1569 74.9020 0.0000 19.9544 38.1774 7.2633
57 24.7059 74.9020 0.0000 21.4244 38.9352 7.3321
58 37.2549 74.9020 0.0000 24.0671 40.2976 7.4558
59 49.8039 74.9020 0.0000 28.0599 42.3559 7.6427
60 62.3529 74.9020 0.0000 33.5501 45.1862 7.8996
61 74.9020 74.9020 0.0000 40.6660 48.8546 8.2326
62 87.4510 74.9020 0.0000 49.5221 53.4201 8.6471
63 100.0000 74.9020 0.0000 60.2226 58.9364 9.1479
64 0.0000 87.4510 0.0000 27.0743 53.2476 9.7969
65 12.1569 87.4510 0.0000 27.6337 53.5360 9.8231
66 24.7059 87.4510 0.0000 29.1037 54.2938 9.8919
67 37.2549 87.4510 0.0000 31.7464 55.6562 10.0156
68 49.8039 87.4510 0.0000 35.7392 57.7145 10.2024
69 62.3529 87.4510 0.0000 41.2294 60.5448 10.4594
70 74.9020 87.4510 0.0000 48.3453 64.2132 10.7924
71 87.4510 87.4510 0.0000 57.2014 68.7787 11.2069
72 100.0000 87.4510 0.0000 67.9019 74.2950 11.7076
73 0.0000 100.0000 0.0000 36.3529 71.8048 12.8898
74 12.1569 100.0000 0.0000 36.9123 72.0932 12.9160
75 24.7059 100.0000 0.0000 38.3823 72.8510 12.9848
76 37.2549 100.0000 0.0000 41.0250 74.2134 13.1085
77 49.8039 100.0000 0.0000 45.0178 76.2717 13.2953
78 62.3529 100.0000 0.0000 50.5080 79.1020 13.5522
79 74.9020 100.0000 0.0000 57.6239 82.7704 13.8853
80 87.4510 100.0000 0.0000 66.4800 87.3359 14.2997
81 100.0000 100.0000 0.0000 77.1805 92.8522 14.8005
82 0.0000 0.0000 12.1569 1.1953 1.0979 2.3784
83 12.1569 0.0000 12.1569 1.7548 1.3863 2.4045
84 24.7059 0.0000 12.1569 3.2247 2.1441 2.4733
85 37.2549 0.0000 12.1569 5.8675 3.5065 2.5970
86 49.8039 0.0000 12.1569 9.8602 5.5648 2.7839
87 62.3529 0.0000 12.1569 15.3504 8.3952 3.0408
88 74.9020 0.0000 12.1569 22.4663 12.0635 3.3738
89 87.4510 0.0000 12.1569 31.3225 16.6290 3.7883
90 100.0000 0.0000 12.1569 42.0229 22.1453 4.2891
91 0.0000 12.1569 12.1569 1.6804 2.0681 2.5401
92 12.1569 12.1569 12.1569 2.2399 2.3565 2.5662
93 24.7059 12.1569 12.1569 3.7098 3.1143 2.6350
94 37.2549 12.1569 12.1569 6.3526 4.4767 2.7587
95 49.8039 12.1569 12.1569 10.3453 6.5350 2.9456
96 62.3529 12.1569 12.1569 15.8355 9.3653 3.2025
97 74.9020 12.1569 12.1569 22.9514 13.0337 3.5355
98 87.4510 12.1569 12.1569 31.8075 17.5992 3.9500
99 100.0000 12.1569 12.1569 42.5080 23.1155 4.4508
100 0.0000 24.7059 12.1569 2.9551 4.6174 2.9649
101 12.1569 24.7059 12.1569 3.5145 4.9058 2.9911
102 24.7059 24.7059 12.1569 4.9845 5.6636 3.0599
103 37.2549 24.7059 12.1569 7.6272 7.0260 3.1836
104 49.8039 24.7059 12.1569 11.6200 9.0843 3.3704
105 62.3529 24.7059 12.1569 17.1102 11.9146 3.6274
106 74.9020 24.7059 12.1569 24.2261 15.5830 3.9604
107 87.4510 24.7059 12.1569 33.0822 20.1485 4.3749
108 100.0000 24.7059 12.1569 43.7827 25.6648 4.8756
109 0.0000 37.2549 12.1569 5.2466 9.2005 3.7288
110 12.1569 37.2549 12.1569 5.8061 9.4889 3.7550
111 24.7059 37.2549 12.1569 7.2760 10.2467 3.8238
112 37.2549 37.2549 12.1569 9.9188 11.6091 3.9474
113 49.8039 37.2549 12.1569 13.9115 13.6674 4.1343
114 62.3529 37.2549 12.1569 19.4017 16.4977 4.3912
115 74.9020 37.2549 12.1569 26.5176 20.1661 4.7243
116 87.4510 37.2549 12.1569 35.3737 24.7316 5.1387
117 100.0000 37.2549 12.1569 46.0742 30.2479 5.6395
118 0.0000 49.8039 12.1569 8.7088 16.1249 4.8829
119 12.1569 49.8039 12.1569 9.2683 16.4133 4.9090
120 24.7059 49.8039 12.1569 10.7382 17.1711 4.9778
121 37.2549 49.8039 12.1569 13.3809 18.5335 5.1015
122 49.8039 49.8039 12.1569 17.3737 20.5918 5.2884
123 62.3529 49.8039 12.1569 22.8639 23.4221 5.5453
124 74.9020 49.8039 12.1569 29.9798 27.0905 5.8783
125 87.4510 49.8039 12.1569 38.8359 31.6560 6.2928
126 100.0000 49.8039 12.1569 49.5364 37.1723 6.7936
127 0.0000 62.3529 12.1569 13.4695 25.6463 6.4697
128 12.1569 62.3529 12.1569 14.0289 25.9346 6.4959
129 24.7059 62.3529 12.1569 15.4989 26.6924 6.5647
130 37.2549 62.3529 12.1569 18.1416 28.0548 6.6884
131 49.8039 62.3529 12.1569 22.1344 30.1132 6.8753
132 62.3529 62.3529 12.1569 27.6246 32.9435 7.1322
133 74.9020 62.3529 12.1569 34.7405 36.6119 7.4652
134 87.4510 62.3529 12.1569 43.5966 41.1773 7.8797
135 100.0000 62.3529 12.1569 54.2971 46.6937 8.3804
136 0.0000 74.9020 12.1569 19.6398 37.9869 8.5265
137 12.1569 74.9020 12.1569 20.1993 38.2753 8.5527
138 24.7059 74.9020 12.1569 21.6692 39.0331 8.6215
139 37.2549 74.9020 12.1569 24.3120 40.3955 8.7452
140 49.8039 74.9020 12.1569 28.3047 42.4538 8.9320
141 62.3529 74.9020 12.1569 33.7949 45.2841 9.1890
142 74.9020 74.9020 12.1569 40.9108 48.9525 9.5220
143 87.4510 74.9020 12.1569 49.7670 53.5180 9.9364
144 100.0000 74.9020 12.1569 60.4674 59.0343 10.4372
145 0.0000 87.4510 12.1569 27.3191 53.3455 11.0863
146 12.1569 87.4510 12.1569 27.8786 53.6339 11.1125
147 24.7059 87.4510 12.1569 29.3485 54.3917 11.1813
148 37.2549 87.4510 12.1569 31.9913 55.7541 11.3049
149 49.8039 87.4510 12.1569 35.9840 57.8124 11.4918
150 62.3529 87.4510 12.1569 41.4742 60.6428 11.7487
151 74.9020 87.4510 12.1569 48.5901 64.3111 12.0818
152 87.4510 87.4510 12.1569 57.4463 68.8766 12.4962
153 100.0000 87.4510 12.1569 68.1467 74.3929 12.9970
154 0.0000 100.0000 12.1569 36.5977 71.9027 14.1792
155 12.1569 100.0000 12.1569 37.1572 72.1911 14.2053
156 24.7059 100.0000 12.1569 38.6271 72.9489 14.2741
157 37.2549 100.0000 12.1569 41.2699 74.3113 14.3978
158 49.8039 100.0000 12.1569 45.2626 76.3696 14.5847
159 62.3529 100.0000 12.1569 50.7528 79.2000 14.8416
160 74.9020 100.0000 12.1569 57.8687 82.8683 15.1746
161 87.4510 100.0000 12.1569 66.7249 87.4338 15.5891
162 100.0000 100.0000 12.1569 77.4253 92.9501 16.0899
163 0.0000 0.0000 24.7059 1.8387 1.3553 5.7664
164 12.1569 0.0000 24.7059 2.3982 1.6437 5.7925
165 24.7059 0.0000 24.7059 3.8681 2.4015 5.8613
166 37.2549 0.0000 24.7059 6.5109 3.7639 5.9850
167 49.8039 0.0000 24.7059 10.5036 5.8222 6.1719
168 62.3529 0.0000 24.7059 15.9938 8.6525 6.4288
169 74.9020 0.0000 24.7059 23.1097 12.3209 6.7618
170 87.4510 0.0000 24.7059 31.9658 16.8864 7.1763
171 100.0000 0.0000 24.7059 42.6663 22.4027 7.6771
172 0.0000 12.1569 24.7059 2.3238 2.3255 5.9281
173 12.1569 12.1569 24.7059 2.8832 2.6139 5.9542
174 24.7059 12.1569 24.7059 4.3532 3.3717 6.0230
175 37.2549 12.1569 24.7059 6.9959 4.7340 6.1467
176 49.8039 12.1569 24.7059 10.9887 6.7924 6.3336
177 62.3529 12.1569 24.7059 16.4789 9.6227 6.5905
178 74.9020 12.1569 24.7059 23.5948 13.2911 6.9235
179 87.4510 12.1569 24.7059 32.4509 17.8566 7.3380
180 100.0000 12.1569 24.7059 43.1514 23.3729 7.8388
181 0.0000 24.7059 24.7059 3.5985 4.8748 6.3529
182 12.1569 24.7059 24.7059 4.1579 5.1631 6.3791
183 24.7059 24.7059 24.7059 5.6279 5.9210 6.4479
184 37.2549 24.7059 24.7059 8.2706 7.2833 6.5716
185 49.8039 24.7059 24.7059 12.2633 9.3417 6.7584
186 62.3529 24.7059 24.7059 17.7536 12.1720 7.0154
187 74.9020 24.7059 24.7059 24.8695 15.8404 7.3484
188 87.4510 24.7059 24.7059 33.7256 20.4059 7.7629
189 100.0000 24.7059 24.7059 44.4261 25.9222 8.2636
190 0.0000 37.2549 24.7059 5.8900 9.4579 7.1168
191 12.1569 37.2549 24.7059 6.4494 9.7463 7.1430
192 24.7059 37.2549 24.7059 7.9194 10.5041 7.2118
193 37.2549 37.2549 24.7059 10.5621 11.8664 7.3354
194 49.8039 37.2549 24.7059 14.5549 13.9248 7.5223
195 62.3529 37.2549 24.7059 20.0451 16.7551 7.7792
196 74.9020 37.2549 24.7059 27.1610 20.4235 8.1123
197 87.4510 37.2549 24.7059 36.0171 24.9890 8.5267
198 100.0000 37.2549 24.7059 46.7176 30.5053 9.0275
199 0.0000 49.8039 24.7059 9.3522 16.3822 8.2709
200 12.1569 49.8039 24.7059 9.9116 16.6706 8.2970
201 24.7059 49.8039 24.7059 11.3816 17.4284 8.3658
202 37.2549 49.8039 24.7059 14.0243 18.7908 8.4895
203 49.8039 49.8039 24.7059 18.0171 20.8492 8.6764
204 62.3529 49.8039 24.7059 23.5073 23.6795 8.9333
205 74.9020 49.8039 24.7059 30.6232 27.3479 9.2663
206 87.4510 49.8039 24.7059 39.4793 31.9133 9.6808
207 100.0000 49.8039 24.7059 50.1798 37.4296 10.1816
208 0.0000 62.3529 24.7059 14.1129 25.9036 9.8577
209 12.1569 62.3529 24.7059 14.6723 26.1920 9.8839
210 24.7059 62.3529 24.7059 16.1423 26.9498 9.9527
211 37.2549 62.3529 24.7059 18.7850 28.3122 10.0764
212 49.8039 62.3529 24.7059 22.7778 30.3705 10.2633
213 62.3529 62.3529 24.7059 28.2680 33.2008 10.5202
214 74.9020 62.3529 24.7059 35.3839 36.8692 10.8532
215 87.4510 62.3529 24.7059 44.2400 41.4347 11.2677
216 100.0000 62.3529 24.7059 54.9405 46.9510 11.7684
217 0.0000 74.9020 24.7059 20.2832 38.2443 11.9145
218 12.1569 74.9020 24.7059 20.8426 38.5327 11.9407
219 24.7059 74.9020 24.7059 22.3126 39.2905 12.0095
220 37.2549 74.9020 24.7059 24.9553 40.6528 12.1332
221 49.8039 74.9020 24.7059 28.9481 42.7112 12.3200
222 62.3529 74.9020 24.7059 34.4383 45.5415 12.5770
223 74.9020 74.9020 24.7059 41.5542 49.2099 12.9100
224 87.4510 74.9020 24.7059 50.4103 53.7754 13.3245
225 100.0000 74.9020 24.7059 61.1108 59.2917 13.8252
226 0.0000 87.4510 24.7059 27.9625 53.6029 14.4743
227 12.1569 87.4510 24.7059 28.5220 53.8913 14.5005
228 24.7059 87.4510 24.7059 29.9919 54.6491 14.5693
229 37.2549 87.4510 24.7059 32.6347 56.0115 14.6929
230 49.8039 87.4510 24.7059 36.6274 58.0698 14.8798
231 62.3529 87.4510 24.7059 42.1176 60.9001 15.1367
232 74.9020 87.4510 24.7059 49.2335 64.5685 15.4698
233 87.4510 87.4510 24.7059 58.0896 69.1340 15.8842
234 100.0000 87.4510 24.7059 68.7901 74.6503 16.3850
235 0.0000 100.0000 24.7059 37.2411 72.1601 17.5672
236 12.1569 100.0000 24.7059 37.8006 72.4485 17.5933
237 24.7059 100.0000 24.7059 39.2705 73.2063 17.6621
238 37.2549 100.0000 24.7059 41.9133 74.5687 17.7858
239 49.8039 100.0000 24.7059 45.9060 76.6270 17.9727
240 62.3529 100.0000 24.7059 51.3962 79.4573 18.2296
241 74.9020 100.0000 24.7059 58.5121 83.1257 18.5626
242 87.4510 100.0000 24.7059 67.3682 87.6912 18.9771
243 100.0000 100.0000 24.7059 78.0687 93.2075 19.4779
244 0.0000 0.0000 37.2549 2.9954 1.8180 11.8573
245 12.1569 0.0000 37.2549 3.5548 2.1064 11.8835
246 24.7059 0.0000 37.2549 5.0248 2.8642 11.9523
247 37.2549 0.0000 37.2549 7.6675 4.2265 12.0760
248 49.8039 0.0000 37.2549 11.6603 6.2849 12.2628
249 62.3529 0.0000 37.2549 17.1505 9.1152 12.5198
250 74.9020 0.0000 37.2549 24.2664 12.7836 12.8528
251 87.4510 0.0000 37.2549 33.1225 17.3491 13.2672
252 100.0000 0.0000 37.2549 43.8230 22.8654 13.7680
253 0.0000 12.1569 37.2549 3.4805 2.7881 12.0190
254 12.1569 12.1569 37.2549 4.0399 3.0765 12.0452
255 24.7059 12.1569 37.2549 5.5099 3.8343 12.1140
256 37.2549 12.1569 37.2549 8.1526 5.1967 12.2377
257 49.8039 12.1569 37.2549 12.1454 7.2550 12.4245
258 62.3529 12.1569 37.2549 17.6356 10.0854 12.6815
259 74.9020 12.1569 37.2549 24.7515 13.7537 13.0145
260 87.4510 12.1569 37.2549 33.6076 18.3192 13.4289
261 100.0000 12.1569 37.2549 44.3081 23.8355 13.9297
262 0.0000 24.7059 37.2549 4.7551 5.3374 12.4439
263 12.1569 24.7059 37.2549 5.3146 5.6258 12.4701
264 24.7059 24.7059 37.2549 6.7845 6.3836 12.5389
265 37.2549 24.7059 37.2549 9.4273 7.7460 12.6625
266 49.8039 24.7059 37.2549 13.4200 9.8043 12.8494
267 62.3529 24.7059 37.2549 18.9102 12.6346 13.1063
268 74.9020 24.7059 37.2549 26.0261 16.3030 13.4394
269 87.4510 24.7059 37.2549 34.8822 20.8685 13.8538
270 100.0000 24.7059 37.2549 45.5827 26.3848 14.3546
271 0.0000 37.2549 37.2549 7.0467 9.9205 13.2077
272 12.1569 37.2549 37.2549 7.6061 10.2089 13.2339
273 24.7059 37.2549 37.2549 9.0761 10.9667 13.3027
274 37.2549 37.2549 37.2549 11.7188 12.3291 13.4264
275 49.8039 37.2549 37.2549 15.7116 14.3874 13.6132
276 62.3529 37.2549 37.2549 21.2018 17.2178 13.8702
277 74.9020 37.2549 37.2549 28.3177 20.8861 14.2032
278 87.4510 37.2549 37.2549 37.1738 25.4516 14.6177
279 100.0000 37.2549 37.2549 47.8743 30.9679 15.1184
280 0.0000 49.8039 37.2549 10.5089 16.8449 14.3618
281 12.1569 49.8039 37.2549 11.0683 17.1333 14.3880
282 24.7059 49.8039 37.2549 12.5383 17.8911 14.4568
283 37.2549 49.8039 37.2549 15.1810 19.2535 14.5805
284 49.8039 49.8039 37.2549 19.1738 21.3118 14.7673
285 62.3529 49.8039 37.2549 24.6640 24.1421 15.0243
286 74.9020 49.8039 37.2549 31.7799 27.8105 15.3573
287 87.4510 49.8039 37.2549 40.6360 32.3760 15.7717
288 100.0000 49.8039 37.2549 51.3365 37.8923 16.2725
289 0.0000 62.3529 37.2549 15.2696 26.3663 15.9487
290 12.1569 62.3529 37.2549 15.8290 26.6547 15.9749
291 24.7059 62.3529 37.2549 17.2990 27.4125 16.0437
292 37.2549 62.3529 37.2549 19.9417 28.7748 16.1673
293 49.8039 62.3529 37.2549 23.9344 30.8332 16.3542
294 62.3529 62.3529 37.2549 29.4247 33.6635 16.6111
295 74.9020 62.3529 37.2549 36.5406 37.3319 16.9442
296 87.4510 62.3529 37.2549 45.3967 41.8974 17.3586
297 100.0000 62.3529 37.2549 56.0972 47.4137 17.8594
298 0.0000 74.9020 37.2549 21.4399 38.7069 18.0055
299 12.1569 74.9020 37.2549 21.9993 38.9953 18.0317
300 24.7059 74.9020 37.2549 23.4693 39.7531 18.1005
301 37.2549 74.9020 37.2549 26.1120 41.1155 18.2241
302 49.8039 74.9020 37.2549 30.1048 43.1739 18.4110
303 62.3529 74.9020 37.2549 35.5950 46.0042 18.6679
304 74.9020 74.9020 37.2549 42.7109 49.6726 19.0009
305 87.4510 74.9020 37.2549 51.5670 54.2380 19.4154
306 100.0000 74.9020 37.2549 62.2675 59.7543 19.9162
307 0.0000 87.4510 37.2549 29.1192 54.0656 20.5652
308 12.1569 87.4510 37.2549 29.6786 54.3540 20.5914
309 24.7059 87.4510 37.2549 31.1486 55.1118 20.6602
310 37.2549 87.4510 37.2549 33.7913 56.4741 20.7839
311 49.8039 87.4510 37.2549 37.7841 58.5325 20.9708
312 62.3529 87.4510 37.2549 43.2743 61.3628 21.2277
313 74.9020 87.4510 37.2549 50.3902 65.0312 21.5607
314 87.4510 87.4510 37.2549 59.2463 69.5967 21.9752
315 100.0000 87.4510 37.2549 69.9468 75.1130 22.4759
316 0.0000 100.0000 37.2549 38.3978 72.6228 23.6581
317 12.1569 100.0000 37.2549 38.9572 72.9112 23.6843
318 24.7059 100.0000 37.2549 40.4272 73.6690 23.7531
319 37.2549 100.0000 37.2549 43.0699 75.0313 23.8768
320 49.8039 100.0000 37.2549 47.0627 77.0897 24.0636
321 62.3529 100.0000 37.2549 52.5529 79.9200 24.3206
322 74.9020 100.0000 37.2549 59.6688 83.5884 24.6536
323 87.4510 100.0000 37.2549 68.5249 88.1539 25.0680
324 100.0000 100.0000 37.2549 79.2254 93.6702 25.5688
325 0.0000 0.0000 49.8039 4.7430 2.5170 21.0598
326 12.1569 0.0000 49.8039 5.3024 2.8054 21.0860
327 24.7059 0.0000 49.8039 6.7724 3.5632 21.1548
328 37.2549 0.0000 49.8039 9.4151 4.9256 21.2785
329 49.8039 0.0000 49.8039 13.4078 6.9839 21.4653
330 62.3529 0.0000 49.8039 18.8981 9.8142 21.7223
331 74.9020 0.0000 49.8039 26.0140 13.4826 22.0553
332 87.4510 0.0000 49.8039 34.8701 18.0481 22.4697
333 100.0000 0.0000 49.8039 45.5706 23.5644 22.9705
334 0.0000 12.1569 49.8039 5.2280 3.4872 21.2215
335 12.1569 12.1569 49.8039 5.7875 3.7755 21.2477
336 24.7059 12.1569 49.8039 7.2574 4.5334 21.3165
337 37.2549 12.1569 49.8039 9.9002 5.8957 21.4402
338 49.8039 12.1569 49.8039 13.8929 7.9541 21.6270
339 62.3529 12.1569 49.8039 19.3831 10.7844 21.8840
340 74.9020 12.1569 49.8039 26.4990 14.4528 22.2170
341 87.4510 12.1569 49.8039 35.3552 19.0183 22.6314
342 100.0000 12.1569 49.8039 46.0556 24.5346 23.1322
343 0.0000 24.7059 49.8039 6.5027 6.0364 21.6464
344 12.1569 24.7059 49.8039 7.0621 6.3248 21.6726
345 24.7059 24.7059 49.8039 8.5321 7.0826 21.7414
346 37.2549 24.7059 49.8039 11.1748 8.4450 21.8650
347 49.8039 24.7059 49.8039 15.1676 10.5034 22.0519
348 62.3529 24.7059 49.8039 20.6578 13.3337 22.3088
349 74.9020 24.7059 49.8039 27.7737 17.0020 22.6419
350 87.4510 24.7059 49.8039 36.6298 21.5675 23.0563
351 100.0000 24.7059 49.8039 47.3303 27.0838 23.5571
352 0.0000 37.2549 49.8039 8.7942 10.6196 22.4102
353 12.1569 37.2549 49.8039 9.3537 10.9079 22.4364
354 24.7059 37.2549 49.8039 10.8236 11.6658 22.5052
355 37.2549 37.2549 49.8039 13.4664 13.0281 22.6289
356 49.8039 37.2549 49.8039 17.4591 15.0865 22.8157
357 62.3529 37.2549 49.8039 22.9493 17.9168 23.0727
358 74.9020 37.2549 49.8039 30.0652 21.5852 23.4057
359 87.4510 37.2549 49.8039 38.9214 26.1507 23.8202
360 100.0000 37.2549 49.8039 49.6218 31.6670 24.3209
361 0.0000 49.8039 49.8039 12.2564 17.5439 23.5643
362 12.1569 49.8039 49.8039 12.8159 17.8323 23.5905
363 24.7059 49.8039 49.8039 14.2858 18.5901 23.6593
364 37.2549 49.8039 49.8039 16.9286 19.9525 23.7830
365 49.8039 49.8039 49.8039 20.9213 22.0108 23.9698
366 62.3529 49.8039 49.8039 26.4115 24.8412 24.2267
367 74.9020 49.8039 49.8039 33.5274 28.5095 24.5598
368 87.4510 49.8039 49.8039 42.3835 33.0750 24.9742
369 100.0000 49.8039 49.8039 53.0840 38.5913 25.4750
370 0.0000 62.3529 49.8039 17.0171 27.0653 25.1512
371 12.1569 62.3529 49.8039 17.5765 27.3537 25.1774
372 24.7059 62.3529 49.8039 19.0465 28.1115 25.2462
373 37.2549 62.3529 49.8039 21.6892 29.4739 25.3698
374 49.8039 62.3529 49.8039 25.6820 31.5322 25.5567
375 62.3529 62.3529 49.8039 31.1722 34.3625 25.8136
376 74.9020 62.3529 49.8039 38.2881 38.0309 26.1467
377 87.4510 62.3529 49.8039 47.1442 42.5964 26.5611
378 100.0000 62.3529 49.8039 57.8447 48.1127 27.0619
379 0.0000 74.9020 49.8039 23.1875 39.4060 27.2080
380 12.1569 74.9020 49.8039 23.7469 39.6944 27.2342
381 24.7059 74.9020 49.8039 25.2169 40.4522 27.3029
382 37.2549 74.9020 49.8039 27.8596 41.8145 27.4266
383 49.8039 74.9020 49.8039 31.8523 43.8729 27.6135
384 62.3529 74.9020 49.8039 37.3425 46.7032 27.8704
385 74.9020 74.9020 49.8039 44.4585 50.3716 28.2034
386 87.4510 74.9020 49.8039 53.3146 54.9371 28.6179
387 100.0000 74.9020 49.8039 64.0151 60.4534 29.1187
388 0.0000 87.4510 49.8039 30.8668 54.7646 29.7677
389 12.1569 87.4510 49.8039 31.4262 55.0530 29.7939
390 24.7059 87.4510 49.8039 32.8962 55.8108 29.8627
391 37.2549 87.4510 49.8039 35.5389 57.1731 29.9864
392 49.8039 87.4510 49.8039 39.5316 59.2315 30.1733
393 62.3529 87.4510 49.8039 45.0219 62.0618 30.4302
394 74.9020 87.4510 49.8039 52.1378 65.7302 30.7632
395 87.4510 87.4510 49.8039 60.9939 70.2957 31.1777
396 100.0000 87.4510 49.8039 71.6944 75.8120 31.6784
397 0.0000 100.0000 49.8039 40.1454 73.3218 32.8606
398 12.1569 100.0000 49.8039 40.7048 73.6102 32.8868
399 24.7059 100.0000 49.8039 42.1748 74.3680 32.9556
400 37.2549 100.0000 49.8039 44.8175 75.7304 33.0793
401 49.8039 100.0000 49.8039 48.8102 77.7887 33.2661
402 62.3529 100.0000 49.8039 54.3005 80.6190 33.5231
403 74.9020 100.0000 49.8039 61.4164 84.2874 33.8561
404 87.4510 100.0000 49.8039 70.2725 88.8529 34.2705
405 100.0000 100.0000 49.8039 80.9730 94.3692 34.7713
406 0.0000 0.0000 62.3529 7.1459 3.4782 33.7137
407 12.1569 0.0000 62.3529 7.7054 3.7666 33.7399
408 24.7059 0.0000 62.3529 9.1753 4.5244 33.8087
409 37.2549 0.0000 62.3529 11.8180 5.8867 33.9323
410 49.8039 0.0000 62.3529 15.8108 7.9451 34.1192
411 62.3529 0.0000 62.3529 21.3010 10.7754 34.3761
412 74.9020 0.0000 62.3529 28.4169 14.4438 34.7091
413 87.4510 0.0000 62.3529 37.2730 19.0093 35.1236
414 100.0000 0.0000 62.3529 47.9735 24.5256 35.6244
415 0.0000 12.1569 62.3529 7.6310 4.4483 33.8754
416 12.1569 12.1569 62.3529 8.1904 4.7367 33.9016
417 24.7059 12.1569 62.3529 9.6604 5.4945 33.9703
418 37.2549 12.1569 62.3529 12.3031 6.8569 34.0940
419 49.8039 12.1569 62.3529 16.2959 8.9153 34.2809
420 62.3529 12.1569 62.3529 21.7861 11.7456 34.5378
421 74.9020 12.1569 62.3529 28.9020 15.4139 34.8708
422 87.4510 12.1569 62.3529 37.7581 19.9794 35.2853
423 100.0000 12.1569 62.3529 48.4586 25.4957 35.7861
424 0.0000 24.7059 62.3529 8.9057 6.9976 34.3003
425 12.1569 24.7059 62.3529 9.4651 7.2860 34.3264
426 24.7059 24.7059 62.3529 10.9351 8.0438 34.3952
427 37.2549 24.7059 62.3529 13.5778 9.4062 34.5189
428 49.8039 24.7059 62.3529 17.5705 11.4645 34.7058
429 62.3529 24.7059 62.3529 23.0608 14.2949 34.9627
430 74.9020 24.7059 62.3529 30.1767 17.9632 35.2957
431 87.4510 24.7059 62.3529 39.0328 22.5287 35.7102
432 100.0000 24.7059 62.3529 49.7333 28.0450 36.2110
433 0.0000 37.2549 62.3529 11.1972 11.5807 35.0641
434 12.1569 37.2549 62.3529 11.7566 11.8691 35.0903
435 24.7059 37.2549 62.3529 13.2266 12.6269 35.1591
436 37.2549 37.2549 62.3529 15.8693 13.9893 35.2828
437 49.8039 37.2549 62.3529 19.8621 16.0477 35.4696
438 62.3529 37.2549 62.3529 25.3523 18.8780 35.7266
439 74.9020 37.2549 62.3529 32.4682 22.5463 36.0596
440 87.4510 37.2549 62.3529 41.3243 27.1118 36.4740
441 100.0000 37.2549 62.3529 52.0248 32.6281 36.9748
442 0.0000 49.8039 62.3529 14.6594 18.5051 36.2182
443 12.1569 49.8039 62.3529 15.2188 18.7935 36.2444
444 24.7059 49.8039 62.3529 16.6888 19.5513 36.3131
445 37.2549 49.8039 62.3529 19.3315 20.9137 36.4368
446 49.8039 49.8039 62.3529 23.3243 22.9720 36.6237
447 62.3529 49.8039 62.3529 28.8145 25.8023 36.8806
448 74.9020 49.8039 62.3529 35.9304 29.4707 37.2136
449 87.4510 49.8039 62.3529 44.7865 34.0362 37.6281
450 100.0000 49.8039 62.3529 55.4870 39.5525 38.1289
451 0.0000 62.3529 62.3529 19.4201 28.0265 37.8051
452 12.1569 62.3529 62.3529 19.9795 28.3149 37.8312
453 24.7059 62.3529 62.3529 21.4495 29.0727 37.9000
454 37.2549 62.3529 62.3529 24.0922 30.4350 38.0237
455 49.8039 62.3529 62.3529 28.0850 32.4934 38.2106
456 62.3529 62.3529 62.3529 33.5752 35.3237 38.4675
