assets/charts/pharmacist/rgb/i1pro/a4/abw1110/abw1110.ti2
CTI2   

DESCRIPTOR "Argyll Calibration Target chart information 2"
ORIGINATOR "Argyll printtarg"
CREATED "Sun May 31 14:12:55 2026"
TARGET_INSTRUMENT "GretagMacbeth i1 Pro"
APPROX_WHITE_POINT "95.050000 100.000000 108.900000"
COLOR_REP "RGB"
PAPER_SIZE "210.0x297.0"
RANDOM_START "1"
STEPS_IN_PASS "24"
PASSES_IN_STRIPS2 "24,23"
STRIP_INDEX_PATTERN "A-Z, A-Z"
PATCH_INDEX_PATTERN "0-9,@-9,@-9;1-999"
INDEX_ORDER "STRIP_THEN_PATCH"

NUMBER_OF_FIELDS 8
BEGIN_DATA_FORMAT
SAMPLE_ID SAMPLE_LOC RGB_R RGB_G RGB_B XYZ_X XYZ_Y XYZ_Z 
END_DATA_FORMAT

NUMBER_OF_SETS 1128
BEGIN_DATA
1 "F20" 0.00000 0.00000 0.00000 0.950500 1.000000 1.089000 
2 "AO9" 12.15686 0.00000 0.00000 1.509900 1.288400 1.115200 
3 "P2" 24.70588 0.00000 0.00000 2.979900 2.046200 1.184000 
4 "U7" 37.25490 0.00000 0.00000 5.622600 3.408600 1.307700 
5 "M23" 49.80392 0.00000 0.00000 9.615400 5.466900 1.494500 
6 "U14" 62.35294 0.00000 0.00000 15.10560 8.297200 1.751400 
7 "V3" 74.90196 0.00000 0.00000 22.22150 11.96560 2.084500 
8 "AI8" 87.45098 0.00000 0.00000 31.07760 16.53110 2.498900 
9 "N8" 100.0000 0.00000 0.00000 41.77810 22.04740 2.999700 
10 "AA1" 0.00000 12.15686 0.00000 1.435600 1.970200 1.250700 
11 "AT10" 12.15686 12.15686 0.00000 1.995000 2.258600 1.276900 
12 "AE6" 24.70588 12.15686 0.00000 3.465000 3.016400 1.345700 
13 "AO20" 37.25490 12.15686 0.00000 6.107700 4.378700 1.469300 
14 "Y8" 49.80392 12.15686 0.00000 10.10050 6.437100 1.656200 
15 "F19" 62.35294 12.15686 0.00000 15.59070 9.267400 1.913100 
16 "L14" 74.90196 12.15686 0.00000 22.70660 12.93580 2.246200 
17 "P20" 87.45098 12.15686 0.00000 31.56270 17.50130 2.660600 
18 "N1" 100.0000 12.15686 0.00000 42.26320 23.01760 3.161400 
19 "AO8" 0.00000 24.70588 0.00000 2.710200 4.519500 1.675600 
20 "T13" 12.15686 24.70588 0.00000 3.269700 4.807900 1.701800 
21 "AI4" 24.70588 24.70588 0.00000 4.739600 5.565700 1.770600 
22 "V22" 37.25490 24.70588 0.00000 7.382400 6.928000 1.894200 
23 "AE24" 49.80392 24.70588 0.00000 11.37510 8.986400 2.081100 
24 "AP4" 62.35294 24.70588 0.00000 16.86530 11.81670 2.338000 
25 "AF16" 74.90196 24.70588 0.00000 23.98120 15.48510 2.671000 
26 "S13" 87.45098 24.70588 0.00000 32.83730 20.05060 3.085500 
27 "AE17" 100.0000 24.70588 0.00000 43.53780 25.56690 3.586300 
28 "AI9" 0.00000 37.25490 0.00000 5.001800 9.102600 2.439400 
29 "S2" 12.15686 37.25490 0.00000 5.561200 9.391000 2.465600 
30 "L4" 24.70588 37.25490 0.00000 7.031200 10.14880 2.534400 
31 "AR2" 37.25490 37.25490 0.00000 9.673900 11.51110 2.658100 
32 "AJ19" 49.80392 37.25490 0.00000 13.66670 13.56950 2.844900 
33 "C17" 62.35294 37.25490 0.00000 19.15690 16.39980 3.101900 
34 "AE13" 74.90196 37.25490 0.00000 26.27280 20.06820 3.434900 
35 "Q21" 87.45098 37.25490 0.00000 35.12890 24.63370 3.849400 
36 "AG6" 100.0000 37.25490 0.00000 45.82940 30.15000 4.350100 
37 "K15" 0.00000 49.80392 0.00000 8.464000 16.02700 3.593500 
38 "M6" 12.15686 49.80392 0.00000 9.023400 16.31530 3.619700 
39 "I2" 24.70588 49.80392 0.00000 10.49340 17.07320 3.688500 
40 "AQ24" 37.25490 49.80392 0.00000 13.13610 18.43550 3.812100 
41 "AL23" 49.80392 49.80392 0.00000 17.12890 20.49390 3.999000 
42 "AQ17" 62.35294 49.80392 0.00000 22.61910 23.32420 4.255900 
43 "AE2" 74.90196 49.80392 0.00000 29.73500 26.99260 4.589000 
44 "W19" 87.45098 49.80392 0.00000 38.59110 31.55810 5.003400 
45 "G22" 100.0000 49.80392 0.00000 49.29160 37.07440 5.504200 
46 "U16" 0.00000 62.35294 0.00000 13.22470 25.54830 5.180400 
47 "AJ5" 12.15686 62.35294 0.00000 13.78410 25.83670 5.206600 
48 "S9" 24.70588 62.35294 0.00000 15.25410 26.59450 5.275400 
49 "V23" 37.25490 62.35294 0.00000 17.89680 27.95690 5.399000 
50 "AQ20" 49.80392 62.35294 0.00000 21.88950 30.01520 5.585900 
51 "AK14" 62.35294 62.35294 0.00000 27.37980 32.84550 5.842800 
52 "AI11" 74.90196 62.35294 0.00000 34.49570 36.51390 6.175900 
53 "AT13" 87.45098 62.35294 0.00000 43.35180 41.07940 6.590300 
54 "J3" 100.0000 62.35294 0.00000 54.05230 46.59570 7.091100 
55 "V11" 0.00000 74.90196 0.00000 19.39500 37.88900 7.237200 
56 "S15" 12.15686 74.90196 0.00000 19.95440 38.17740 7.263300 
57 "AJ24" 24.70588 74.90196 0.00000 21.42440 38.93520 7.332100 
58 "AD8" 37.25490 74.90196 0.00000 24.06710 40.29760 7.455800 
59 "L16" 49.80392 74.90196 0.00000 28.05990 42.35590 7.642700 
60 "S19" 62.35294 74.90196 0.00000 33.55010 45.18620 7.899600 
61 "K4" 74.90196 74.90196 0.00000 40.66600 48.85460 8.232600 
62 "AE19" 87.45098 74.90196 0.00000 49.52210 53.42010 8.647100 
63 "AG8" 100.0000 74.90196 0.00000 60.22260 58.93640 9.147900 
64 "A6" 0.00000 87.45098 0.00000 27.07430 53.24760 9.796900 
65 "R7" 12.15686 87.45098 0.00000 27.63370 53.53600 9.823100 
66 "Q3" 24.70588 87.45098 0.00000 29.10370 54.29380 9.891900 
67 "AG23" 37.25490 87.45098 0.00000 31.74640 55.65620 10.01560 
68 "Y6" 49.80392 87.45098 0.00000 35.73920 57.71450 10.20240 
69 "W17" 62.35294 87.45098 0.00000 41.22940 60.54480 10.45940 
70 "H14" 74.90196 87.45098 0.00000 48.34530 64.21320 10.79240 
71 "AM8" 87.45098 87.45098 0.00000 57.20140 68.77870 11.20690 
72 "K11" 100.0000 87.45098 0.00000 67.90190 74.29500 11.70760 
73 "W15" 0.00000 100.0000 0.00000 36.35290 71.80480 12.88980 
74 "AH8" 12.15686 100.0000 0.00000 36.91230 72.09320 12.91600 
75 "AL10" 24.70588 100.0000 0.00000 38.38230 72.85100 12.98480 
76 "AF23" 37.25490 100.0000 0.00000 41.02500 74.21340 13.10850 
77 "AR14" 49.80392 100.0000 0.00000 45.01780 76.27170 13.29530 
78 "M21" 62.35294 100.0000 0.00000 50.50800 79.10200 13.55220 
79 "J23" 74.90196 100.0000 0.00000 57.62390 82.77040 13.88530 
80 "I7" 87.45098 100.0000 0.00000 66.48000 87.33590 14.29970 
81 "AU7" 100.0000 100.0000 0.00000 77.18050 92.85220 14.80050 
82 "P1" 0.00000 0.00000 12.15686 1.195300 1.097900 2.378400 
83 "AG9" 12.15686 0.00000 12.15686 1.754800 1.386300 2.404500 
84 "AL1" 24.70588 0.00000 12.15686 3.224700 2.144100 2.473300 
85 "B15" 37.25490 0.00000 12.15686 5.867500 3.506500 2.597000 
86 "AK17" 49.80392 0.00000 12.15686 9.860200 5.564800 2.783900 
87 "C19" 62.35294 0.00000 12.15686 15.35040 8.395200 3.040800 
88 "L22" 74.90196 0.00000 12.15686 22.46630 12.06350 3.373800 
89 "AH3" 87.45098 0.00000 12.15686 31.32250 16.62900 3.788300 
90 "AE21" 100.0000 0.00000 12.15686 42.02290 22.14530 4.289100 
91 "E14" 0.00000 12.15686 12.15686 1.680400 2.068100 2.540100 
92 "AK21" 12.15686 12.15686 12.15686 2.239900 2.356500 2.566200 
93 "L3" 24.70588 12.15686 12.15686 3.709800 3.114300 2.635000 
94 "I20" 37.25490 12.15686 12.15686 6.352600 4.476700 2.758700 
95 "AS24" 49.80392 12.15686 12.15686 10.34530 6.535000 2.945600 
96 "AR20" 62.35294 12.15686 12.15686 15.83550 9.365300 3.202500 
97 "Q12" 74.90196 12.15686 12.15686 22.95140 13.03370 3.535500 
98 "F24" 87.45098 12.15686 12.15686 31.80750 17.59920 3.950000 
99 "AM20" 100.0000 12.15686 12.15686 42.50800 23.11550 4.450800 
100 "AG10" 0.00000 24.70588 12.15686 2.955100 4.617400 2.964900 
101 "AK16" 12.15686 24.70588 12.15686 3.514500 4.905800 2.991100 
102 "C1" 24.70588 24.70588 12.15686 4.984500 5.663600 3.059900 
103 "AO6" 37.25490 24.70588 12.15686 7.627200 7.026000 3.183600 
104 "AU1" 49.80392 24.70588 12.15686 11.62000 9.084300 3.370400 
105 "E19" 62.35294 24.70588 12.15686 17.11020 11.91460 3.627400 
106 "R12" 74.90196 24.70588 12.15686 24.22610 15.58300 3.960400 
107 "X4" 87.45098 24.70588 12.15686 33.08220 20.14850 4.374900 
108 "S22" 100.0000 24.70588 12.15686 43.78270 25.66480 4.875600 
109 "AR24" 0.00000 37.25490 12.15686 5.246600 9.200500 3.728800 
110 "R14" 12.15686 37.25490 12.15686 5.806100 9.488900 3.755000 
111 "Z1" 24.70588 37.25490 12.15686 7.276000 10.24670 3.823800 
112 "D1" 37.25490 37.25490 12.15686 9.918800 11.60910 3.947400 
113 "AG24" 49.80392 37.25490 12.15686 13.91150 13.66740 4.134300 
114 "M13" 62.35294 37.25490 12.15686 19.40170 16.49770 4.391200 
115 "C7" 74.90196 37.25490 12.15686 26.51760 20.16610 4.724300 
116 "G18" 87.45098 37.25490 12.15686 35.37370 24.73160 5.138700 
117 "AJ14" 100.0000 37.25490 12.15686 46.07420 30.24790 5.639500 
118 "AT15" 0.00000 49.80392 12.15686 8.708800 16.12490 4.882900 
119 "AQ15" 12.15686 49.80392 12.15686 9.268300 16.41330 4.909000 
120 "H2" 24.70588 49.80392 12.15686 10.73820 17.17110 4.977800 
121 "AB6" 37.25490 49.80392 12.15686 13.38090 18.53350 5.101500 
122 "AM13" 49.80392 49.80392 12.15686 17.37370 20.59180 5.288400 
123 "AL4" 62.35294 49.80392 12.15686 22.86390 23.42210 5.545300 
124 "AK20" 74.90196 49.80392 12.15686 29.97980 27.09050 5.878300 
125 "A3" 87.45098 49.80392 12.15686 38.83590 31.65600 6.292800 
126 "AK3" 100.0000 49.80392 12.15686 49.53640 37.17230 6.793600 
127 "AT22" 0.00000 62.35294 12.15686 13.46950 25.64630 6.469700 
128 "I22" 12.15686 62.35294 12.15686 14.02890 25.93460 6.495900 
129 "G6" 24.70588 62.35294 12.15686 15.49890 26.69240 6.564700 
130 "K2" 37.25490 62.35294 12.15686 18.14160 28.05480 6.688400 
131 "N10" 49.80392 62.35294 12.15686 22.13440 30.11320 6.875300 
132 "AK22" 62.35294 62.35294 12.15686 27.62460 32.94350 7.132200 
133 "AQ6" 74.90196 62.35294 12.15686 34.74050 36.61190 7.465200 
134 "AS16" 87.45098 62.35294 12.15686 43.59660 41.17730 7.879700 
135 "AS10" 100.0000 62.35294 12.15686 54.29710 46.69370 8.380400 
136 "D11" 0.00000 74.90196 12.15686 19.63980 37.98690 8.526500 
137 "AF21" 12.15686 74.90196 12.15686 20.19930 38.27530 8.552700 
138 "AQ2" 24.70588 74.90196 12.15686 21.66920 39.03310 8.621500 
139 "Y2" 37.25490 74.90196 12.15686 24.31200 40.39550 8.745200 
140 "C24" 49.80392 74.90196 12.15686 28.30470 42.45380 8.932000 
141 "H15" 62.35294 74.90196 12.15686 33.79490 45.28410 9.189000 
142 "AD24" 74.90196 74.90196 12.15686 40.91080 48.95250 9.522000 
143 "G2" 87.45098 74.90196 12.15686 49.76700 53.51800 9.936400 
144 "AC21" 100.0000 74.90196 12.15686 60.46740 59.03430 10.43720 
145 "AQ4" 0.00000 87.45098 12.15686 27.31910 53.34550 11.08630 
146 "H9" 12.15686 87.45098 12.15686 27.87860 53.63390 11.11250 
147 "D15" 24.70588 87.45098 12.15686 29.34850 54.39170 11.18130 
148 "B18" 37.25490 87.45098 12.15686 31.99130 55.75410 11.30490 
149 "D2" 49.80392 87.45098 12.15686 35.98400 57.81240 11.49180 
150 "AL11" 62.35294 87.45098 12.15686 41.47420 60.64280 11.74870 
151 "M1" 74.90196 87.45098 12.15686 48.59010 64.31110 12.08180 
152 "AU21" 87.45098 87.45098 12.15686 57.44630 68.87660 12.49620 
153 "AJ8" 100.0000 87.45098 12.15686 68.14670 74.39290 12.99700 
154 "E23" 0.00000 100.0000 12.15686 36.59770 71.90270 14.17920 
155 "AM9" 12.15686 100.0000 12.15686 37.15720 72.19110 14.20530 
156 "AC7" 24.70588 100.0000 12.15686 38.62710 72.94890 14.27410 
157 "K18" 37.25490 100.0000 12.15686 41.26990 74.31130 14.39780 
158 "AN6" 49.80392 100.0000 12.15686 45.26260 76.36960 14.58470 
159 "C22" 62.35294 100.0000 12.15686 50.75280 79.20000 14.84160 
160 "S11" 74.90196 100.0000 12.15686 57.86870 82.86830 15.17460 
161 "I15" 87.45098 100.0000 12.15686 66.72490 87.43380 15.58910 
162 "R9" 100.0000 100.0000 12.15686 77.42530 92.95010 16.08990 
163 "AE7" 0.00000 0.00000 24.70588 1.838700 1.355300 5.766400 
164 "F21" 12.15686 0.00000 24.70588 2.398200 1.643700 5.792500 
165 "C15" 24.70588 0.00000 24.70588 3.868100 2.401500 5.861300 
166 "AT17" 37.25490 0.00000 24.70588 6.510900 3.763900 5.985000 
167 "Z10" 49.80392 0.00000 24.70588 10.50360 5.822200 6.171900 
168 "AN20" 62.35294 0.00000 24.70588 15.99380 8.652500 6.428800 
169 "AI18" 74.90196 0.00000 24.70588 23.10970 12.32090 6.761800 
170 "AB4" 87.45098 0.00000 24.70588 31.96580 16.88640 7.176300 
171 "AP22" 100.0000 0.00000 24.70588 42.66630 22.40270 7.677100 
172 "AU22" 0.00000 12.15686 24.70588 2.323800 2.325500 5.928100 
173 "AI5" 12.15686 12.15686 24.70588 2.883200 2.613900 5.954200 
174 "D24" 24.70588 12.15686 24.70588 4.353200 3.371700 6.023000 
175 "AA21" 37.25490 12.15686 24.70588 6.995900 4.734000 6.146700 
176 "AE11" 49.80392 12.15686 24.70588 10.98870 6.792400 6.333600 
177 "Z8" 62.35294 12.15686 24.70588 16.47890 9.622700 6.590500 
178 "X8" 74.90196 12.15686 24.70588 23.59480 13.29110 6.923500 
179 "T24" 87.45098 12.15686 24.70588 32.45090 17.85660 7.338000 
180 "AT18" 100.0000 12.15686 24.70588 43.15140 23.37290 7.838800 
181 "AU24" 0.00000 24.70588 24.70588 3.598500 4.874800 6.352900 
182 "AE1" 12.15686 24.70588 24.70588 4.157900 5.163100 6.379100 
183 "K20" 24.70588 24.70588 24.70588 5.627900 5.921000 6.447900 
184 "W1" 37.25490 24.70588 24.70588 8.270600 7.283300 6.571600 
185 "O13" 49.80392 24.70588 24.70588 12.26330 9.341700 6.758400 
186 "AO22" 62.35294 24.70588 24.70588 17.75360 12.17200 7.015400 
187 "N15" 74.90196 24.70588 24.70588 24.86950 15.84040 7.348400 
188 "V1" 87.45098 24.70588 24.70588 33.72560 20.40590 7.762900 
189 "AM17" 100.0000 24.70588 24.70588 44.42610 25.92220 8.263600 
190 "D23" 0.00000 37.25490 24.70588 5.890000 9.457900 7.116800 
191 "AS1" 12.15686 37.25490 24.70588 6.449400 9.746300 7.143000 
192 "AH1" 24.70588 37.25490 24.70588 7.919400 10.50410 7.211800 
193 "I12" 37.25490 37.25490 24.70588 10.56210 11.86640 7.335400 
194 "B23" 49.80392 37.25490 24.70588 14.55490 13.92480 7.522300 
195 "V6" 62.35294 37.25490 24.70588 20.04510 16.75510 7.779200 
196 "O3" 74.90196 37.25490 24.70588 27.16100 20.42350 8.112300 
197 "AK9" 87.45098 37.25490 24.70588 36.01710 24.98900 8.526700 
198 "AK24" 100.0000 37.25490 24.70588 46.71760 30.50530 9.027500 
199 "V15" 0.00000 49.80392 24.70588 9.352200 16.38220 8.270900 
200 "AA13" 12.15686 49.80392 24.70588 9.911600 16.67060 8.297000 
201 "T15" 24.70588 49.80392 24.70588 11.38160 17.42840 8.365800 
202 "H21" 37.25490 49.80392 24.70588 14.02430 18.79080 8.489500 
203 "AP7" 49.80392 49.80392 24.70588 18.01710 20.84920 8.676400 
204 "AP14" 62.35294 49.80392 24.70588 23.50730 23.67950 8.933300 
205 "O19" 74.90196 49.80392 24.70588 30.62320 27.34790 9.266300 
206 "AG2" 87.45098 49.80392 24.70588 39.47930 31.91330 9.680800 
207 "M11" 100.0000 49.80392 24.70588 50.17980 37.42960 10.18160 
208 "AG15" 0.00000 62.35294 24.70588 14.11290 25.90360 9.857700 
209 "R19" 12.15686 62.35294 24.70588 14.67230 26.19200 9.883900 
210 "AA2" 24.70588 62.35294 24.70588 16.14230 26.94980 9.952700 
211 "O14" 37.25490 62.35294 24.70588 18.78500 28.31220 10.07640 
212 "F8" 49.80392 62.35294 24.70588 22.77780 30.37050 10.26330 
213 "AA4" 62.35294 62.35294 24.70588 28.26800 33.20080 10.52020 
214 "H5" 74.90196 62.35294 24.70588 35.38390 36.86920 10.85320 
215 "Z20" 87.45098 62.35294 24.70588 44.24000 41.43470 11.26770 
216 "B20" 100.0000 62.35294 24.70588 54.94050 46.95100 11.76840 
217 "H19" 0.00000 74.90196 24.70588 20.28320 38.24430 11.91450 
218 "AO14" 12.15686 74.90196 24.70588 20.84260 38.53270 11.94070 
219 "X20" 24.70588 74.90196 24.70588 22.31260 39.29050 12.00950 
220 "Y4" 37.25490 74.90196 24.70588 24.95530 40.65280 12.13320 
221 "AU15" 49.80392 74.90196 24.70588 28.94810 42.71120 12.32000 
222 "A10" 62.35294 74.90196 24.70588 34.43830 45.54150 12.57700 
223 "AT24" 74.90196 74.90196 24.70588 41.55420 49.20990 12.91000 
224 "L10" 87.45098 74.90196 24.70588 50.41030 53.77540 13.32450 
225 "B4" 100.0000 74.90196 24.70588 61.11080 59.29170 13.82520 
226 "AH20" 0.00000 87.45098 24.70588 27.96250 53.60290 14.47430 
227 "B2" 12.15686 87.45098 24.70588 28.52200 53.89130 14.50050 
228 "B8" 24.70588 87.45098 24.70588 29.99190 54.64910 14.56930 
229 "I13" 37.25490 87.45098 24.70588 32.63470 56.01150 14.69290 
230 "T6" 49.80392 87.45098 24.70588 36.62740 58.06980 14.87980 
231 "X6" 62.35294 87.45098 24.70588 42.11760 60.90010 15.13670 
232 "D4" 74.90196 87.45098 24.70588 49.23350 64.56850 15.46980 
233 "I9" 87.45098 87.45098 24.70588 58.08960 69.13400 15.88420 
234 "V5" 100.0000 87.45098 24.70588 68.79010 74.65030 16.38500 
235 "Y14" 0.00000 100.0000 24.70588 37.24110 72.16010 17.56720 
236 "P17" 12.15686 100.0000 24.70588 37.80060 72.44850 17.59330 
237 "Z4" 24.70588 100.0000 24.70588 39.27050 73.20630 17.66210 
238 "S3" 37.25490 100.0000 24.70588 41.91330 74.56870 17.78580 
239 "AR18" 49.80392 100.0000 24.70588 45.90600 76.62700 17.97270 
240 "N19" 62.35294 100.0000 24.70588 51.39620 79.45730 18.22960 
241 "AC1" 74.90196 100.0000 24.70588 58.51210 83.12570 18.56260 
242 "AF3" 87.45098 100.0000 24.70588 67.36820 87.69120 18.97710 
243 "U12" 100.0000 100.0000 24.70588 78.06870 93.20750 19.47790 
244 "AH10" 0.00000 0.00000 37.25490 2.995400 1.818000 11.85730 
245 "AT4" 12.15686 0.00000 37.25490 3.554800 2.106400 11.88350 
246 "AB24" 24.70588 0.00000 37.25490 5.024800 2.864200 11.95230 
247 "E3" 37.25490 0.00000 37.25490 7.667500 4.226500 12.07600 
248 "AC15" 49.80392 0.00000 37.25490 11.66030 6.284900 12.26280 
249 "Q14" 62.35294 0.00000 37.25490 17.15050 9.115200 12.51980 
250 "AP15" 74.90196 0.00000 37.25490 24.26640 12.78360 12.85280 
251 "H24" 87.45098 0.00000 37.25490 33.12250 17.34910 13.26720 
252 "G24" 100.0000 0.00000 37.25490 43.82300 22.86540 13.76800 
253 "Y10" 0.00000 12.15686 37.25490 3.480500 2.788100 12.01900 
254 "AL2" 12.15686 12.15686 37.25490 4.039900 3.076500 12.04520 
255 "U9" 24.70588 12.15686 37.25490 5.509900 3.834300 12.11400 
256 "AH6" 37.25490 12.15686 37.25490 8.152600 5.196700 12.23770 
257 "E15" 49.80392 12.15686 37.25490 12.14540 7.255000 12.42450 
258 "X1" 62.35294 12.15686 37.25490 17.63560 10.08540 12.68150 
259 "Q16" 74.90196 12.15686 37.25490 24.75150 13.75370 13.01450 
260 "D7" 87.45098 12.15686 37.25490 33.60760 18.31920 13.42890 
261 "AM24" 100.0000 12.15686 37.25490 44.30810 23.83550 13.92970 
262 "AR21" 0.00000 24.70588 37.25490 4.755100 5.337400 12.44390 
263 "M12" 12.15686 24.70588 37.25490 5.314600 5.625800 12.47010 
264 "AK8" 24.70588 24.70588 37.25490 6.784500 6.383600 12.53890 
265 "AG1" 37.25490 24.70588 37.25490 9.427300 7.746000 12.66250 
266 "T7" 49.80392 24.70588 37.25490 13.42000 9.804300 12.84940 
267 "AH24" 62.35294 24.70588 37.25490 18.91020 12.63460 13.10630 
268 "D22" 74.90196 24.70588 37.25490 26.02610 16.30300 13.43940 
269 "AT9" 87.45098 24.70588 37.25490 34.88220 20.86850 13.85380 
270 "AD6" 100.0000 24.70588 37.25490 45.58270 26.38480 14.35460 
271 "Q24" 0.00000 37.25490 37.25490 7.046700 9.920500 13.20770 
272 "AS3" 12.15686 37.25490 37.25490 7.606100 10.20890 13.23390 
273 "AD11" 24.70588 37.25490 37.25490 9.076100 10.96670 13.30270 
274 "U2" 37.25490 37.25490 37.25490 11.71880 12.32910 13.42640 
275 "AM19" 49.80392 37.25490 37.25490 15.71160 14.38740 13.61320 
276 "AF6" 62.35294 37.25490 37.25490 21.20180 17.21780 13.87020 
277 "X13" 74.90196 37.25490 37.25490 28.31770 20.88610 14.20320 
278 "AA19" 87.45098 37.25490 37.25490 37.17380 25.45160 14.61770 
279 "AA22" 100.0000 37.25490 37.25490 47.87430 30.96790 15.11840 
280 "F1" 0.00000 49.80392 37.25490 10.50890 16.84490 14.36180 
281 "AA20" 12.15686 49.80392 37.25490 11.06830 17.13330 14.38800 
282 "AR15" 24.70588 49.80392 37.25490 12.53830 17.89110 14.45680 
283 "L13" 37.25490 49.80392 37.25490 15.18100 19.25350 14.58050 
284 "X17" 49.80392 49.80392 37.25490 19.17380 21.31180 14.76730 
285 "G12" 62.35294 49.80392 37.25490 24.66400 24.14210 15.02430 
286 "A20" 74.90196 49.80392 37.25490 31.77990 27.81050 15.35730 
287 "AA7" 87.45098 49.80392 37.25490 40.63600 32.37600 15.77170 
288 "A23" 100.0000 49.80392 37.25490 51.33650 37.89230 16.27250 
289 "O24" 0.00000 62.35294 37.25490 15.26960 26.36630 15.94870 
290 "R22" 12.15686 62.35294 37.25490 15.82900 26.65470 15.97490 
291 "AQ22" 24.70588 62.35294 37.25490 17.29900 27.41250 16.04370 
292 "T8" 37.25490 62.35294 37.25490 19.94170 28.77480 16.16730 
293 "AE16" 49.80392 62.35294 37.25490 23.93440 30.83320 16.35420 
294 "N14" 62.35294 62.35294 37.25490 29.42470 33.66350 16.61110 
295 "R6" 74.90196 62.35294 37.25490 36.54060 37.33190 16.94420 
296 "F4" 87.45098 62.35294 37.25490 45.39670 41.89740 17.35860 
297 "N12" 100.0000 62.35294 37.25490 56.09720 47.41370 17.85940 
298 "A18" 0.00000 74.90196 37.25490 21.43990 38.70690 18.00550 
299 "AN24" 12.15686 74.90196 37.25490 21.99930 38.99530 18.03170 
300 "AJ10" 24.70588 74.90196 37.25490 23.46930 39.75310 18.10050 
301 "AK1" 37.25490 74.90196 37.25490 26.11200 41.11550 18.22410 
302 "C9" 49.80392 74.90196 37.25490 30.10480 43.17390 18.41100 
303 "AL16" 62.35294 74.90196 37.25490 35.59500 46.00420 18.66790 
304 "E13" 74.90196 74.90196 37.25490 42.71090 49.67260 19.00090 
305 "Z23" 87.45098 74.90196 37.25490 51.56700 54.23800 19.41540 
306 "Z13" 100.0000 74.90196 37.25490 62.26750 59.75430 19.91620 
307 "A16" 0.00000 87.45098 37.25490 29.11920 54.06560 20.56520 
308 "P15" 12.15686 87.45098 37.25490 29.67860 54.35400 20.59140 
309 "AF19" 24.70588 87.45098 37.25490 31.14860 55.11180 20.66020 
310 "AN22" 37.25490 87.45098 37.25490 33.79130 56.47410 20.78390 
311 "B22" 49.80392 87.45098 37.25490 37.78410 58.53250 20.97080 
312 "AD22" 62.35294 87.45098 37.25490 43.27430 61.36280 21.22770 
313 "AN13" 74.90196 87.45098 37.25490 50.39020 65.03120 21.56070 
314 "AF18" 87.45098 87.45098 37.25490 59.24630 69.59670 21.97520 
315 "M19" 100.0000 87.45098 37.25490 69.94680 75.11300 22.47590 
316 "AA15" 0.00000 100.0000 37.25490 38.39780 72.62280 23.65810 
317 "AH18" 12.15686 100.0000 37.25490 38.95720 72.91120 23.68430 
318 "C10" 24.70588 100.0000 37.25490 40.42720 73.66900 23.75310 
319 "W4" 37.25490 100.0000 37.25490 43.06990 75.03130 23.87680 
320 "AU17" 49.80392 100.0000 37.25490 47.06270 77.08970 24.06360 
321 "AC11" 62.35294 100.0000 37.25490 52.55290 79.92000 24.32060 
322 "AC5" 74.90196 100.0000 37.25490 59.66880 83.58840 24.65360 
323 "E21" 87.45098 100.0000 37.25490 68.52490 88.15390 25.06800 
324 "T20" 100.0000 100.0000 37.25490 79.22540 93.67020 25.56880 
325 "B14" 0.00000 0.00000 49.80392 4.743000 2.517000 21.05980 
326 "H22" 12.15686 0.00000 49.80392 5.302400 2.805400 21.08600 
327 "Z6" 24.70588 0.00000 49.80392 6.772400 3.563200 21.15480 
328 "AR16" 37.25490 0.00000 49.80392 9.415100 4.925600 21.27850 
329 "F14" 49.80392 0.00000 49.80392 13.40780 6.983900 21.46530 
330 "T16" 62.35294 0.00000 49.80392 18.89810 9.814200 21.72230 
331 "L2" 74.90196 0.00000 49.80392 26.01400 13.48260 22.05530 
332 "AR22" 87.45098 0.00000 49.80392 34.87010 18.04810 22.46970 
333 "Y18" 100.0000 0.00000 49.80392 45.57060 23.56440 22.97050 
334 "AU23" 0.00000 12.15686 49.80392 5.228000 3.487200 21.22150 
335 "Q18" 12.15686 12.15686 49.80392 5.787500 3.775500 21.24770 
336 "W9" 24.70588 12.15686 49.80392 7.257400 4.533400 21.31650 
337 "AN4" 37.25490 12.15686 49.80392 9.900200 5.895700 21.44020 
338 "W7" 49.80392 12.15686 49.80392 13.89290 7.954100 21.62700 
339 "AM22" 62.35294 12.15686 49.80392 19.38310 10.78440 21.88400 
340 "U21" 74.90196 12.15686 49.80392 26.49900 14.45280 22.21700 
341 "S5" 87.45098 12.15686 49.80392 35.35520 19.01830 22.63140 
342 "I11" 100.0000 12.15686 49.80392 46.05560 24.53460 23.13220 
343 "AJ23" 0.00000 24.70588 49.80392 6.502700 6.036400 21.64640 
344 "AF9" 12.15686 24.70588 49.80392 7.062100 6.324800 21.67260 
345 "AO19" 24.70588 24.70588 49.80392 8.532100 7.082600 21.74140 
346 "R15" 37.25490 24.70588 49.80392 11.17480 8.445000 21.86500 
347 "AJ21" 49.80392 24.70588 49.80392 15.16760 10.50340 22.05190 
348 "AM2" 62.35294 24.70588 49.80392 20.65780 13.33370 22.30880 
349 "Q8" 74.90196 24.70588 49.80392 27.77370 17.00200 22.64190 
350 "AI1" 87.45098 24.70588 49.80392 36.62980 21.56750 23.05630 
351 "AA17" 100.0000 24.70588 49.80392 47.33030 27.08380 23.55710 
352 "AR3" 0.00000 37.25490 49.80392 8.794200 10.61960 22.41020 
353 "X19" 12.15686 37.25490 49.80392 9.353700 10.90790 22.43640 
354 "AQ16" 24.70588 37.25490 49.80392 10.82360 11.66580 22.50520 
355 "S23" 37.25490 37.25490 49.80392 13.46640 13.02810 22.62890 
356 "B21" 49.80392 37.25490 49.80392 17.45910 15.08650 22.81570 
357 "T5" 62.35294 37.25490 49.80392 22.94930 17.91680 23.07270 
358 "AS8" 74.90196 37.25490 49.80392 30.06520 21.58520 23.40570 
359 "AG17" 87.45098 37.25490 49.80392 38.92140 26.15070 23.82020 
360 "AI14" 100.0000 37.25490 49.80392 49.62180 31.66700 24.32090 
361 "U13" 0.00000 49.80392 49.80392 12.25640 17.54390 23.56430 
362 "Y7" 12.15686 49.80392 49.80392 12.81590 17.83230 23.59050 
363 "AJ15" 24.70588 49.80392 49.80392 14.28580 18.59010 23.65930 
364 "AU18" 37.25490 49.80392 49.80392 16.92860 19.95250 23.78300 
