assets/charts/pharmacist/rgb/i1pro/a4/tc924/tc924.ti2
CTI2   

DESCRIPTOR "Argyll Calibration Target chart information 2"
ORIGINATOR "Argyll printtarg"
CREATED "Fri May 29 21:34:05 2026"
TARGET_INSTRUMENT "GretagMacbeth i1 Pro"
APPROX_WHITE_POINT "95.050000 100.000000 108.900000"
COLOR_REP "RGB"
PAPER_SIZE "210.0x297.0"
RANDOM_START "17"
STEPS_IN_PASS "21"
PASSES_IN_STRIPS2 "22,22"
STRIP_INDEX_PATTERN "A-Z, A-Z"
PATCH_INDEX_PATTERN "0-9,@-9,@-9;1-999"
INDEX_ORDER "STRIP_THEN_PATCH"

NUMBER_OF_FIELDS 8
BEGIN_DATA_FORMAT
SAMPLE_ID SAMPLE_LOC RGB_R RGB_G RGB_B XYZ_X XYZ_Y XYZ_Z 
END_DATA_FORMAT

NUMBER_OF_SETS 924
BEGIN_DATA
1 "M7" 0.00000 0.00000 0.00000 0.950500 1.000000 1.089000 
2 "Y4" 0.00000 0.00000 4.313725 1.010300 1.023900 1.403900 
3 "AG18" 4.313725 0.00000 0.00000 1.087100 1.070400 1.095400 
4 "AD1" 0.00000 0.00000 8.627451 1.093900 1.057300 1.844000 
5 "V6" 0.00000 0.00000 12.54902 1.208600 1.103200 2.448200 
6 "W21" 6.274510 0.00000 6.274510 1.254600 1.146100 1.586500 
7 "U13" 0.00000 4.313725 0.00000 1.069000 1.237000 1.128500 
8 "F15" 8.627451 0.00000 0.00000 1.278100 1.168900 1.104300 
9 "AD9" 0.00000 0.00000 18.82353 1.478700 1.211300 3.870300 
10 "AP11" 0.00000 6.274510 6.274510 1.226500 1.403900 1.637700 
11 "F4" 0.00000 0.00000 25.09804 1.866700 1.366500 5.913400 
12 "G13" 12.54902 0.00000 0.00000 1.540200 1.304000 1.116600 
13 "U2" 6.274510 6.274510 0.00000 1.345500 1.475900 1.160000 
14 "Q14" 6.274510 6.274510 6.274510 1.438100 1.513000 1.647600 
15 "K2" 12.54902 0.00000 12.54902 1.798300 1.407200 2.475800 
16 "AJ20" 6.274510 6.274510 12.54902 1.603600 1.579200 2.519200 
17 "X1" 0.00000 8.627451 0.00000 1.234500 1.568100 1.183700 
18 "X3" 12.54902 6.274510 6.274510 1.816200 1.707900 1.665300 
19 "L19" 12.54902 0.00000 25.09804 2.456400 1.670500 5.941000 
20 "G20" 12.54902 6.274510 12.54902 1.981700 1.774100 2.536900 
21 "M21" 0.00000 0.00000 37.64706 3.040700 1.836100 12.09590 
22 "AL1" 18.82353 0.00000 0.00000 2.157200 1.622100 1.145500 
23 "AE1" 0.00000 12.54902 0.00000 1.461800 2.022700 1.259400 
24 "AC4" 0.00000 12.54902 12.54902 1.720000 2.125900 2.618600 
25 "AD4" 6.274510 12.54902 6.274510 1.766000 2.168800 1.756900 
26 "B9" 12.54902 0.00000 37.64706 3.630400 2.140100 12.12350 
27 "AQ21" 6.274510 12.54902 12.54902 1.931500 2.235000 2.628500 
28 "AQ20" 0.00000 0.00000 50.19608 4.807800 2.542900 21.40140 
29 "F9" 25.09804 0.00000 0.00000 3.043700 2.079100 1.187000 
30 "Z15" 0.00000 12.54902 25.09804 2.378000 2.389200 6.083900 
31 "M18" 12.54902 12.54902 0.00000 2.051600 2.326700 1.287000 
32 "AR5" 12.54902 12.54902 6.274510 2.144100 2.363700 1.774600 
33 "AM21" 25.09804 0.00000 12.54902 3.301800 2.182300 2.546100 
34 "AG1" 12.54902 12.54902 12.54902 2.309700 2.429900 2.646200 
35 "O16" 95.68627 95.68627 100.0000 87.78230 91.24290 107.5928 
36 "O3" 100.0000 95.68627 95.68627 89.97110 92.56810 98.80360 
37 "AQ19" 100.0000 81.17647 100.0000 81.73730 73.37460 104.4624 
38 "AM19" 100.0000 94.11765 94.11765 88.19750 89.97270 95.27770 
39 "AL5" 100.0000 91.37255 91.37255 85.18650 85.56680 89.29220 
40 "AQ15" 95.68627 100.0000 100.0000 91.15750 97.99340 108.7178 
41 "E7" 50.19608 75.29412 12.54902 28.68280 42.96880 9.081000 
42 "G21" 62.74510 87.84314 37.64706 43.78200 62.01310 21.56390 
43 "C9" 87.84314 75.29412 50.19608 53.90200 55.55400 29.04600 
44 "AF7" 100.0000 100.0000 91.37255 91.74140 98.67660 91.47720 
45 "C17" 12.54902 87.84314 0.00000 27.92930 54.08220 9.913000 
46 "AQ2" 91.37255 100.0000 91.37255 84.18200 94.77960 91.12340 
47 "G3" 100.0000 100.0000 95.68627 93.34630 99.31850 99.92870 
48 "N6" 100.0000 100.0000 62.74510 83.46220 95.36490 47.87950 
49 "AG8" 12.54902 75.29412 0.00000 20.20130 38.62630 7.337000 
50 "AF4" 100.0000 100.0000 87.84314 90.50050 98.18020 84.94270 
51 "G2" 100.0000 50.19608 100.0000 67.28960 44.47920 99.64650 
52 "S10" 12.54902 75.29412 25.09804 21.11750 38.99280 12.16140 
53 "O15" 75.29412 62.74510 25.09804 35.83260 37.35110 11.06900 
54 "B17" 37.64706 75.29412 25.09804 25.30340 41.15070 12.35730 
55 "AJ8" 100.0000 87.84314 87.84314 81.48720 80.15360 81.93820 
56 "W3" 62.74510 100.0000 75.29412 60.12440 82.97140 63.16270 
57 "U5" 100.0000 95.68627 100.0000 91.67480 93.24960 107.7749 
58 "AP7" 62.74510 100.0000 0.00000 50.70510 79.20360 13.56150 
59 "H13" 100.0000 100.0000 100.0000 95.05000 100.0000 108.9000 
60 "P7" 75.29412 81.56863 75.29412 54.22090 60.52270 59.14090 
61 "AB2" 75.29412 100.0000 50.19608 61.73110 84.44210 34.20930 
62 "P14" 87.84314 75.29412 62.74510 56.32640 56.52380 41.81270 
63 "AA6" 100.0000 100.0000 25.09804 78.09670 93.21870 19.62490 
64 "R4" 100.0000 100.0000 75.29412 86.59980 96.61990 64.40180 
65 "N21" 87.84314 37.64706 100.0000 53.39410 32.11870 97.99310 
66 "X21" 0.00000 100.0000 62.74510 42.63460 74.31750 45.96880 
67 "J21" 0.00000 100.0000 0.00000 36.35290 71.80480 12.88980 
68 "H3" 37.64706 100.0000 50.19608 44.98590 75.80970 33.42570 
69 "E13" 0.00000 81.17647 0.00000 23.04020 45.17940 8.452200 
70 "AA4" 0.00000 87.84314 0.00000 27.33960 53.77820 9.885400 
71 "E1" 0.00000 25.09804 0.00000 2.765600 4.630100 1.694000 
72 "AR13" 50.19608 0.00000 87.84314 23.08360 10.87130 71.64360 
73 "O11" 0.00000 0.00000 91.37255 15.51140 6.824400 77.76570 
74 "P21" 75.29412 12.54902 0.00000 22.98270 13.11710 2.266600 
75 "P3" 37.64706 62.74510 87.84314 31.49120 33.68010 75.60300 
76 "AC9" 37.64706 50.19608 87.84314 26.68810 24.07390 74.00200 
77 "Q1" 12.54902 37.64706 87.84314 19.00130 14.91410 72.63910 
78 "AF13" 12.54902 12.54902 75.29412 11.47080 6.094400 50.88830 
79 "AN5" 81.56863 81.56863 87.84314 62.35310 64.26440 79.87980 
80 "L3" 37.64706 25.09804 87.84314 20.86120 12.42010 72.05970 
81 "S17" 75.29412 12.54902 87.84314 36.30270 18.44510 72.40880 
82 "J11" 62.74510 12.54902 50.19608 19.67140 10.96450 22.24350 
83 "E4" 87.84314 81.56863 87.84314 67.03390 66.67750 80.09880 
84 "B21" 12.54902 12.54902 87.84314 15.37160 7.654700 71.42920 
85 "K11" 0.00000 75.29412 62.74510 25.89340 40.83500 40.38840 
86 "R10" 62.74510 50.19608 62.74510 29.22640 26.19550 37.38700 
87 "Z1" 25.09804 37.64706 75.29412 16.60400 14.12890 52.16860 
88 "AN11" 50.19608 37.64706 62.74510 20.18630 16.33810 35.96080 
89 "AF10" 0.00000 18.82353 100.0000 19.86640 10.24060 95.53730 
90 "M15" 25.09804 37.64706 100.0000 25.05430 17.50900 96.66680 
91 "W10" 0.00000 75.29412 12.54902 19.86970 38.42550 8.668500 
92 "AC17" 75.29412 69.01961 75.29412 47.26070 46.60230 56.82080 
93 "AB16" 25.09804 12.54902 75.29412 12.97430 6.869500 50.95870 
94 "AF8" 87.84314 12.54902 87.84314 45.21490 23.03950 72.82590 
95 "K13" 0.00000 0.00000 87.84314 14.27050 6.328000 71.23120 
96 "I6" 25.09804 12.54902 62.74510 9.836800 5.614500 34.43650 
97 "AN1" 25.09804 25.09804 25.09804 5.774900 6.075700 6.616400 
98 "AL8" 62.74510 0.00000 50.19608 19.16010 9.941800 22.07300 
99 "AG20" 25.09804 50.19608 37.64706 12.77590 18.19910 14.74120 
100 "AJ4" 100.0000 50.19608 62.74510 55.70180 39.84400 38.62610 
101 "T18" 50.19608 37.64706 25.09804 14.82080 14.19190 7.706200 
102 "W16" 25.09804 25.09804 62.74510 11.14050 8.221900 34.87100 
103 "AO4" 62.74510 62.74510 100.0000 45.61730 40.43680 100.0085 
104 "C16" 56.47059 50.19608 50.19608 23.83640 23.69690 24.48160 
105 "A19" 100.0000 62.74510 87.84314 67.54320 52.26560 77.29020 
106 "R19" 75.29412 81.56863 81.56863 56.07300 61.26360 68.89350 
107 "B20" 50.19608 50.19608 50.19608 21.26290 22.37020 24.36110 
108 "AP18" 37.64706 0.00000 50.19608 9.583500 5.004900 21.62490 
109 "AF5" 75.29412 50.19608 0.00000 30.11330 27.37840 4.643500 
110 "I20" 0.00000 62.74510 25.09804 14.31180 26.25670 10.06180 
111 "AA17" 75.29412 75.29412 37.64706 43.22270 50.25280 19.32340 
112 "AO3" 94.11765 87.84314 87.84314 76.23540 77.44620 81.69250 
113 "AB15" 95.68627 0.00000 0.00000 37.88560 20.04080 2.817500 
114 "AO5" 87.84314 62.74510 50.19608 47.68600 43.12190 26.97400 
115 "AD19" 69.01961 75.29412 69.01961 45.09520 50.56330 48.99260 
116 "AM12" 0.00000 62.74510 50.19608 17.25290 27.43310 25.54970 
117 "AH12" 0.00000 75.29412 0.00000 19.61160 38.32230 7.309400 
118 "J18" 100.0000 75.29412 75.29412 69.85850 63.13740 58.82130 
119 "AA3" 62.74510 25.09804 12.54902 17.37590 12.13220 3.724900 
120 "J19" 25.09804 75.29412 12.54902 21.96300 39.50460 8.766500 
121 "AG15" 62.74510 62.74510 12.54902 28.00590 33.39230 7.268200 
122 "AC12" 12.54902 100.0000 62.74510 43.22430 74.62150 45.99640 
123 "I4" 81.56863 81.56863 81.56863 60.30440 63.44500 69.09160 
124 "G18" 62.74510 37.64706 25.09804 20.35990 17.04740 7.965500 
125 "AB9" 50.19608 37.64706 50.19608 17.76190 15.36830 23.19420 
126 "AO21" 0.00000 95.68627 0.00000 32.97770 65.05440 11.76470 
127 "AM13" 75.29412 37.64706 25.09804 27.52850 20.74300 8.300900 
128 "AJ18" 31.37255 37.64706 31.37255 9.800200 11.54390 10.17130 
129 "I16" 62.74510 50.19608 50.19608 26.80200 25.22570 24.62040 
130 "AC8" 75.29412 75.29412 62.74510 47.41420 51.92940 41.39560 
131 "M6" 81.17647 100.0000 0.00000 61.82770 84.93750 14.08200 
132 "AJ10" 62.74510 87.84314 75.29412 51.11110 64.94480 60.15830 
133 "AD8" 75.29412 12.54902 62.74510 29.26440 15.62980 35.34560 
134 "B2" 12.54902 87.84314 62.74510 34.21100 56.59490 42.99200 
135 "X14" 50.19608 25.09804 100.0000 29.44810 16.32120 96.20600 
136 "P2" 87.84314 100.0000 62.74510 73.06770 90.00630 47.39310 
137 "Q21" 37.64706 62.74510 12.54902 18.42930 28.45540 6.820000 
138 "C4" 25.09804 100.0000 25.09804 39.36230 73.25040 17.81220 
139 "AL7" 0.00000 37.64706 12.54902 5.349600 9.385300 3.828500 
140 "Z7" 87.84314 12.54902 0.00000 31.89490 17.71150 2.683700 
141 "AE17" 37.64706 100.0000 0.00000 41.12850 74.26670 13.11330 
142 "AA9" 94.11765 94.11765 87.84314 80.69480 86.36500 83.17890 
143 "J20" 0.00000 50.19608 62.74510 14.87420 18.79660 36.71540 
144 "P12" 100.0000 62.74510 75.29412 63.64250 50.70530 56.74930 
145 "G4" 37.64706 37.64706 87.84314 23.18720 17.07200 72.83500 
146 "B19" 37.64706 12.54902 87.84314 19.55750 9.812600 71.62510 
147 "S9" 75.29412 75.29412 81.56863 52.40380 53.92520 67.67050 
148 "AH19" 12.54902 100.0000 12.54902 37.20070 72.21200 14.27660 
149 "Y20" 12.54902 12.54902 100.0000 19.92110 9.474500 95.38650 
150 "Y2" 87.84314 37.64706 12.54902 35.78270 25.07410 5.252700 
151 "E12" 94.11765 87.84314 94.11765 78.48630 78.34660 93.54550 
152 "J15" 0.00000 87.84314 37.64706 29.42980 54.61430 20.89220 
153 "C10" 0.00000 25.09804 75.29412 12.18480 8.397800 51.29530 
154 "AE6" 100.0000 12.54902 0.00000 42.28940 23.07010 3.170100 
155 "E17" 0.00000 50.19608 75.29412 18.01180 20.05170 53.23760 
156 "D6" 37.64706 25.09804 25.09804 8.457400 7.458500 6.741900 
157 "Z12" 62.74510 12.54902 100.0000 33.68360 16.56930 96.03060 
158 "M12" 4.313725 100.0000 100.0000 54.35900 79.02300 106.9957 
159 "AI6" 37.64706 75.29412 12.54902 24.64540 40.88750 8.892000 
160 "AH13" 62.74510 62.74510 62.74510 34.02950 35.80170 38.98810 
161 "K4" 25.09804 100.0000 100.0000 56.31560 80.03170 107.0873 
162 "AE12" 100.0000 0.00000 75.29412 51.19740 25.81510 52.60100 
163 "AG3" 12.54902 100.0000 37.64706 39.03280 72.94490 23.92430 
164 "AR8" 25.09804 25.09804 87.84314 18.17880 11.03720 71.93410 
165 "AP6" 62.74510 56.47059 62.74510 31.45800 30.65860 38.13090 
166 "C8" 100.0000 12.54902 87.84314 55.60940 28.39810 73.31230 
167 "D19" 37.64706 50.19608 12.54902 13.62620 18.84910 5.219000 
168 "AR16" 87.84314 50.19608 75.29412 48.44480 35.74050 54.66180 
169 "AG13" 37.64706 87.84314 37.64706 34.20540 57.07620 21.11570 
170 "J17" 75.29412 25.09804 75.29412 33.70570 19.49220 52.30240 
171 "D3" 62.74510 37.64706 100.0000 37.31330 23.82870 97.24050 
172 "AK20" 62.74510 12.54902 25.09804 16.73020 9.788000 6.755600 
173 "O19" 87.84314 62.74510 100.0000 61.69820 48.72680 100.7611 
174 "AI4" 37.64706 50.19608 62.74510 19.64980 21.25860 36.93890 
175 "Y17" 75.29412 69.01961 69.01961 45.59950 45.93780 48.07320 
176 "AB11" 50.19608 0.00000 62.74510 16.04530 8.056000 34.58050 
177 "H14" 62.74510 87.84314 12.54902 41.94990 61.28030 11.91620 
178 "AL21" 12.54902 75.29412 37.64706 22.29160 39.46240 18.34390 
179 "AQ7" 62.74510 75.29412 37.64706 36.05410 46.55720 18.98790 
180 "T2" 62.74510 50.19608 25.09804 23.86090 24.04930 9.132400 
181 "AP5" 0.00000 100.0000 25.09804 37.26910 72.17130 17.71420 
182 "L6" 37.64706 37.64706 50.19608 13.72450 13.28690 23.00520 
183 "B5" 62.74510 62.74510 62.74510 34.02950 35.80170 38.98810 
184 "AI2" 12.54902 50.19608 50.19608 13.03950 18.13090 23.97630 
185 "Q4" 25.09804 87.84314 12.54902 29.69090 54.96050 11.34250 
186 "H4" 75.29412 50.19608 50.19608 33.97060 28.92130 24.95590 
187 "AL19" 100.0000 75.29412 62.74510 66.72100 61.88240 42.29910 
188 "A16" 31.37255 37.64706 37.64706 10.45690 11.80660 13.62950 
189 "H11" 100.0000 87.84314 37.64706 70.25740 75.66170 22.80290 
190 "R9" 87.84314 100.0000 0.00000 66.78600 87.49360 14.31400 
191 "P4" 100.0000 62.74510 25.09804 55.13940 47.30410 11.97250 
192 "J1" 62.74510 0.00000 62.74510 21.58440 10.91150 34.83970 
193 "P18" 25.09804 62.74510 87.84314 28.80880 32.29730 75.47750 
194 "AK13" 0.00000 12.54902 87.84314 14.78180 7.350700 71.40160 
195 "E6" 37.64706 12.54902 12.54902 6.495600 4.587900 2.842100 
196 "N12" 50.19608 62.74510 50.19608 26.06600 31.97640 25.96220 
197 "Y10" 75.29412 62.74510 75.29412 44.33570 40.75230 55.84580 
198 "U7" 87.84314 37.64706 37.64706 37.61480 25.80700 14.90050 
199 "AB10" 12.54902 0.00000 100.0000 19.40970 8.451800 95.21610 
200 "R17" 37.64706 43.92157 37.64706 13.55260 15.77050 14.23150 
201 "K6" 50.19608 50.19608 100.0000 35.27500 27.97510 98.14830 
202 "AG17" 25.09804 75.29412 37.64706 23.79510 40.23750 18.41420 
203 "AR2" 37.64706 37.64706 62.74510 16.14890 14.25670 35.77190 
204 "X19" 62.74510 87.84314 62.74510 47.97350 63.68970 43.63610 
205 "AE8" 37.64706 37.64706 12.54902 10.12530 11.84730 4.052000 
206 "A20" 50.19608 100.0000 100.0000 63.03550 83.49590 107.4017 
207 "K7" 50.19608 87.84314 37.64706 38.24290 59.15760 21.30470 
208 "I18" 75.29412 87.84314 12.54902 49.11850 64.97580 12.25170 
209 "Y11" 25.09804 0.00000 87.84314 16.36370 7.407100 71.32910 
210 "K3" 50.19608 75.29412 37.64706 30.51490 43.70170 18.72870 
211 "H15" 81.17647 81.17647 100.0000 66.38450 65.45990 103.7439 
212 "H8" 25.09804 50.19608 100.0000 28.55520 24.51080 97.83380 
213 "AI1" 75.29412 37.64706 87.84314 39.93240 25.70450 73.61870 
214 "T17" 25.09804 25.09804 75.29412 14.27810 9.476900 51.39330 
215 "G11" 43.92157 43.92157 43.92157 16.19740 17.04090 18.55750 
216 "C3" 37.64706 87.84314 25.09804 33.03140 56.60660 14.93330 
217 "F1" 25.09804 12.54902 100.0000 21.42460 10.24960 95.45690 
218 "AO7" 87.84314 12.54902 25.09804 32.81110 18.07800 7.508100 
219 "B7" 69.01961 62.74510 69.01961 38.87920 38.13120 46.92050 
220 "AF16" 0.00000 75.29412 25.09804 20.52780 38.68870 12.13380 
221 "AI18" 12.54902 25.09804 75.29412 12.77460 8.701800 51.32290 
222 "AE10" 100.0000 100.0000 12.54902 77.43860 92.95540 16.15970 
223 "R16" 100.0000 12.54902 62.74510 48.57120 25.58280 36.24920 
224 "AG7" 37.64706 37.64706 37.64706 11.95740 12.58010 13.69970 
225 "P9" 12.54902 75.29412 87.84314 33.52130 43.95430 77.47910 
226 "C5" 87.84314 94.11765 87.84314 75.55210 83.71380 82.93820 
227 "AM11" 75.29412 37.64706 12.54902 26.87050 20.47970 4.835700 
228 "AC15" 37.64706 62.74510 50.19608 22.02850 29.89510 25.77320 
229 "D16" 50.19608 100.0000 50.19608 49.02330 77.89100 33.61460 
230 "Y7" 100.0000 0.00000 62.74510 48.05980 24.56010 36.07870 
231 "A1" 0.00000 62.74510 12.54902 13.65370 25.99340 6.596500 
232 "U20" 0.00000 75.29412 50.19608 23.46900 39.86520 27.62170 
233 "AM17" 75.29412 62.74510 37.64706 37.00670 37.82070 17.25140 
234 "B6" 100.0000 0.00000 81.17647 52.92800 26.50730 61.71410 
235 "C21" 75.29412 50.19608 12.54902 30.37140 27.48160 6.002600 
236 "AE9" 37.64706 37.64706 75.29412 19.28650 15.51170 52.29410 
237 "C15" 100.0000 100.0000 0.00000 77.18050 92.85220 14.80050 
238 "AN19" 50.19608 25.09804 75.29412 20.99790 12.94110 51.70770 
239 "AO9" 37.64706 0.00000 100.0000 23.59560 10.60970 95.41200 
240 "Z11" 37.64706 12.54902 0.00000 6.237500 4.484600 1.482900 
241 "O6" 87.84314 25.09804 0.00000 33.19860 20.31890 3.118300 
242 "C2" 31.37255 31.37255 37.64706 9.155900 9.204400 13.19580 
243 "AA14" 56.47059 62.74510 62.74510 31.06390 34.27290 38.84930 
244 "AI8" 62.74510 25.09804 62.74510 23.39950 14.54170 35.44470 
245 "X4" 100.0000 12.54902 12.54902 42.54760 23.17330 4.529300 
246 "Y8" 75.29412 50.19608 25.09804 31.02950 27.74480 9.467900 
247 "AL20" 0.00000 100.0000 100.0000 54.22240 78.95260 106.9893 
248 "AF12" 62.74510 75.29412 50.19608 37.82120 47.26410 28.29340 
249 "I3" 12.54902 100.0000 0.00000 36.94260 72.10880 12.91740 
250 "M10" 75.29412 25.09804 50.19608 28.14370 17.26750 23.01350 
251 "K20" 81.56863 87.84314 87.84314 66.41190 72.38200 81.23270 
252 "AK9" 62.74510 87.84314 87.84314 55.01180 66.50500 80.69920 
253 "AP12" 37.64706 87.84314 0.00000 32.11520 56.24010 10.10890 
254 "H6" 12.54902 37.64706 62.74510 11.96300 12.09880 35.57600 
255 "AI17" 87.84314 62.74510 25.09804 44.74480 41.94550 11.48600 
256 "L10" 12.54902 62.74510 62.74510 20.26700 28.70690 38.34400 
257 "AH20" 25.09804 50.19608 50.19608 14.54300 18.90600 24.04670 
258 "AN4" 95.68627 100.0000 0.00000 73.28800 90.84560 14.61830 
259 "M13" 50.19608 0.00000 50.19608 13.62090 7.086200 21.81380 
260 "V13" 8.627451 0.00000 100.0000 19.14760 8.316700 95.20380 
261 "P11" 37.64706 87.84314 100.0000 49.98470 63.38790 104.2084 
262 "AE19" 100.0000 12.54902 50.19608 46.14680 24.61300 23.48250 
263 "AF19" 25.09804 25.09804 37.64706 6.949000 6.545300 12.79890 
264 "J2" 75.29412 100.0000 62.74510 64.15550 85.41190 46.97600 
265 "Z18" 75.29412 62.74510 100.0000 52.78590 44.13240 100.3440 
266 "Q20" 75.29412 37.64706 62.74510 32.89410 22.88920 36.55550 
267 "A17" 37.64706 37.64706 100.0000 27.73670 18.89180 96.79230 
268 "AO8" 37.64706 50.19608 25.09804 14.28430 19.11240 8.684300 
269 "AA18" 0.00000 75.29412 87.84314 32.93160 43.65030 77.45150 
270 "Q10" 100.0000 100.0000 50.19608 81.03780 94.39510 35.11290 
271 "M5" 37.64706 43.92157 43.92157 14.35770 16.09250 18.47150 
272 "AK11" 37.64706 62.74510 37.64706 20.26140 29.18820 16.46770 
273 "E19" 43.92157 50.19608 50.19608 19.06510 21.23720 24.25830 
274 "AL2" 25.09804 37.64706 87.84314 20.50480 15.68920 72.70950 
275 "AF11" 87.84314 75.29412 100.0000 67.91420 61.15890 102.8331 
276 "X18" 25.09804 87.84314 25.09804 30.34900 55.22370 14.80780 
277 "W18" 100.0000 0.00000 8.627451 41.92150 22.10470 3.754700 
278 "AO10" 0.00000 87.84314 75.29412 36.75890 57.54590 59.48660 
279 "AH15" 87.84314 94.11765 94.11765 77.80290 84.61420 94.79130 
280 "AI11" 0.00000 100.0000 18.82353 36.88110 72.01610 15.67110 
281 "B10" 37.64706 25.09804 12.54902 7.799300 7.195300 3.276700 
282 "P17" 87.84314 12.54902 62.74510 38.17660 20.22420 35.76270 
283 "AN3" 56.47059 56.47059 56.47059 27.19430 28.61050 31.15690 
284 "AL9" 25.09804 75.29412 50.19608 25.56220 40.94430 27.71970 
285 "L5" 87.84314 0.00000 12.54902 31.64170 16.79210 3.872400 
286 "X7" 100.0000 25.09804 0.00000 43.59320 25.67750 3.604700 
287 "Y12" 0.00000 87.84314 100.0000 45.20910 60.92600 103.9849 
288 "G14" 75.29412 75.29412 25.09804 42.04860 49.78310 13.14100 
289 "N18" 12.54902 75.29412 100.0000 38.07080 45.77410 101.4365 
290 "AN13" 100.0000 37.64706 37.64706 48.00930 31.16560 15.38690 
291 "AI3" 100.0000 37.64706 12.54902 46.17720 30.43270 5.739200 
292 "AQ10" 75.29412 87.84314 100.0000 66.72990 72.02040 104.9920 
293 "AK16" 87.84314 100.0000 87.84314 80.10600 92.82160 84.45620 
294 "Q11" 87.84314 62.74510 75.29412 53.24790 45.34670 56.26290 
295 "F3" 100.0000 25.09804 62.74510 49.87490 28.19020 36.68380 
296 "AN10" 4.313725 0.00000 100.0000 18.95660 8.218200 95.19490 
297 "AK6" 62.74510 87.84314 25.09804 42.60800 61.54350 15.38150 
298 "Y14" 50.19608 25.09804 62.74510 17.86030 11.68610 35.18550 
299 "AH4" 12.54902 62.74510 25.09804 14.90150 26.56070 10.08940 
300 "AR1" 12.54902 50.19608 12.54902 9.440300 16.69120 5.023100 
301 "AR21" 50.19608 25.09804 12.54902 11.83670 9.276700 3.465600 
302 "D1" 87.84314 25.09804 75.29412 42.61790 24.08670 52.71950 
303 "AE7" 100.0000 37.64706 50.19608 49.77650 31.87240 24.69240 
304 "E9" 0.00000 25.09804 37.64706 4.855800 5.466200 12.70090 
305 "AH17" 18.82353 100.0000 0.00000 37.55960 72.42690 12.94630 
306 "H21" 100.0000 37.64706 100.0000 63.78860 37.47730 98.47950 
307 "R18" 100.0000 0.00000 100.0000 59.64760 29.19520 97.09920 
308 "AF15" 25.09804 25.09804 0.00000 4.858800 5.709200 1.792000 
309 "F12" 25.09804 50.19608 0.00000 10.68570 17.36300 3.734300 
310 "R8" 50.19608 43.92157 50.19608 19.35710 18.55870 23.72590 
311 "F2" 25.09804 37.64706 12.54902 7.442900 10.46440 3.926500 
312 "T14" 100.0000 50.19608 50.19608 53.27740 38.87430 25.85940 
313 "O17" 62.74510 0.00000 0.00000 15.30270 8.398800 1.760700 
314 "A11" 31.37255 25.09804 25.09804 6.956900 6.685000 6.671700 
315 "AA1" 12.54902 37.64706 100.0000 23.55070 16.73390 96.59640 
316 "AM9" 25.09804 62.74510 62.74510 21.77050 29.48200 38.41440 
317 "R11" 4.313725 100.0000 0.00000 36.48950 71.87520 12.89620 
318 "R20" 87.84314 0.00000 0.00000 31.38360 16.68880 2.513200 
319 "AG6" 12.54902 87.84314 25.09804 28.84550 54.44870 14.73740 
320 "W4" 87.84314 87.84314 94.11765 73.34360 75.69540 93.30480 
321 "T11" 62.74510 37.64706 12.54902 19.70190 16.78420 4.500200 
322 "AD20" 75.29412 25.09804 62.74510 30.56810 18.23720 35.78020 
323 "AR17" 62.74510 50.19608 12.54902 23.20280 23.78600 5.667200 
324 "S19" 12.54902 62.74510 37.64706 16.07550 27.03030 16.27180 
325 "AJ21" 37.64706 25.09804 62.74510 13.82290 9.604700 34.99660 
326 "U14" 75.29412 25.09804 0.00000 24.28640 15.72450 2.701200 
327 "AC7" 50.19608 12.54902 62.74510 16.55660 9.078700 34.75090 
328 "Y9" 25.09804 87.84314 37.64706 31.52300 55.69340 20.99020 
329 "AI15" 12.54902 37.64706 25.09804 6.597400 9.952600 7.321400 
330 "X17" 75.29412 62.74510 50.19608 38.77380 38.52750 26.55690 
331 "S14" 25.09804 50.19608 75.29412 20.10500 21.13080 53.33560 
332 "E3" 62.74510 100.0000 62.74510 56.98680 81.71630 46.64050 
333 "G7" 62.74510 25.09804 37.64706 19.20800 12.86510 13.37260 
334 "AK4" 87.84314 62.74510 87.84314 57.14870 46.90700 76.80380 
335 "O7" 18.82353 100.0000 100.0000 55.42910 79.57470 107.0458 
336 "AB12" 37.64706 87.84314 75.29412 41.53450 60.00780 59.71010 
337 "N2" 12.54902 75.29412 62.74510 26.48310 41.13900 40.41600 
338 "U17" 100.0000 75.29412 25.09804 61.35540 59.73610 14.04450 
339 "AG4" 81.56863 75.29412 75.29412 54.78320 55.36580 58.11580 
340 "U10" 25.09804 25.09804 12.54902 5.116900 5.812500 3.151100 
341 "R15" 62.74510 62.74510 56.47059 32.73150 35.28250 32.15280 
342 "AQ9" 75.29412 0.00000 87.84314 35.79130 17.42240 72.23830 
343 "K10" 50.19608 62.74510 100.0000 40.07820 37.58130 99.74930 
344 "V19" 25.09804 100.0000 37.64706 40.53630 73.72000 23.99460 
345 "Q15" 87.84314 37.64706 87.84314 48.84460 30.29890 74.03580 
346 "AM10" 0.00000 37.64706 100.0000 22.96100 16.42990 96.56880 
347 "H10" 50.19608 62.74510 75.29412 31.62790 34.20120 55.25110 
348 "W8" 62.74510 100.0000 25.09804 51.62130 79.57010 18.38590 
349 "Z14" 12.54902 75.29412 50.19608 24.05870 40.16920 27.64930 
350 "J5" 100.0000 62.74510 0.00000 54.22320 46.93760 7.148100 
351 "AN20" 81.17647 81.17647 81.17647 59.66490 62.77210 68.35880 
352 "L4" 62.74510 69.01961 69.01961 38.43090 42.24230 47.73770 
353 "T9" 100.0000 81.17647 81.17647 75.01770 70.68670 69.07730 
354 "AK15" 25.09804 87.84314 0.00000 29.43280 54.85730 9.983300 
355 "F6" 12.54902 100.0000 100.0000 54.81210 79.25660 107.0169 
356 "Q12" 25.09804 62.74510 37.64706 17.57900 27.80540 16.34220 
357 "AC16" 75.29412 0.00000 62.74510 28.75310 14.60710 35.17520 
358 "AI16" 50.19608 12.54902 37.64706 12.36510 7.402100 12.67880 
359 "AN16" 37.64706 62.74510 25.09804 19.08740 28.71860 10.28530 
360 "U8" 50.19608 75.29412 87.84314 41.74470 48.19360 77.86400 
361 "AD7" 62.74510 62.74510 25.09804 28.66400 33.65550 10.73350 
362 "K19" 18.82353 0.00000 100.0000 20.02670 8.769900 95.24500 
363 "Q8" 0.00000 25.09804 87.84314 16.08560 9.958100 71.83620 
364 "AL11" 12.54902 25.09804 87.84314 16.67530 10.26210 71.86380 
