assets/charts/pharmacist/rgb/i1pro/a4/tc924/tc924.ti1
CTI1   

DESCRIPTOR "Argyll Calibration Target chart information 1"
ORIGINATOR "ChromIQ"
APPROX_WHITE_POINT "95.050000 100.000000 108.900000"
COLOR_REP "RGB"
WHITE_COLOR_PATCHES "4"
BLACK_COLOR_PATCHES "4"
CREATED "Fri May 29 21:34:05 2026"

NUMBER_OF_FIELDS 7
BEGIN_DATA_FORMAT
SAMPLE_ID RGB_R RGB_G RGB_B XYZ_X XYZ_Y XYZ_Z
END_DATA_FORMAT

NUMBER_OF_SETS 924
BEGIN_DATA
1 0.0000 0.0000 0.0000 0.9505 1.0000 1.0890
2 0.0000 0.0000 4.3137 1.0103 1.0239 1.4039
3 4.3137 0.0000 0.0000 1.0871 1.0704 1.0954
4 0.0000 0.0000 8.6275 1.0939 1.0573 1.8440
5 0.0000 0.0000 12.5490 1.2086 1.1032 2.4482
6 6.2745 0.0000 6.2745 1.2546 1.1461 1.5865
7 0.0000 4.3137 0.0000 1.0690 1.2370 1.1285
8 8.6275 0.0000 0.0000 1.2781 1.1689 1.1043
9 0.0000 0.0000 18.8235 1.4787 1.2113 3.8703
10 0.0000 6.2745 6.2745 1.2265 1.4039 1.6377
11 0.0000 0.0000 25.0980 1.8667 1.3665 5.9134
12 12.5490 0.0000 0.0000 1.5402 1.3040 1.1166
13 6.2745 6.2745 0.0000 1.3455 1.4759 1.1600
14 6.2745 6.2745 6.2745 1.4381 1.5130 1.6476
15 12.5490 0.0000 12.5490 1.7983 1.4072 2.4758
16 6.2745 6.2745 12.5490 1.6036 1.5792 2.5192
17 0.0000 8.6275 0.0000 1.2345 1.5681 1.1837
18 12.5490 6.2745 6.2745 1.8162 1.7079 1.6653
19 12.5490 0.0000 25.0980 2.4564 1.6705 5.9410
20 12.5490 6.2745 12.5490 1.9817 1.7741 2.5369
21 0.0000 0.0000 37.6471 3.0407 1.8361 12.0959
22 18.8235 0.0000 0.0000 2.1572 1.6221 1.1455
23 0.0000 12.5490 0.0000 1.4618 2.0227 1.2594
24 0.0000 12.5490 12.5490 1.7200 2.1259 2.6186
25 6.2745 12.5490 6.2745 1.7660 2.1688 1.7569
26 12.5490 0.0000 37.6471 3.6304 2.1401 12.1235
27 6.2745 12.5490 12.5490 1.9315 2.2350 2.6285
28 0.0000 0.0000 50.1961 4.8078 2.5429 21.4014
29 25.0980 0.0000 0.0000 3.0437 2.0791 1.1870
30 0.0000 12.5490 25.0980 2.3780 2.3892 6.0839
31 12.5490 12.5490 0.0000 2.0516 2.3267 1.2870
32 12.5490 12.5490 6.2745 2.1441 2.3637 1.7746
33 25.0980 0.0000 12.5490 3.3018 2.1823 2.5461
34 12.5490 12.5490 12.5490 2.3097 2.4299 2.6462
35 95.6863 95.6863 100.0000 87.7823 91.2429 107.5928
36 100.0000 95.6863 95.6863 89.9711 92.5681 98.8036
37 100.0000 81.1765 100.0000 81.7373 73.3746 104.4624
38 100.0000 94.1176 94.1176 88.1975 89.9727 95.2777
39 100.0000 91.3725 91.3725 85.1865 85.5668 89.2922
40 95.6863 100.0000 100.0000 91.1575 97.9934 108.7178
41 50.1961 75.2941 12.5490 28.6828 42.9688 9.0810
42 62.7451 87.8431 37.6471 43.7820 62.0131 21.5639
43 87.8431 75.2941 50.1961 53.9020 55.5540 29.0460
44 100.0000 100.0000 91.3725 91.7414 98.6766 91.4772
45 12.5490 87.8431 0.0000 27.9293 54.0822 9.9130
46 91.3725 100.0000 91.3725 84.1820 94.7796 91.1234
47 100.0000 100.0000 95.6863 93.3463 99.3185 99.9287
48 100.0000 100.0000 62.7451 83.4622 95.3649 47.8795
49 12.5490 75.2941 0.0000 20.2013 38.6263 7.3370
50 100.0000 100.0000 87.8431 90.5005 98.1802 84.9427
51 100.0000 50.1961 100.0000 67.2896 44.4792 99.6465
52 12.5490 75.2941 25.0980 21.1175 38.9928 12.1614
53 75.2941 62.7451 25.0980 35.8326 37.3511 11.0690
54 37.6471 75.2941 25.0980 25.3034 41.1507 12.3573
55 100.0000 87.8431 87.8431 81.4872 80.1536 81.9382
56 62.7451 100.0000 75.2941 60.1244 82.9714 63.1627
57 100.0000 95.6863 100.0000 91.6748 93.2496 107.7749
58 62.7451 100.0000 0.0000 50.7051 79.2036 13.5615
59 100.0000 100.0000 100.0000 95.0500 100.0000 108.9000
60 75.2941 81.5686 75.2941 54.2209 60.5227 59.1409
61 75.2941 100.0000 50.1961 61.7311 84.4421 34.2093
62 87.8431 75.2941 62.7451 56.3264 56.5238 41.8127
63 100.0000 100.0000 25.0980 78.0967 93.2187 19.6249
64 100.0000 100.0000 75.2941 86.5998 96.6199 64.4018
65 87.8431 37.6471 100.0000 53.3941 32.1187 97.9931
66 0.0000 100.0000 62.7451 42.6346 74.3175 45.9688
67 0.0000 100.0000 0.0000 36.3529 71.8048 12.8898
68 37.6471 100.0000 50.1961 44.9859 75.8097 33.4257
69 0.0000 81.1765 0.0000 23.0402 45.1794 8.4522
70 0.0000 87.8431 0.0000 27.3396 53.7782 9.8854
71 0.0000 25.0980 0.0000 2.7656 4.6301 1.6940
72 50.1961 0.0000 87.8431 23.0836 10.8713 71.6436
73 0.0000 0.0000 91.3725 15.5114 6.8244 77.7657
74 75.2941 12.5490 0.0000 22.9827 13.1171 2.2666
75 37.6471 62.7451 87.8431 31.4912 33.6801 75.6030
76 37.6471 50.1961 87.8431 26.6881 24.0739 74.0020
77 12.5490 37.6471 87.8431 19.0013 14.9141 72.6391
78 12.5490 12.5490 75.2941 11.4708 6.0944 50.8883
79 81.5686 81.5686 87.8431 62.3531 64.2644 79.8798
80 37.6471 25.0980 87.8431 20.8612 12.4201 72.0597
81 75.2941 12.5490 87.8431 36.3027 18.4451 72.4088
82 62.7451 12.5490 50.1961 19.6714 10.9645 22.2435
83 87.8431 81.5686 87.8431 67.0339 66.6775 80.0988
84 12.5490 12.5490 87.8431 15.3716 7.6547 71.4292
85 0.0000 75.2941 62.7451 25.8934 40.8350 40.3884
86 62.7451 50.1961 62.7451 29.2264 26.1955 37.3870
87 25.0980 37.6471 75.2941 16.6040 14.1289 52.1686
88 50.1961 37.6471 62.7451 20.1863 16.3381 35.9608
89 0.0000 18.8235 100.0000 19.8664 10.2406 95.5373
90 25.0980 37.6471 100.0000 25.0543 17.5090 96.6668
91 0.0000 75.2941 12.5490 19.8697 38.4255 8.6685
92 75.2941 69.0196 75.2941 47.2607 46.6023 56.8208
93 25.0980 12.5490 75.2941 12.9743 6.8695 50.9587
94 87.8431 12.5490 87.8431 45.2149 23.0395 72.8259
95 0.0000 0.0000 87.8431 14.2705 6.3280 71.2312
96 25.0980 12.5490 62.7451 9.8368 5.6145 34.4365
97 25.0980 25.0980 25.0980 5.7749 6.0757 6.6164
98 62.7451 0.0000 50.1961 19.1601 9.9418 22.0730
99 25.0980 50.1961 37.6471 12.7759 18.1991 14.7412
100 100.0000 50.1961 62.7451 55.7018 39.8440 38.6261
101 50.1961 37.6471 25.0980 14.8208 14.1919 7.7062
102 25.0980 25.0980 62.7451 11.1405 8.2219 34.8710
103 62.7451 62.7451 100.0000 45.6173 40.4368 100.0085
104 56.4706 50.1961 50.1961 23.8364 23.6969 24.4816
105 100.0000 62.7451 87.8431 67.5432 52.2656 77.2902
106 75.2941 81.5686 81.5686 56.0730 61.2636 68.8935
107 50.1961 50.1961 50.1961 21.2629 22.3702 24.3611
108 37.6471 0.0000 50.1961 9.5835 5.0049 21.6249
109 75.2941 50.1961 0.0000 30.1133 27.3784 4.6435
110 0.0000 62.7451 25.0980 14.3118 26.2567 10.0618
111 75.2941 75.2941 37.6471 43.2227 50.2528 19.3234
112 94.1176 87.8431 87.8431 76.2354 77.4462 81.6925
113 95.6863 0.0000 0.0000 37.8856 20.0408 2.8175
114 87.8431 62.7451 50.1961 47.6860 43.1219 26.9740
115 69.0196 75.2941 69.0196 45.0952 50.5633 48.9926
116 0.0000 62.7451 50.1961 17.2529 27.4331 25.5497
117 0.0000 75.2941 0.0000 19.6116 38.3223 7.3094
118 100.0000 75.2941 75.2941 69.8585 63.1374 58.8213
119 62.7451 25.0980 12.5490 17.3759 12.1322 3.7249
120 25.0980 75.2941 12.5490 21.9630 39.5046 8.7665
121 62.7451 62.7451 12.5490 28.0059 33.3923 7.2682
122 12.5490 100.0000 62.7451 43.2243 74.6215 45.9964
123 81.5686 81.5686 81.5686 60.3044 63.4450 69.0916
124 62.7451 37.6471 25.0980 20.3599 17.0474 7.9655
125 50.1961 37.6471 50.1961 17.7619 15.3683 23.1942
126 0.0000 95.6863 0.0000 32.9777 65.0544 11.7647
127 75.2941 37.6471 25.0980 27.5285 20.7430 8.3009
128 31.3725 37.6471 31.3725 9.8002 11.5439 10.1713
129 62.7451 50.1961 50.1961 26.8020 25.2257 24.6204
130 75.2941 75.2941 62.7451 47.4142 51.9294 41.3956
131 81.1765 100.0000 0.0000 61.8277 84.9375 14.0820
132 62.7451 87.8431 75.2941 51.1111 64.9448 60.1583
133 75.2941 12.5490 62.7451 29.2644 15.6298 35.3456
134 12.5490 87.8431 62.7451 34.2110 56.5949 42.9920
135 50.1961 25.0980 100.0000 29.4481 16.3212 96.2060
136 87.8431 100.0000 62.7451 73.0677 90.0063 47.3931
137 37.6471 62.7451 12.5490 18.4293 28.4554 6.8200
138 25.0980 100.0000 25.0980 39.3623 73.2504 17.8122
139 0.0000 37.6471 12.5490 5.3496 9.3853 3.8285
140 87.8431 12.5490 0.0000 31.8949 17.7115 2.6837
141 37.6471 100.0000 0.0000 41.1285 74.2667 13.1133
142 94.1176 94.1176 87.8431 80.6948 86.3650 83.1789
143 0.0000 50.1961 62.7451 14.8742 18.7966 36.7154
144 100.0000 62.7451 75.2941 63.6425 50.7053 56.7493
145 37.6471 37.6471 87.8431 23.1872 17.0720 72.8350
146 37.6471 12.5490 87.8431 19.5575 9.8126 71.6251
147 75.2941 75.2941 81.5686 52.4038 53.9252 67.6705
148 12.5490 100.0000 12.5490 37.2007 72.2120 14.2766
149 12.5490 12.5490 100.0000 19.9211 9.4745 95.3865
150 87.8431 37.6471 12.5490 35.7827 25.0741 5.2527
151 94.1176 87.8431 94.1176 78.4863 78.3466 93.5455
152 0.0000 87.8431 37.6471 29.4298 54.6143 20.8922
153 0.0000 25.0980 75.2941 12.1848 8.3978 51.2953
154 100.0000 12.5490 0.0000 42.2894 23.0701 3.1701
155 0.0000 50.1961 75.2941 18.0118 20.0517 53.2376
156 37.6471 25.0980 25.0980 8.4574 7.4585 6.7419
157 62.7451 12.5490 100.0000 33.6836 16.5693 96.0306
158 4.3137 100.0000 100.0000 54.3590 79.0230 106.9957
159 37.6471 75.2941 12.5490 24.6454 40.8875 8.8920
160 62.7451 62.7451 62.7451 34.0295 35.8017 38.9881
161 25.0980 100.0000 100.0000 56.3156 80.0317 107.0873
162 100.0000 0.0000 75.2941 51.1974 25.8151 52.6010
163 12.5490 100.0000 37.6471 39.0328 72.9449 23.9243
164 25.0980 25.0980 87.8431 18.1788 11.0372 71.9341
165 62.7451 56.4706 62.7451 31.4580 30.6586 38.1309
166 100.0000 12.5490 87.8431 55.6094 28.3981 73.3123
167 37.6471 50.1961 12.5490 13.6262 18.8491 5.2190
168 87.8431 50.1961 75.2941 48.4448 35.7405 54.6618
169 37.6471 87.8431 37.6471 34.2054 57.0762 21.1157
170 75.2941 25.0980 75.2941 33.7057 19.4922 52.3024
171 62.7451 37.6471 100.0000 37.3133 23.8287 97.2405
172 62.7451 12.5490 25.0980 16.7302 9.7880 6.7556
173 87.8431 62.7451 100.0000 61.6982 48.7268 100.7611
174 37.6471 50.1961 62.7451 19.6498 21.2586 36.9389
175 75.2941 69.0196 69.0196 45.5995 45.9378 48.0732
176 50.1961 0.0000 62.7451 16.0453 8.0560 34.5805
177 62.7451 87.8431 12.5490 41.9499 61.2803 11.9162
178 12.5490 75.2941 37.6471 22.2916 39.4624 18.3439
179 62.7451 75.2941 37.6471 36.0541 46.5572 18.9879
180 62.7451 50.1961 25.0980 23.8609 24.0493 9.1324
181 0.0000 100.0000 25.0980 37.2691 72.1713 17.7142
182 37.6471 37.6471 50.1961 13.7245 13.2869 23.0052
183 62.7451 62.7451 62.7451 34.0295 35.8017 38.9881
184 12.5490 50.1961 50.1961 13.0395 18.1309 23.9763
185 25.0980 87.8431 12.5490 29.6909 54.9605 11.3425
186 75.2941 50.1961 50.1961 33.9706 28.9213 24.9559
187 100.0000 75.2941 62.7451 66.7210 61.8824 42.2991
188 31.3725 37.6471 37.6471 10.4569 11.8066 13.6295
189 100.0000 87.8431 37.6471 70.2574 75.6617 22.8029
190 87.8431 100.0000 0.0000 66.7860 87.4936 14.3140
191 100.0000 62.7451 25.0980 55.1394 47.3041 11.9725
192 62.7451 0.0000 62.7451 21.5844 10.9115 34.8397
193 25.0980 62.7451 87.8431 28.8088 32.2973 75.4775
194 0.0000 12.5490 87.8431 14.7818 7.3507 71.4016
195 37.6471 12.5490 12.5490 6.4956 4.5879 2.8421
196 50.1961 62.7451 50.1961 26.0660 31.9764 25.9622
197 75.2941 62.7451 75.2941 44.3357 40.7523 55.8458
198 87.8431 37.6471 37.6471 37.6148 25.8070 14.9005
199 12.5490 0.0000 100.0000 19.4097 8.4518 95.2161
200 37.6471 43.9216 37.6471 13.5526 15.7705 14.2315
201 50.1961 50.1961 100.0000 35.2750 27.9751 98.1483
202 25.0980 75.2941 37.6471 23.7951 40.2375 18.4142
203 37.6471 37.6471 62.7451 16.1489 14.2567 35.7719
204 62.7451 87.8431 62.7451 47.9735 63.6897 43.6361
205 37.6471 37.6471 12.5490 10.1253 11.8473 4.0520
206 50.1961 100.0000 100.0000 63.0355 83.4959 107.4017
207 50.1961 87.8431 37.6471 38.2429 59.1576 21.3047
208 75.2941 87.8431 12.5490 49.1185 64.9758 12.2517
209 25.0980 0.0000 87.8431 16.3637 7.4071 71.3291
210 50.1961 75.2941 37.6471 30.5149 43.7017 18.7287
211 81.1765 81.1765 100.0000 66.3845 65.4599 103.7439
212 25.0980 50.1961 100.0000 28.5552 24.5108 97.8338
213 75.2941 37.6471 87.8431 39.9324 25.7045 73.6187
214 25.0980 25.0980 75.2941 14.2781 9.4769 51.3933
215 43.9216 43.9216 43.9216 16.1974 17.0409 18.5575
216 37.6471 87.8431 25.0980 33.0314 56.6066 14.9333
217 25.0980 12.5490 100.0000 21.4246 10.2496 95.4569
218 87.8431 12.5490 25.0980 32.8111 18.0780 7.5081
219 69.0196 62.7451 69.0196 38.8792 38.1312 46.9205
220 0.0000 75.2941 25.0980 20.5278 38.6887 12.1338
221 12.5490 25.0980 75.2941 12.7746 8.7018 51.3229
222 100.0000 100.0000 12.5490 77.4386 92.9554 16.1597
223 100.0000 12.5490 62.7451 48.5712 25.5828 36.2492
224 37.6471 37.6471 37.6471 11.9574 12.5801 13.6997
225 12.5490 75.2941 87.8431 33.5213 43.9543 77.4791
226 87.8431 94.1176 87.8431 75.5521 83.7138 82.9382
227 75.2941 37.6471 12.5490 26.8705 20.4797 4.8357
228 37.6471 62.7451 50.1961 22.0285 29.8951 25.7732
229 50.1961 100.0000 50.1961 49.0233 77.8910 33.6146
230 100.0000 0.0000 62.7451 48.0598 24.5601 36.0787
231 0.0000 62.7451 12.5490 13.6537 25.9934 6.5965
232 0.0000 75.2941 50.1961 23.4690 39.8652 27.6217
233 75.2941 62.7451 37.6471 37.0067 37.8207 17.2514
234 100.0000 0.0000 81.1765 52.9280 26.5073 61.7141
235 75.2941 50.1961 12.5490 30.3714 27.4816 6.0026
236 37.6471 37.6471 75.2941 19.2865 15.5117 52.2941
237 100.0000 100.0000 0.0000 77.1805 92.8522 14.8005
238 50.1961 25.0980 75.2941 20.9979 12.9411 51.7077
239 37.6471 0.0000 100.0000 23.5956 10.6097 95.4120
240 37.6471 12.5490 0.0000 6.2375 4.4846 1.4829
241 87.8431 25.0980 0.0000 33.1986 20.3189 3.1183
242 31.3725 31.3725 37.6471 9.1559 9.2044 13.1958
243 56.4706 62.7451 62.7451 31.0639 34.2729 38.8493
244 62.7451 25.0980 62.7451 23.3995 14.5417 35.4447
245 100.0000 12.5490 12.5490 42.5476 23.1733 4.5293
246 75.2941 50.1961 25.0980 31.0295 27.7448 9.4679
247 0.0000 100.0000 100.0000 54.2224 78.9526 106.9893
248 62.7451 75.2941 50.1961 37.8212 47.2641 28.2934
249 12.5490 100.0000 0.0000 36.9426 72.1088 12.9174
250 75.2941 25.0980 50.1961 28.1437 17.2675 23.0135
251 81.5686 87.8431 87.8431 66.4119 72.3820 81.2327
252 62.7451 87.8431 87.8431 55.0118 66.5050 80.6992
253 37.6471 87.8431 0.0000 32.1152 56.2401 10.1089
254 12.5490 37.6471 62.7451 11.9630 12.0988 35.5760
255 87.8431 62.7451 25.0980 44.7448 41.9455 11.4860
256 12.5490 62.7451 62.7451 20.2670 28.7069 38.3440
257 25.0980 50.1961 50.1961 14.5430 18.9060 24.0467
258 95.6863 100.0000 0.0000 73.2880 90.8456 14.6183
259 50.1961 0.0000 50.1961 13.6209 7.0862 21.8138
260 8.6275 0.0000 100.0000 19.1476 8.3167 95.2038
261 37.6471 87.8431 100.0000 49.9847 63.3879 104.2084
262 100.0000 12.5490 50.1961 46.1468 24.6130 23.4825
263 25.0980 25.0980 37.6471 6.9490 6.5453 12.7989
264 75.2941 100.0000 62.7451 64.1555 85.4119 46.9760
265 75.2941 62.7451 100.0000 52.7859 44.1324 100.3440
266 75.2941 37.6471 62.7451 32.8941 22.8892 36.5555
267 37.6471 37.6471 100.0000 27.7367 18.8918 96.7923
268 37.6471 50.1961 25.0980 14.2843 19.1124 8.6843
269 0.0000 75.2941 87.8431 32.9316 43.6503 77.4515
270 100.0000 100.0000 50.1961 81.0378 94.3951 35.1129
271 37.6471 43.9216 43.9216 14.3577 16.0925 18.4715
272 37.6471 62.7451 37.6471 20.2614 29.1882 16.4677
273 43.9216 50.1961 50.1961 19.0651 21.2372 24.2583
274 25.0980 37.6471 87.8431 20.5048 15.6892 72.7095
275 87.8431 75.2941 100.0000 67.9142 61.1589 102.8331
276 25.0980 87.8431 25.0980 30.3490 55.2237 14.8078
277 100.0000 0.0000 8.6275 41.9215 22.1047 3.7547
278 0.0000 87.8431 75.2941 36.7589 57.5459 59.4866
279 87.8431 94.1176 94.1176 77.8029 84.6142 94.7913
280 0.0000 100.0000 18.8235 36.8811 72.0161 15.6711
281 37.6471 25.0980 12.5490 7.7993 7.1953 3.2767
282 87.8431 12.5490 62.7451 38.1766 20.2242 35.7627
283 56.4706 56.4706 56.4706 27.1943 28.6105 31.1569
284 25.0980 75.2941 50.1961 25.5622 40.9443 27.7197
285 87.8431 0.0000 12.5490 31.6417 16.7921 3.8724
286 100.0000 25.0980 0.0000 43.5932 25.6775 3.6047
287 0.0000 87.8431 100.0000 45.2091 60.9260 103.9849
288 75.2941 75.2941 25.0980 42.0486 49.7831 13.1410
289 12.5490 75.2941 100.0000 38.0708 45.7741 101.4365
290 100.0000 37.6471 37.6471 48.0093 31.1656 15.3869
291 100.0000 37.6471 12.5490 46.1772 30.4327 5.7392
292 75.2941 87.8431 100.0000 66.7299 72.0204 104.9920
293 87.8431 100.0000 87.8431 80.1060 92.8216 84.4562
294 87.8431 62.7451 75.2941 53.2479 45.3467 56.2629
295 100.0000 25.0980 62.7451 49.8749 28.1902 36.6838
296 4.3137 0.0000 100.0000 18.9566 8.2182 95.1949
297 62.7451 87.8431 25.0980 42.6080 61.5435 15.3815
298 50.1961 25.0980 62.7451 17.8603 11.6861 35.1855
299 12.5490 62.7451 25.0980 14.9015 26.5607 10.0894
300 12.5490 50.1961 12.5490 9.4403 16.6912 5.0231
301 50.1961 25.0980 12.5490 11.8367 9.2767 3.4656
302 87.8431 25.0980 75.2941 42.6179 24.0867 52.7195
303 100.0000 37.6471 50.1961 49.7765 31.8724 24.6924
304 0.0000 25.0980 37.6471 4.8558 5.4662 12.7009
305 18.8235 100.0000 0.0000 37.5596 72.4269 12.9463
306 100.0000 37.6471 100.0000 63.7886 37.4773 98.4795
307 100.0000 0.0000 100.0000 59.6476 29.1952 97.0992
308 25.0980 25.0980 0.0000 4.8588 5.7092 1.7920
309 25.0980 50.1961 0.0000 10.6857 17.3630 3.7343
310 50.1961 43.9216 50.1961 19.3571 18.5587 23.7259
311 25.0980 37.6471 12.5490 7.4429 10.4644 3.9265
312 100.0000 50.1961 50.1961 53.2774 38.8743 25.8594
313 62.7451 0.0000 0.0000 15.3027 8.3988 1.7607
314 31.3725 25.0980 25.0980 6.9569 6.6850 6.6717
315 12.5490 37.6471 100.0000 23.5507 16.7339 96.5964
316 25.0980 62.7451 62.7451 21.7705 29.4820 38.4144
317 4.3137 100.0000 0.0000 36.4895 71.8752 12.8962
318 87.8431 0.0000 0.0000 31.3836 16.6888 2.5132
319 12.5490 87.8431 25.0980 28.8455 54.4487 14.7374
320 87.8431 87.8431 94.1176 73.3436 75.6954 93.3048
321 62.7451 37.6471 12.5490 19.7019 16.7842 4.5002
322 75.2941 25.0980 62.7451 30.5681 18.2372 35.7802
323 62.7451 50.1961 12.5490 23.2028 23.7860 5.6672
324 12.5490 62.7451 37.6471 16.0755 27.0303 16.2718
325 37.6471 25.0980 62.7451 13.8229 9.6047 34.9966
326 75.2941 25.0980 0.0000 24.2864 15.7245 2.7012
327 50.1961 12.5490 62.7451 16.5566 9.0787 34.7509
328 25.0980 87.8431 37.6471 31.5230 55.6934 20.9902
329 12.5490 37.6471 25.0980 6.5974 9.9526 7.3214
330 75.2941 62.7451 50.1961 38.7738 38.5275 26.5569
331 25.0980 50.1961 75.2941 20.1050 21.1308 53.3356
332 62.7451 100.0000 62.7451 56.9868 81.7163 46.6405
333 62.7451 25.0980 37.6471 19.2080 12.8651 13.3726
334 87.8431 62.7451 87.8431 57.1487 46.9070 76.8038
335 18.8235 100.0000 100.0000 55.4291 79.5747 107.0458
336 37.6471 87.8431 75.2941 41.5345 60.0078 59.7101
337 12.5490 75.2941 62.7451 26.4831 41.1390 40.4160
338 100.0000 75.2941 25.0980 61.3554 59.7361 14.0445
339 81.5686 75.2941 75.2941 54.7832 55.3658 58.1158
340 25.0980 25.0980 12.5490 5.1169 5.8125 3.1511
341 62.7451 62.7451 56.4706 32.7315 35.2825 32.1528
342 75.2941 0.0000 87.8431 35.7913 17.4224 72.2383
343 50.1961 62.7451 100.0000 40.0782 37.5813 99.7493
344 25.0980 100.0000 37.6471 40.5363 73.7200 23.9946
345 87.8431 37.6471 87.8431 48.8446 30.2989 74.0358
346 0.0000 37.6471 100.0000 22.9610 16.4299 96.5688
347 50.1961 62.7451 75.2941 31.6279 34.2012 55.2511
348 62.7451 100.0000 25.0980 51.6213 79.5701 18.3859
349 12.5490 75.2941 50.1961 24.0587 40.1692 27.6493
350 100.0000 62.7451 0.0000 54.2232 46.9376 7.1481
351 81.1765 81.1765 81.1765 59.6649 62.7721 68.3588
352 62.7451 69.0196 69.0196 38.4309 42.2423 47.7377
353 100.0000 81.1765 81.1765 75.0177 70.6867 69.0773
354 25.0980 87.8431 0.0000 29.4328 54.8573 9.9833
355 12.5490 100.0000 100.0000 54.8121 79.2566 107.0169
356 25.0980 62.7451 37.6471 17.5790 27.8054 16.3422
357 75.2941 0.0000 62.7451 28.7531 14.6071 35.1752
358 50.1961 12.5490 37.6471 12.3651 7.4021 12.6788
359 37.6471 62.7451 25.0980 19.0874 28.7186 10.2853
360 50.1961 75.2941 87.8431 41.7447 48.1936 77.8640
361 62.7451 62.7451 25.0980 28.6640 33.6555 10.7335
362 18.8235 0.0000 100.0000 20.0267 8.7699 95.2450
363 0.0000 25.0980 87.8431 16.0856 9.9581 71.8362
364 12.5490 25.0980 87.8431 16.6753 10.2621 71.8638
365 75.2941 25.0980 12.5490 24.5445 15.8278 4.0603
366 62.7451 25.0980 50.1961 20.9751 13.5719 22.6781
367 0.0000 95.6863 100.0000 50.8472 72.2022 105.8642
368 50.1961 100.0000 37.6471 47.2562 77.1842 24.3091
369 37.6471 12.5490 25.0980 7.1536 4.8511 6.3074
370 87.8431 25.0980 25.0980 34.1148 20.6854 7.9427
371 100.0000 50.1961 12.5490 49.6782 37.4346 6.9062
372 0.0000 37.6471 50.1961 8.9489 10.8250 22.7817
373 0.0000 91.3725 0.0000 29.7980 58.6950 10.7048
374 87.8431 25.0980 87.8431 46.5186 25.6469 73.2604
375 62.7451 0.0000 87.8431 28.6227 13.7268 71.9028
376 56.4706 62.7451 56.4706 29.7659 33.7537 32.0141
377 62.7451 25.0980 0.0000 17.1178 12.0290 2.3657
378 50.1961 37.6471 37.6471 15.9948 14.6615 13.8887
379 37.6471 75.2941 37.6471 26.4775 41.6203 18.5398
380 12.5490 25.0980 12.5490 3.6134 5.0374 3.0808
381 100.0000 75.2941 0.0000 60.4392 59.3697 9.2201
382 87.8431 0.0000 37.6471 33.4738 17.5249 13.5201
383 87.8431 37.6471 62.7451 41.8063 27.4836 36.9726
384 0.0000 50.1961 87.8431 21.9125 21.6120 73.7785
385 81.1765 0.0000 100.0000 44.2948 21.2805 96.3807
386 87.8431 0.0000 100.0000 49.2531 23.8366 96.6127
387 0.0000 12.5490 75.2941 10.8811 5.7904 50.8607
388 87.8431 62.7451 62.7451 50.1104 44.0917 39.7407
389 75.2941 12.5490 37.6471 25.0729 13.9532 13.2735
390 87.8431 25.0980 62.7451 39.4803 22.8316 36.1973
391 75.2941 87.8431 75.2941 58.2797 68.6403 60.4938
392 75.2941 87.8431 37.6471 50.9507 65.7087 21.8994
393 75.2941 50.1961 100.0000 47.9828 34.5262 98.7430
394 87.8431 37.6471 0.0000 35.5246 24.9709 3.8936
395 0.0000 37.6471 75.2941 14.5108 13.0498 52.0706
396 50.1961 25.0980 25.0980 12.4948 9.5399 6.9309
397 62.7451 50.1961 37.6471 25.0349 24.5189 15.3149
398 100.0000 37.6471 25.0980 46.8353 30.6959 9.2045
399 37.6471 75.2941 87.8431 37.7073 46.1122 77.6750
400 0.0000 100.0000 75.2941 45.7722 75.5725 62.4911
401 37.6471 25.0980 0.0000 7.5412 7.0921 1.9175
402 25.0980 25.0980 31.3725 6.2923 6.2826 9.3406
403 37.6471 100.0000 75.2941 50.5478 78.0344 62.7146
404 0.0000 50.1961 50.1961 12.4498 17.8269 23.9487
405 25.0980 50.1961 62.7451 16.9674 19.8757 36.8133
406 87.8431 87.8431 25.0980 58.6888 69.8335 16.1340
407 75.2941 75.2941 100.0000 59.0020 56.5645 102.4160
408 50.1961 50.1961 25.0980 18.3217 21.1937 8.8732
409 18.8235 25.0980 18.8235 4.5005 5.4635 4.5318
410 100.0000 0.0000 95.6863 57.9439 28.5137 88.1279
411 50.1961 87.8431 100.0000 54.0222 65.4693 104.3973
412 62.7451 100.0000 12.5490 50.9632 79.3069 14.9206
413 62.7451 37.6471 75.2941 28.8631 20.4486 52.7423
414 100.0000 37.6471 87.8431 59.2391 35.6575 74.5222
415 31.3725 25.0980 31.3725 7.4742 6.8919 9.3959
416 75.2941 100.0000 100.0000 75.7432 90.0470 107.9965
417 37.6471 87.8431 50.1961 35.9725 57.7831 30.4212
418 50.1961 50.1961 12.5490 17.6637 20.9305 5.4079
419 50.1961 50.1961 37.6471 19.4958 21.6633 15.0557
420 62.7451 62.7451 50.1961 31.6051 34.8320 26.2214
421 12.5490 50.1961 37.6471 11.2724 17.4240 14.6708
422 12.5490 100.0000 50.1961 40.7999 73.6517 33.2298
423 37.6471 87.8431 87.8431 45.4352 61.5681 80.2510
424 37.6471 75.2941 50.1961 28.2446 42.3271 27.8452
425 87.8431 12.5490 75.2941 41.3142 21.4792 52.2850
426 25.0980 25.0980 50.1961 8.7161 7.2521 22.1043
427 12.5490 37.6471 12.5490 5.9394 9.6893 3.8561
428 37.6471 50.1961 75.2941 22.7874 22.5136 53.4611
429 62.7451 12.5490 0.0000 15.8141 9.4215 1.9311
430 0.0000 100.0000 91.3725 50.9138 77.6292 89.5665
431 50.1961 12.5490 87.8431 23.5949 11.8940 71.8141
432 0.0000 37.6471 25.0980 6.0077 9.6485 7.2938
433 87.8431 75.2941 0.0000 50.0447 54.0111 8.7336
434 62.7451 37.6471 37.6471 21.5340 17.5170 14.1479
435 0.0000 91.3725 100.0000 47.6675 65.8428 104.8043
436 50.1961 75.2941 0.0000 28.4247 42.8656 7.7218
437 75.2941 37.6471 0.0000 26.6124 20.3765 3.4765
438 100.0000 4.3137 100.0000 59.7661 29.4322 97.1387
439 87.8431 62.7451 0.0000 43.8287 41.5790 6.6616
440 62.7451 0.0000 37.6471 17.3929 9.2349 12.7676
441 25.0980 62.7451 12.5490 15.7469 27.0725 6.6945
442 50.1961 37.6471 100.0000 31.7741 20.9732 96.9813
443 100.0000 25.0980 87.8431 56.9132 31.0055 73.7469
444 25.0980 31.3725 31.3725 7.3172 8.3324 9.6823
445 87.8431 87.8431 0.0000 57.7727 69.4670 11.3096
446 62.7451 62.7451 75.2941 37.1671 37.0568 55.5103
447 87.8431 87.8431 37.6471 59.8629 70.3031 22.3165
448 25.0980 50.1961 12.5490 10.9438 17.4663 5.0934
449 62.7451 100.0000 37.6471 52.7953 80.0397 24.5684
450 87.8431 0.0000 50.1961 35.2409 18.2317 22.8256
451 75.2941 25.0980 37.6471 26.3766 16.5606 13.7081
452 12.5490 0.0000 87.8431 14.8602 6.6320 71.2588
